(1001)
(Machine)
(  vendor: Autodesk)
(  model: Sainsmart 3018pro)
(  description: 3018)
G90 G94
G17
G21
(When using Fusion 360 for Personal Use, the feedrate of)
(rapid moves is reduced to match the feedrate of cutting)
(moves, which can increase machining time. Unrestricted rapid)
(moves are available with a Fusion 360 Subscription.)

(2D Contour - Sides)
G54
G0 Z5 F1500
G0 X121.3 Y46.945
G1 Z2 F600
S5000 M3
Z1 F200
Z0.5
Y56.4 Z0.17 F600
X123.7 Z0.086
G3 X125.3 Y58 Z-0.002 I0 J1.6
G1 Y65 Z-0.246
X125.296 Y65.109 Z-0.25
G3 X123.7 Y66.6 I-1.596 J-0.109
G1 X121.3
Y144
G3 X119.7 Y145.6 I-1.6 J0
G1 X64.2
G3 X62.6 Y144 I0 J-1.6
G1 Y140
G3 X64.2 Y138.4 I1.6 J0
G1 X65.2
G3 X66.8 Y140 I0 J1.6
G1 Y141.4
X69.2
Y105.6
X64.2
G3 X62.6 Y104 I0 J-1.6
G1 Y100
G3 X64.2 Y98.4 I1.6 J0
G1 X65.2
G3 X66.8 Y100 I0 J1.6
G1 Y101.4
X69.2
Y16
G3 X70.8 Y14.4 I1.6 J0
G1 X119.7
G3 X121.3 Y16 I0 J1.6
G1 Y56.4
X123.7
G3 X125.3 Y58 I0 J1.6
G1 Y65
X125.296 Y65.109
X125.288 Y65.14
X125.268 Y65.166
X125.239 Y65.181
X125.211 Y65.197
X125.19 Y65.221
X125.179 Y65.251
G3 X123.7 Y66.5 I-1.479 J-0.251
G1 X121.2
Y144
G3 X119.7 Y145.5 I-1.5 J0
G1 X64.2
G3 X62.7 Y144 I0 J-1.5
G1 Y140
G3 X64.2 Y138.5 I1.5 J0
G1 X65.2
G3 X66.7 Y140 I0 J1.5
G1 Y141.5
X69.3
Y105.5
X64.2
G3 X62.7 Y104 I0 J-1.5
G1 Y100
G3 X64.2 Y98.5 I1.5 J0
G1 X65.2
G3 X66.7 Y100 I0 J1.5
G1 Y101.5
X69.3
Y16
G3 X70.8 Y14.5 I1.5 J0
G1 X119.7
G3 X121.2 Y16 I0 J1.5
G1 Y56.5
X123.7
G3 X125.2 Y58 I0 J1.5
G1 Y65
G3 X125.179 Y65.251 I-1.5 J0
G1 X125.18 Y65.29
X125.196 Y65.326
X125.224 Y65.352
X125.261 Y65.366
X125.359 Y65.383
X125.397 Y65.389 Z-0.242
X125.429 Y65.395 Z-0.221
X125.45 Y65.398 Z-0.188
X125.458 Y65.4 Z-0.15
Z3
X121.3 Y46.945
Z2
Z0.75 F200
Z0.25
Y56.4 Z-0.08 F600
X123.7 Z-0.164
G3 X125.3 Y58 Z-0.252 I0 J1.6
G1 Y65 Z-0.496
X125.296 Y65.109 Z-0.5
G3 X123.7 Y66.6 I-1.596 J-0.109
G1 X121.3
Y144
G3 X119.7 Y145.6 I-1.6 J0
G1 X64.2
G3 X62.6 Y144 I0 J-1.6
G1 Y140
G3 X64.2 Y138.4 I1.6 J0
G1 X65.2
G3 X66.8 Y140 I0 J1.6
G1 Y141.4
X69.2
Y105.6
X64.2
G3 X62.6 Y104 I0 J-1.6
G1 Y100
G3 X64.2 Y98.4 I1.6 J0
G1 X65.2
G3 X66.8 Y100 I0 J1.6
G1 Y101.4
X69.2
Y16
G3 X70.8 Y14.4 I1.6 J0
G1 X119.7
G3 X121.3 Y16 I0 J1.6
G1 Y56.4
X123.7
G3 X125.3 Y58 I0 J1.6
G1 Y65
X125.296 Y65.109
X125.288 Y65.14
X125.268 Y65.166
X125.239 Y65.181
X125.211 Y65.197
X125.19 Y65.221
X125.179 Y65.251
G3 X123.7 Y66.5 I-1.479 J-0.251
G1 X121.2
Y144
G3 X119.7 Y145.5 I-1.5 J0
G1 X64.2
G3 X62.7 Y144 I0 J-1.5
G1 Y140
G3 X64.2 Y138.5 I1.5 J0
G1 X65.2
G3 X66.7 Y140 I0 J1.5
G1 Y141.5
X69.3
Y105.5
X64.2
G3 X62.7 Y104 I0 J-1.5
G1 Y100
G3 X64.2 Y98.5 I1.5 J0
G1 X65.2
G3 X66.7 Y100 I0 J1.5
G1 Y101.5
X69.3
Y16
G3 X70.8 Y14.5 I1.5 J0
G1 X119.7
G3 X121.2 Y16 I0 J1.5
G1 Y56.5
X123.7
G3 X125.2 Y58 I0 J1.5
G1 Y65
G3 X125.179 Y65.251 I-1.5 J0
G1 X125.18 Y65.29
X125.196 Y65.326
X125.224 Y65.352
X125.261 Y65.366
X125.359 Y65.383
X125.397 Y65.389 Z-0.492
X125.429 Y65.395 Z-0.471
X125.45 Y65.398 Z-0.438
X125.458 Y65.4 Z-0.4
Z3
X121.3 Y46.945
Z2
Z0.5 F200
Z0
Y56.4 Z-0.33 F600
X123.7 Z-0.414
G3 X125.3 Y58 Z-0.502 I0 J1.6
G1 Y65 Z-0.746
X125.296 Y65.109 Z-0.75
G3 X123.7 Y66.6 I-1.596 J-0.109
G1 X121.3
Y144
G3 X119.7 Y145.6 I-1.6 J0
G1 X64.2
G3 X62.6 Y144 I0 J-1.6
G1 Y140
G3 X64.2 Y138.4 I1.6 J0
G1 X65.2
G3 X66.8 Y140 I0 J1.6
G1 Y141.4
X69.2
Y105.6
X64.2
G3 X62.6 Y104 I0 J-1.6
G1 Y100
G3 X64.2 Y98.4 I1.6 J0
G1 X65.2
G3 X66.8 Y100 I0 J1.6
G1 Y101.4
X69.2
Y16
G3 X70.8 Y14.4 I1.6 J0
G1 X119.7
G3 X121.3 Y16 I0 J1.6
G1 Y56.4
X123.7
G3 X125.3 Y58 I0 J1.6
G1 Y65
X125.296 Y65.109
X125.288 Y65.14
X125.268 Y65.166
X125.239 Y65.181
X125.211 Y65.197
X125.19 Y65.221
X125.179 Y65.251
G3 X123.7 Y66.5 I-1.479 J-0.251
G1 X121.2
Y144
G3 X119.7 Y145.5 I-1.5 J0
G1 X64.2
G3 X62.7 Y144 I0 J-1.5
G1 Y140
G3 X64.2 Y138.5 I1.5 J0
G1 X65.2
G3 X66.7 Y140 I0 J1.5
G1 Y141.5
X69.3
Y105.5
X64.2
G3 X62.7 Y104 I0 J-1.5
G1 Y100
G3 X64.2 Y98.5 I1.5 J0
G1 X65.2
G3 X66.7 Y100 I0 J1.5
G1 Y101.5
X69.3
Y16
G3 X70.8 Y14.5 I1.5 J0
G1 X119.7
G3 X121.2 Y16 I0 J1.5
G1 Y56.5
X123.7
G3 X125.2 Y58 I0 J1.5
G1 Y65
G3 X125.179 Y65.251 I-1.5 J0
G1 X125.18 Y65.29
X125.196 Y65.326
X125.224 Y65.352
X125.261 Y65.366
X125.359 Y65.383
X125.397 Y65.389 Z-0.742
X125.429 Y65.395 Z-0.721
X125.45 Y65.398 Z-0.688
X125.458 Y65.4 Z-0.65
Z3
X121.3 Y46.945
Z2
Z0.25 F200
Z-0.25
Y56.4 Z-0.58 F600
X123.7 Z-0.664
G3 X125.3 Y58 Z-0.752 I0 J1.6
G1 Y65 Z-0.996
X125.296 Y65.109 Z-1
G3 X123.7 Y66.6 I-1.596 J-0.109
G1 X121.3
Y144
G3 X119.7 Y145.6 I-1.6 J0
G1 X64.2
G3 X62.6 Y144 I0 J-1.6
G1 Y140
G3 X64.2 Y138.4 I1.6 J0
G1 X65.2
G3 X66.8 Y140 I0 J1.6
G1 Y141.4
X69.2
Y105.6
X64.2
G3 X62.6 Y104 I0 J-1.6
G1 Y100
G3 X64.2 Y98.4 I1.6 J0
G1 X65.2
G3 X66.8 Y100 I0 J1.6
G1 Y101.4
X69.2
Y16
G3 X70.8 Y14.4 I1.6 J0
G1 X119.7
G3 X121.3 Y16 I0 J1.6
G1 Y56.4
X123.7
G3 X125.3 Y58 I0 J1.6
G1 Y65
X125.296 Y65.109
X125.288 Y65.14
X125.268 Y65.166
X125.239 Y65.181
X125.211 Y65.197
X125.19 Y65.221
X125.179 Y65.251
G3 X123.7 Y66.5 I-1.479 J-0.251
G1 X121.2
Y144
G3 X119.7 Y145.5 I-1.5 J0
G1 X64.2
G3 X62.7 Y144 I0 J-1.5
G1 Y140
G3 X64.2 Y138.5 I1.5 J0
G1 X65.2
G3 X66.7 Y140 I0 J1.5
G1 Y141.5
X69.3
Y105.5
X64.2
G3 X62.7 Y104 I0 J-1.5
G1 Y100
G3 X64.2 Y98.5 I1.5 J0
G1 X65.2
G3 X66.7 Y100 I0 J1.5
G1 Y101.5
X69.3
Y16
G3 X70.8 Y14.5 I1.5 J0
G1 X119.7
G3 X121.2 Y16 I0 J1.5
G1 Y56.5
X123.7
G3 X125.2 Y58 I0 J1.5
G1 Y65
G3 X125.179 Y65.251 I-1.5 J0
G1 X125.18 Y65.29
X125.196 Y65.326
X125.224 Y65.352
X125.261 Y65.366
X125.359 Y65.383
X125.397 Y65.389 Z-0.992
X125.429 Y65.395 Z-0.971
X125.45 Y65.398 Z-0.938
X125.458 Y65.4 Z-0.9
Z3
X121.3 Y46.945
Z2
Z0 F200
Z-0.5
Y56.4 Z-0.83 F600
X123.7 Z-0.914
G3 X125.3 Y58 Z-1.002 I0 J1.6
G1 Y65 Z-1.246
X125.296 Y65.109 Z-1.25
G3 X123.7 Y66.6 I-1.596 J-0.109
G1 X121.3
Y144
G3 X119.7 Y145.6 I-1.6 J0
G1 X64.2
G3 X62.6 Y144 I0 J-1.6
G1 Y140
G3 X64.2 Y138.4 I1.6 J0
G1 X65.2
G3 X66.8 Y140 I0 J1.6
G1 Y141.4
X69.2
Y105.6
X64.2
G3 X62.6 Y104 I0 J-1.6
G1 Y100
G3 X64.2 Y98.4 I1.6 J0
G1 X65.2
G3 X66.8 Y100 I0 J1.6
G1 Y101.4
X69.2
Y16
G3 X70.8 Y14.4 I1.6 J0
G1 X119.7
G3 X121.3 Y16 I0 J1.6
G1 Y56.4
X123.7
G3 X125.3 Y58 I0 J1.6
G1 Y65
X125.296 Y65.109
X125.288 Y65.14
X125.268 Y65.166
X125.239 Y65.181
X125.211 Y65.197
X125.19 Y65.221
X125.179 Y65.251
G3 X123.7 Y66.5 I-1.479 J-0.251
G1 X121.2
Y144
G3 X119.7 Y145.5 I-1.5 J0
G1 X64.2
G3 X62.7 Y144 I0 J-1.5
G1 Y140
G3 X64.2 Y138.5 I1.5 J0
G1 X65.2
G3 X66.7 Y140 I0 J1.5
G1 Y141.5
X69.3
Y105.5
X64.2
G3 X62.7 Y104 I0 J-1.5
G1 Y100
G3 X64.2 Y98.5 I1.5 J0
G1 X65.2
G3 X66.7 Y100 I0 J1.5
G1 Y101.5
X69.3
Y16
G3 X70.8 Y14.5 I1.5 J0
G1 X119.7
G3 X121.2 Y16 I0 J1.5
G1 Y56.5
X123.7
G3 X125.2 Y58 I0 J1.5
G1 Y65
G3 X125.179 Y65.251 I-1.5 J0
G1 X125.18 Y65.29
X125.196 Y65.326
X125.224 Y65.352
X125.261 Y65.366
X125.359 Y65.383
X125.397 Y65.389 Z-1.242
X125.429 Y65.395 Z-1.221
X125.45 Y65.398 Z-1.188
X125.458 Y65.4 Z-1.15
Z3
X121.3 Y46.945
Z2
Z-0.25 F200
Z-0.75
Y56.4 Z-1.08 F600
X123.7 Z-1.164
G3 X125.3 Y58 Z-1.252 I0 J1.6
G1 Y65 Z-1.496
X125.296 Y65.109 Z-1.5
G3 X123.7 Y66.6 I-1.596 J-0.109
G1 X121.3
Y144
G3 X119.7 Y145.6 I-1.6 J0
G1 X64.2
G3 X62.6 Y144 I0 J-1.6
G1 Y140
G3 X64.2 Y138.4 I1.6 J0
G1 X65.2
G3 X66.8 Y140 I0 J1.6
G1 Y141.4
X69.2
Y105.6
X64.2
G3 X62.6 Y104 I0 J-1.6
G1 Y100
G3 X64.2 Y98.4 I1.6 J0
G1 X65.2
G3 X66.8 Y100 I0 J1.6
G1 Y101.4
X69.2
Y16
G3 X70.8 Y14.4 I1.6 J0
G1 X119.7
G3 X121.3 Y16 I0 J1.6
G1 Y56.4
X123.7
G3 X125.3 Y58 I0 J1.6
G1 Y65
X125.296 Y65.109
X125.288 Y65.14
X125.268 Y65.166
X125.239 Y65.181
X125.211 Y65.197
X125.19 Y65.221
X125.179 Y65.251
G3 X123.7 Y66.5 I-1.479 J-0.251
G1 X121.2
Y144
G3 X119.7 Y145.5 I-1.5 J0
G1 X64.2
G3 X62.7 Y144 I0 J-1.5
G1 Y140
G3 X64.2 Y138.5 I1.5 J0
G1 X65.2
G3 X66.7 Y140 I0 J1.5
G1 Y141.5
X69.3
Y105.5
X64.2
G3 X62.7 Y104 I0 J-1.5
G1 Y100
G3 X64.2 Y98.5 I1.5 J0
G1 X65.2
G3 X66.7 Y100 I0 J1.5
G1 Y101.5
X69.3
Y16
G3 X70.8 Y14.5 I1.5 J0
G1 X119.7
G3 X121.2 Y16 I0 J1.5
G1 Y56.5
X123.7
G3 X125.2 Y58 I0 J1.5
G1 Y65
G3 X125.179 Y65.251 I-1.5 J0
G1 X125.18 Y65.29
X125.196 Y65.326
X125.224 Y65.352
X125.261 Y65.366
X125.359 Y65.383
X125.397 Y65.389 Z-1.492
X125.429 Y65.395 Z-1.471
X125.45 Y65.398 Z-1.438
X125.458 Y65.4 Z-1.4
Z3
X121.3 Y46.945
Z2
Z-0.5 F200
Z-1
Y56.4 Z-1.33 F600
X123.7 Z-1.414
G3 X125.3 Y58 Z-1.502 I0 J1.6
G1 Y65 Z-1.746
X125.296 Y65.109 Z-1.75
G3 X123.7 Y66.6 I-1.596 J-0.109
G1 X121.3
Y144
G3 X119.7 Y145.6 I-1.6 J0
G1 X64.2
G3 X62.6 Y144 I0 J-1.6
G1 Y140
G3 X64.2 Y138.4 I1.6 J0
G1 X65.2
G3 X66.8 Y140 I0 J1.6
G1 Y141.4
X69.2
Y105.6
X64.2
G3 X62.6 Y104 I0 J-1.6
G1 Y100
G3 X64.2 Y98.4 I1.6 J0
G1 X65.2
G3 X66.8 Y100 I0 J1.6
G1 Y101.4
X69.2
Y16
G3 X70.8 Y14.4 I1.6 J0
G1 X119.7
G3 X121.3 Y16 I0 J1.6
G1 Y56.4
X123.7
G3 X125.3 Y58 I0 J1.6
G1 Y65
X125.296 Y65.109
X125.288 Y65.14
X125.268 Y65.166
X125.239 Y65.181
X125.211 Y65.197
X125.19 Y65.221
X125.179 Y65.251
G3 X123.7 Y66.5 I-1.479 J-0.251
G1 X121.2
Y144
G3 X119.7 Y145.5 I-1.5 J0
G1 X64.2
G3 X62.7 Y144 I0 J-1.5
G1 Y140
G3 X64.2 Y138.5 I1.5 J0
G1 X65.2
G3 X66.7 Y140 I0 J1.5
G1 Y141.5
X69.3
Y105.5
X64.2
G3 X62.7 Y104 I0 J-1.5
G1 Y100
G3 X64.2 Y98.5 I1.5 J0
G1 X65.2
G3 X66.7 Y100 I0 J1.5
G1 Y101.5
X69.3
Y16
G3 X70.8 Y14.5 I1.5 J0
G1 X119.7
G3 X121.2 Y16 I0 J1.5
G1 Y56.5
X123.7
G3 X125.2 Y58 I0 J1.5
G1 Y65
G3 X125.179 Y65.251 I-1.5 J0
G1 X125.18 Y65.29
X125.196 Y65.326
X125.224 Y65.352
X125.261 Y65.366
X125.359 Y65.383
X125.397 Y65.389 Z-1.742
X125.429 Y65.395 Z-1.721
X125.45 Y65.398 Z-1.688
X125.458 Y65.4 Z-1.65
Z3
X121.3 Y46.945
Z2
Z-0.75 F200
Z-1.25
Y56.4 Z-1.58 F600
X123.7 Z-1.664
G3 X125.3 Y58 Z-1.752 I0 J1.6
G1 Y65 Z-1.996
X125.296 Y65.109 Z-2
G3 X123.7 Y66.6 I-1.596 J-0.109
G1 X121.3
Y144
G3 X119.7 Y145.6 I-1.6 J0
G1 X64.2
G3 X62.6 Y144 I0 J-1.6
G1 Y140
G3 X64.2 Y138.4 I1.6 J0
G1 X65.2
G3 X66.8 Y140 I0 J1.6
G1 Y141.4
X69.2
Y105.6
X64.2
G3 X62.6 Y104 I0 J-1.6
G1 Y100
G3 X64.2 Y98.4 I1.6 J0
G1 X65.2
G3 X66.8 Y100 I0 J1.6
G1 Y101.4
X69.2
Y16
G3 X70.8 Y14.4 I1.6 J0
G1 X119.7
G3 X121.3 Y16 I0 J1.6
G1 Y56.4
X123.7
G3 X125.3 Y58 I0 J1.6
G1 Y65
X125.296 Y65.109
X125.288 Y65.14
X125.268 Y65.166
X125.239 Y65.181
X125.211 Y65.197
X125.19 Y65.221
X125.179 Y65.251
G3 X123.7 Y66.5 I-1.479 J-0.251
G1 X121.2
Y144
G3 X119.7 Y145.5 I-1.5 J0
G1 X64.2
G3 X62.7 Y144 I0 J-1.5
G1 Y140
G3 X64.2 Y138.5 I1.5 J0
G1 X65.2
G3 X66.7 Y140 I0 J1.5
G1 Y141.5
X69.3
Y105.5
X64.2
G3 X62.7 Y104 I0 J-1.5
G1 Y100
G3 X64.2 Y98.5 I1.5 J0
G1 X65.2
G3 X66.7 Y100 I0 J1.5
G1 Y101.5
X69.3
Y16
G3 X70.8 Y14.5 I1.5 J0
G1 X119.7
G3 X121.2 Y16 I0 J1.5
G1 Y56.5
X123.7
G3 X125.2 Y58 I0 J1.5
G1 Y65
G3 X125.179 Y65.251 I-1.5 J0
G1 X125.18 Y65.29
X125.196 Y65.326
X125.224 Y65.352
X125.261 Y65.366
X125.359 Y65.383
X125.397 Y65.389 Z-1.992
X125.429 Y65.395 Z-1.971
X125.45 Y65.398 Z-1.938
X125.458 Y65.4 Z-1.9
Z3
X121.3 Y46.945
Z2
Z-1 F200
Z-1.5
Y56.4 Z-1.83 F600
X123.7 Z-1.914
G3 X125.3 Y58 Z-2.002 I0 J1.6
G1 Y65 Z-2.246
X125.296 Y65.109 Z-2.25
G3 X123.7 Y66.6 I-1.596 J-0.109
G1 X121.3
Y144
G3 X119.7 Y145.6 I-1.6 J0
G1 X64.2
G3 X62.6 Y144 I0 J-1.6
G1 Y140
G3 X64.2 Y138.4 I1.6 J0
G1 X65.2
G3 X66.8 Y140 I0 J1.6
G1 Y141.4
X69.2
Y105.6
X64.2
G3 X62.6 Y104 I0 J-1.6
G1 Y100
G3 X64.2 Y98.4 I1.6 J0
G1 X65.2
G3 X66.8 Y100 I0 J1.6
G1 Y101.4
X69.2
Y16
G3 X70.8 Y14.4 I1.6 J0
G1 X119.7
G3 X121.3 Y16 I0 J1.6
G1 Y56.4
X123.7
G3 X125.3 Y58 I0 J1.6
G1 Y65
X125.296 Y65.109
X125.288 Y65.14
X125.268 Y65.166
X125.239 Y65.181
X125.211 Y65.197
X125.19 Y65.221
X125.179 Y65.251
G3 X123.7 Y66.5 I-1.479 J-0.251
G1 X121.2
Y144
G3 X119.7 Y145.5 I-1.5 J0
G1 X64.2
G3 X62.7 Y144 I0 J-1.5
G1 Y140
G3 X64.2 Y138.5 I1.5 J0
G1 X65.2
G3 X66.7 Y140 I0 J1.5
G1 Y141.5
X69.3
Y105.5
X64.2
G3 X62.7 Y104 I0 J-1.5
G1 Y100
G3 X64.2 Y98.5 I1.5 J0
G1 X65.2
G3 X66.7 Y100 I0 J1.5
G1 Y101.5
X69.3
Y16
G3 X70.8 Y14.5 I1.5 J0
G1 X119.7
G3 X121.2 Y16 I0 J1.5
G1 Y56.5
X123.7
G3 X125.2 Y58 I0 J1.5
G1 Y65
G3 X125.179 Y65.251 I-1.5 J0
G1 X125.18 Y65.29
X125.196 Y65.326
X125.224 Y65.352
X125.261 Y65.366
X125.359 Y65.383
X125.397 Y65.389 Z-2.242
X125.429 Y65.395 Z-2.221
X125.45 Y65.398 Z-2.188
X125.458 Y65.4 Z-2.15
Z3
X121.3 Y46.945
Z2
Z-1.25 F200
Z-1.75
Y56.4 Z-2.08 F600
X123.7 Z-2.164
G3 X125.3 Y58 Z-2.252 I0 J1.6
G1 Y65 Z-2.496
X125.296 Y65.109 Z-2.5
G3 X123.7 Y66.6 I-1.596 J-0.109
G1 X121.3
Y144
G3 X119.7 Y145.6 I-1.6 J0
G1 X64.2
G3 X62.6 Y144 I0 J-1.6
G1 Y140
G3 X64.2 Y138.4 I1.6 J0
G1 X65.2
G3 X66.8 Y140 I0 J1.6
G1 Y141.4
X69.2
Y105.6
X64.2
G3 X62.6 Y104 I0 J-1.6
G1 Y100
G3 X64.2 Y98.4 I1.6 J0
G1 X65.2
G3 X66.8 Y100 I0 J1.6
G1 Y101.4
X69.2
Y16
G3 X70.8 Y14.4 I1.6 J0
G1 X119.7
G3 X121.3 Y16 I0 J1.6
G1 Y56.4
X123.7
G3 X125.3 Y58 I0 J1.6
G1 Y65
X125.296 Y65.109
X125.288 Y65.14
X125.268 Y65.166
X125.239 Y65.181
X125.211 Y65.197
X125.19 Y65.221
X125.179 Y65.251
G3 X123.7 Y66.5 I-1.479 J-0.251
G1 X121.2
Y144
G3 X119.7 Y145.5 I-1.5 J0
G1 X64.2
G3 X62.7 Y144 I0 J-1.5
G1 Y140
G3 X64.2 Y138.5 I1.5 J0
G1 X65.2
G3 X66.7 Y140 I0 J1.5
G1 Y141.5
X69.3
Y105.5
X64.2
G3 X62.7 Y104 I0 J-1.5
G1 Y100
G3 X64.2 Y98.5 I1.5 J0
G1 X65.2
G3 X66.7 Y100 I0 J1.5
G1 Y101.5
X69.3
Y16
G3 X70.8 Y14.5 I1.5 J0
G1 X119.7
G3 X121.2 Y16 I0 J1.5
G1 Y56.5
X123.7
G3 X125.2 Y58 I0 J1.5
G1 Y65
G3 X125.179 Y65.251 I-1.5 J0
G1 X125.18 Y65.29
X125.196 Y65.326
X125.224 Y65.352
X125.261 Y65.366
X125.359 Y65.383
X125.397 Y65.389 Z-2.492
X125.429 Y65.395 Z-2.471
X125.45 Y65.398 Z-2.438
X125.458 Y65.4 Z-2.4
Z3
X121.3 Y46.945
Z2
Z-1.5 F200
Z-2
Y56.4 Z-2.33 F600
X123.7 Z-2.414
G3 X125.3 Y58 Z-2.502 I0 J1.6
G1 Y65 Z-2.746
X125.296 Y65.109 Z-2.75
G3 X123.7 Y66.6 I-1.596 J-0.109
G1 X121.3
Y144
G3 X119.7 Y145.6 I-1.6 J0
G1 X64.2
G3 X62.6 Y144 I0 J-1.6
G1 Y140
G3 X64.2 Y138.4 I1.6 J0
G1 X65.2
G3 X66.8 Y140 I0 J1.6
G1 Y141.4
X69.2
Y105.6
X64.2
G3 X62.6 Y104 I0 J-1.6
G1 Y100
G3 X64.2 Y98.4 I1.6 J0
G1 X65.2
G3 X66.8 Y100 I0 J1.6
G1 Y101.4
X69.2
Y16
G3 X70.8 Y14.4 I1.6 J0
G1 X119.7
G3 X121.3 Y16 I0 J1.6
G1 Y56.4
X123.7
G3 X125.3 Y58 I0 J1.6
G1 Y65
X125.296 Y65.109
X125.288 Y65.14
X125.268 Y65.166
X125.239 Y65.181
X125.211 Y65.197
X125.19 Y65.221
X125.179 Y65.251
G3 X123.7 Y66.5 I-1.479 J-0.251
G1 X121.2
Y144
G3 X119.7 Y145.5 I-1.5 J0
G1 X64.2
G3 X62.7 Y144 I0 J-1.5
G1 Y140
G3 X64.2 Y138.5 I1.5 J0
G1 X65.2
G3 X66.7 Y140 I0 J1.5
G1 Y141.5
X69.3
Y105.5
X64.2
G3 X62.7 Y104 I0 J-1.5
G1 Y100
G3 X64.2 Y98.5 I1.5 J0
G1 X65.2
G3 X66.7 Y100 I0 J1.5
G1 Y101.5
X69.3
Y16
G3 X70.8 Y14.5 I1.5 J0
G1 X119.7
G3 X121.2 Y16 I0 J1.5
G1 Y56.5
X123.7
G3 X125.2 Y58 I0 J1.5
G1 Y65
G3 X125.179 Y65.251 I-1.5 J0
G1 X125.18 Y65.29
X125.196 Y65.326
X125.224 Y65.352
X125.261 Y65.366
X125.359 Y65.383
X125.397 Y65.389 Z-2.742
X125.429 Y65.395 Z-2.721
X125.45 Y65.398 Z-2.688
X125.458 Y65.4 Z-2.65
Z3
X121.3 Y46.945
Z2
Z-1.75 F200
Z-2.25
Y56.4 Z-2.58 F600
X123.7 Z-2.664
G3 X125.3 Y58 Z-2.752 I0 J1.6
G1 Y65 Z-2.996
X125.296 Y65.109 Z-3
G3 X123.7 Y66.6 I-1.596 J-0.109
G1 X121.3
Y144
G3 X119.7 Y145.6 I-1.6 J0
G1 X64.2
G3 X62.6 Y144 I0 J-1.6
G1 Y140
G3 X64.2 Y138.4 I1.6 J0
G1 X65.2
G3 X66.8 Y140 I0 J1.6
G1 Y141.4
X69.2
Y105.6
X64.2
G3 X62.6 Y104 I0 J-1.6
G1 Y100
G3 X64.2 Y98.4 I1.6 J0
G1 X65.2
G3 X66.8 Y100 I0 J1.6
G1 Y101.4
X69.2
Y16
G3 X70.8 Y14.4 I1.6 J0
G1 X119.7
G3 X121.3 Y16 I0 J1.6
G1 Y56.4
X123.7
G3 X125.3 Y58 I0 J1.6
G1 Y65
X125.296 Y65.109
X125.288 Y65.14
X125.268 Y65.166
X125.239 Y65.181
X125.211 Y65.197
X125.19 Y65.221
X125.179 Y65.251
G3 X123.7 Y66.5 I-1.479 J-0.251
G1 X121.2
Y144
G3 X119.7 Y145.5 I-1.5 J0
G1 X64.2
G3 X62.7 Y144 I0 J-1.5
G1 Y140
G3 X64.2 Y138.5 I1.5 J0
G1 X65.2
G3 X66.7 Y140 I0 J1.5
G1 Y141.5
X69.3
Y105.5
X64.2
G3 X62.7 Y104 I0 J-1.5
G1 Y100
G3 X64.2 Y98.5 I1.5 J0
G1 X65.2
G3 X66.7 Y100 I0 J1.5
G1 Y101.5
X69.3
Y16
G3 X70.8 Y14.5 I1.5 J0
G1 X119.7
G3 X121.2 Y16 I0 J1.5
G1 Y56.5
X123.7
G3 X125.2 Y58 I0 J1.5
G1 Y65
G3 X125.179 Y65.251 I-1.5 J0
G1 X125.18 Y65.29
X125.196 Y65.326
X125.224 Y65.352
X125.261 Y65.366
X125.359 Y65.383
X125.397 Y65.389 Z-2.992
X125.429 Y65.395 Z-2.971
X125.45 Y65.398 Z-2.938
X125.458 Y65.4 Z-2.9
Z3
X121.3 Y51.24
Z2
Z-2 F200
Z-2.5
Y56.4 Z-2.68 F600
X123.7 Z-2.764
G3 X125.3 Y58 Z-2.852 I0 J1.6
G1 Y65 Z-3.096
X125.296 Y65.109 Z-3.1
G3 X123.7 Y66.6 I-1.596 J-0.109
G1 X121.3
Y144
G3 X119.7 Y145.6 I-1.6 J0
G1 X64.2
G3 X62.6 Y144 I0 J-1.6
G1 Y140
G3 X64.2 Y138.4 I1.6 J0
G1 X65.2
G3 X66.8 Y140 I0 J1.6
G1 Y141.4
X69.2
Y105.6
X64.2
G3 X62.6 Y104 I0 J-1.6
G1 Y100
G3 X64.2 Y98.4 I1.6 J0
G1 X65.2
G3 X66.8 Y100 I0 J1.6
G1 Y101.4
X69.2
Y16
G3 X70.8 Y14.4 I1.6 J0
G1 X119.7
G3 X121.3 Y16 I0 J1.6
G1 Y56.4
X123.7
G3 X125.3 Y58 I0 J1.6
G1 Y65
X125.296 Y65.109
X125.288 Y65.14
X125.268 Y65.166
X125.239 Y65.181
X125.211 Y65.197
X125.19 Y65.221
X125.179 Y65.251
G3 X123.7 Y66.5 I-1.479 J-0.251
G1 X121.2
Y144
G3 X119.7 Y145.5 I-1.5 J0
G1 X64.2
G3 X62.7 Y144 I0 J-1.5
G1 Y140
G3 X64.2 Y138.5 I1.5 J0
G1 X65.2
G3 X66.7 Y140 I0 J1.5
G1 Y141.5
X69.3
Y105.5
X64.2
G3 X62.7 Y104 I0 J-1.5
G1 Y100
G3 X64.2 Y98.5 I1.5 J0
G1 X65.2
G3 X66.7 Y100 I0 J1.5
G1 Y101.5
X69.3
Y16
G3 X70.8 Y14.5 I1.5 J0
G1 X119.7
G3 X121.2 Y16 I0 J1.5
G1 Y56.5
X123.7
G3 X125.2 Y58 I0 J1.5
G1 Y65
G3 X125.179 Y65.251 I-1.5 J0
G1 X125.18 Y65.29
X125.196 Y65.326
X125.224 Y65.352
X125.261 Y65.366
X125.359 Y65.383
X125.397 Y65.389 Z-3.092
X125.429 Y65.395 Z-3.071
X125.45 Y65.398 Z-3.038
X125.458 Y65.4 Z-3
Z3
X108.85 Y61.74
Z2
Z1 F200
Z0.5
Y67.9 Z0.285 F600
X114.15 Z0.1
Y57.883 Z-0.25
Y22.6
X112.1
Y53.5
G3 X111.924 Y53.924 I-0.6 J0
G1 X110.424 Y55.424
G3 X110 Y55.6 I-0.424 J-0.424
G1 X108.85
Y67.9
X114.15
Y57.883
X114.156 Y57.852
X114.174 Y57.826
X114.2 Y57.808
X114.226 Y57.791
X114.244 Y57.764
X114.25 Y57.733
Y22.5
X112
Y53.5
G3 X111.854 Y53.854 I-0.5 J0
G1 X110.354 Y55.354
G3 X110 Y55.5 I-0.354 J-0.354
G1 X108.75
Y68
X114.25
Y57.733
X114.242 Y57.695
X114.221 Y57.663
X114.188 Y57.641
X114.15 Y57.633
X114.05
X114.012 Z-0.242
X113.979 Z-0.221
X113.958 Z-0.188
X113.95 Z-0.15
Z3
X108.85 Y61.74
Z2
Z0.75 F200
Z0.25
Y67.9 Z0.035 F600
X114.15 Z-0.15
Y57.883 Z-0.5
Y22.6
X112.1
Y53.5
G3 X111.924 Y53.924 I-0.6 J0
G1 X110.424 Y55.424
G3 X110 Y55.6 I-0.424 J-0.424
G1 X108.85
Y67.9
X114.15
Y57.883
X114.156 Y57.852
X114.174 Y57.826
X114.2 Y57.808
X114.226 Y57.791
X114.244 Y57.764
X114.25 Y57.733
Y22.5
X112
Y53.5
G3 X111.854 Y53.854 I-0.5 J0
G1 X110.354 Y55.354
G3 X110 Y55.5 I-0.354 J-0.354
G1 X108.75
Y68
X114.25
Y57.733
X114.242 Y57.695
X114.221 Y57.663
X114.188 Y57.641
X114.15 Y57.633
X114.05
X114.012 Z-0.492
X113.979 Z-0.471
X113.958 Z-0.438
X113.95 Z-0.4
Z3
X108.85 Y61.74
Z2
Z0.5 F200
Z0
Y67.9 Z-0.215 F600
X114.15 Z-0.4
Y57.883 Z-0.75
Y22.6
X112.1
Y53.5
G3 X111.924 Y53.924 I-0.6 J0
G1 X110.424 Y55.424
G3 X110 Y55.6 I-0.424 J-0.424
G1 X108.85
Y67.9
X114.15
Y57.883
X114.156 Y57.852
X114.174 Y57.826
X114.2 Y57.808
X114.226 Y57.791
X114.244 Y57.764
X114.25 Y57.733
Y22.5
X112
Y53.5
G3 X111.854 Y53.854 I-0.5 J0
G1 X110.354 Y55.354
G3 X110 Y55.5 I-0.354 J-0.354
G1 X108.75
Y68
X114.25
Y57.733
X114.242 Y57.695
X114.221 Y57.663
X114.188 Y57.641
X114.15 Y57.633
X114.05
X114.012 Z-0.742
X113.979 Z-0.721
X113.958 Z-0.688
X113.95 Z-0.65
Z3
X108.85 Y61.74
Z2
Z0.25 F200
Z-0.25
Y67.9 Z-0.465 F600
X114.15 Z-0.65
Y57.883 Z-1
Y22.6
X112.1
Y53.5
G3 X111.924 Y53.924 I-0.6 J0
G1 X110.424 Y55.424
G3 X110 Y55.6 I-0.424 J-0.424
G1 X108.85
Y67.9
X114.15
Y57.883
X114.156 Y57.852
X114.174 Y57.826
X114.2 Y57.808
X114.226 Y57.791
X114.244 Y57.764
X114.25 Y57.733
Y22.5
X112
Y53.5
G3 X111.854 Y53.854 I-0.5 J0
G1 X110.354 Y55.354
G3 X110 Y55.5 I-0.354 J-0.354
G1 X108.75
Y68
X114.25
Y57.733
X114.242 Y57.695
X114.221 Y57.663
X114.188 Y57.641
X114.15 Y57.633
X114.05
X114.012 Z-0.992
X113.979 Z-0.971
X113.958 Z-0.938
X113.95 Z-0.9
Z3
X108.85 Y61.74
Z2
Z0 F200
Z-0.5
Y67.9 Z-0.715 F600
X114.15 Z-0.9
Y57.883 Z-1.25
Y22.6
X112.1
Y53.5
G3 X111.924 Y53.924 I-0.6 J0
G1 X110.424 Y55.424
G3 X110 Y55.6 I-0.424 J-0.424
G1 X108.85
Y67.9
X114.15
Y57.883
X114.156 Y57.852
X114.174 Y57.826
X114.2 Y57.808
X114.226 Y57.791
X114.244 Y57.764
X114.25 Y57.733
Y22.5
X112
Y53.5
G3 X111.854 Y53.854 I-0.5 J0
G1 X110.354 Y55.354
G3 X110 Y55.5 I-0.354 J-0.354
G1 X108.75
Y68
X114.25
Y57.733
X114.242 Y57.695
X114.221 Y57.663
X114.188 Y57.641
X114.15 Y57.633
X114.05
X114.012 Z-1.242
X113.979 Z-1.221
X113.958 Z-1.188
X113.95 Z-1.15
Z3
X108.85 Y61.74
Z2
Z-0.25 F200
Z-0.75
Y67.9 Z-0.965 F600
X114.15 Z-1.15
Y57.883 Z-1.5
Y22.6
X112.1
Y53.5
G3 X111.924 Y53.924 I-0.6 J0
G1 X110.424 Y55.424
G3 X110 Y55.6 I-0.424 J-0.424
G1 X108.85
Y67.9
X114.15
Y57.883
X114.156 Y57.852
X114.174 Y57.826
X114.2 Y57.808
X114.226 Y57.791
X114.244 Y57.764
X114.25 Y57.733
Y22.5
X112
Y53.5
G3 X111.854 Y53.854 I-0.5 J0
G1 X110.354 Y55.354
G3 X110 Y55.5 I-0.354 J-0.354
G1 X108.75
Y68
X114.25
Y57.733
X114.242 Y57.695
X114.221 Y57.663
X114.188 Y57.641
X114.15 Y57.633
X114.05
X114.012 Z-1.492
X113.979 Z-1.471
X113.958 Z-1.438
X113.95 Z-1.4
Z3
X108.85 Y61.74
Z2
Z-0.5 F200
Z-1
Y67.9 Z-1.215 F600
X114.15 Z-1.4
Y57.883 Z-1.75
Y22.6
X112.1
Y53.5
G3 X111.924 Y53.924 I-0.6 J0
G1 X110.424 Y55.424
G3 X110 Y55.6 I-0.424 J-0.424
G1 X108.85
Y67.9
X114.15
Y57.883
X114.156 Y57.852
X114.174 Y57.826
X114.2 Y57.808
X114.226 Y57.791
X114.244 Y57.764
X114.25 Y57.733
Y22.5
X112
Y53.5
G3 X111.854 Y53.854 I-0.5 J0
G1 X110.354 Y55.354
G3 X110 Y55.5 I-0.354 J-0.354
G1 X108.75
Y68
X114.25
Y57.733
X114.242 Y57.695
X114.221 Y57.663
X114.188 Y57.641
X114.15 Y57.633
X114.05
X114.012 Z-1.742
X113.979 Z-1.721
X113.958 Z-1.688
X113.95 Z-1.65
Z3
X108.85 Y61.74
Z2
Z-0.75 F200
Z-1.25
Y67.9 Z-1.465 F600
X114.15 Z-1.65
Y57.883 Z-2
Y22.6
X112.1
Y53.5
G3 X111.924 Y53.924 I-0.6 J0
G1 X110.424 Y55.424
G3 X110 Y55.6 I-0.424 J-0.424
G1 X108.85
Y67.9
X114.15
Y57.883
X114.156 Y57.852
X114.174 Y57.826
X114.2 Y57.808
X114.226 Y57.791
X114.244 Y57.764
X114.25 Y57.733
Y22.5
X112
Y53.5
G3 X111.854 Y53.854 I-0.5 J0
G1 X110.354 Y55.354
G3 X110 Y55.5 I-0.354 J-0.354
G1 X108.75
Y68
X114.25
Y57.733
X114.242 Y57.695
X114.221 Y57.663
X114.188 Y57.641
X114.15 Y57.633
X114.05
X114.012 Z-1.992
X113.979 Z-1.971
X113.958 Z-1.938
X113.95 Z-1.9
Z3
X108.85 Y61.74
Z2
Z-1 F200
Z-1.5
Y67.9 Z-1.715 F600
X114.15 Z-1.9
Y57.883 Z-2.25
Y22.6
X112.1
Y53.5
G3 X111.924 Y53.924 I-0.6 J0
G1 X110.424 Y55.424
G3 X110 Y55.6 I-0.424 J-0.424
G1 X108.85
Y67.9
X114.15
Y57.883
X114.156 Y57.852
X114.174 Y57.826
X114.2 Y57.808
X114.226 Y57.791
X114.244 Y57.764
X114.25 Y57.733
Y22.5
X112
Y53.5
G3 X111.854 Y53.854 I-0.5 J0
G1 X110.354 Y55.354
G3 X110 Y55.5 I-0.354 J-0.354
G1 X108.75
Y68
X114.25
Y57.733
X114.242 Y57.695
X114.221 Y57.663
X114.188 Y57.641
X114.15 Y57.633
X114.05
X114.012 Z-2.242
X113.979 Z-2.221
X113.958 Z-2.188
X113.95 Z-2.15
Z3
X108.85 Y61.74
Z2
Z-1.25 F200
Z-1.75
Y67.9 Z-1.965 F600
X114.15 Z-2.15
Y57.883 Z-2.5
Y22.6
X112.1
Y53.5
G3 X111.924 Y53.924 I-0.6 J0
G1 X110.424 Y55.424
G3 X110 Y55.6 I-0.424 J-0.424
G1 X108.85
Y67.9
X114.15
Y57.883
X114.156 Y57.852
X114.174 Y57.826
X114.2 Y57.808
X114.226 Y57.791
X114.244 Y57.764
X114.25 Y57.733
Y22.5
X112
Y53.5
G3 X111.854 Y53.854 I-0.5 J0
G1 X110.354 Y55.354
G3 X110 Y55.5 I-0.354 J-0.354
G1 X108.75
Y68
X114.25
Y57.733
X114.242 Y57.695
X114.221 Y57.663
X114.188 Y57.641
X114.15 Y57.633
X114.05
X114.012 Z-2.492
X113.979 Z-2.471
X113.958 Z-2.438
X113.95 Z-2.4
Z3
X108.85 Y61.74
Z2
Z-1.5 F200
Z-2
Y67.9 Z-2.215 F600
X114.15 Z-2.4
Y57.883 Z-2.75
Y22.6
X112.1
Y53.5
G3 X111.924 Y53.924 I-0.6 J0
G1 X110.424 Y55.424
G3 X110 Y55.6 I-0.424 J-0.424
G1 X108.85
Y67.9
X114.15
Y57.883
X114.156 Y57.852
X114.174 Y57.826
X114.2 Y57.808
X114.226 Y57.791
X114.244 Y57.764
X114.25 Y57.733
Y22.5
X112
Y53.5
G3 X111.854 Y53.854 I-0.5 J0
G1 X110.354 Y55.354
G3 X110 Y55.5 I-0.354 J-0.354
G1 X108.75
Y68
X114.25
Y57.733
X114.242 Y57.695
X114.221 Y57.663
X114.188 Y57.641
X114.15 Y57.633
X114.05
X114.012 Z-2.742
X113.979 Z-2.721
X113.958 Z-2.688
X113.95 Z-2.65
Z3
X108.85 Y61.74
Z2
Z-1.75 F200
Z-2.25
Y67.9 Z-2.465 F600
X114.15 Z-2.65
Y57.883 Z-3
Y22.6
X112.1
Y53.5
G3 X111.924 Y53.924 I-0.6 J0
G1 X110.424 Y55.424
G3 X110 Y55.6 I-0.424 J-0.424
G1 X108.85
Y67.9
X114.15
Y57.883
X114.156 Y57.852
X114.174 Y57.826
X114.2 Y57.808
X114.226 Y57.791
X114.244 Y57.764
X114.25 Y57.733
Y22.5
X112
Y53.5
G3 X111.854 Y53.854 I-0.5 J0
G1 X110.354 Y55.354
G3 X110 Y55.5 I-0.354 J-0.354
G1 X108.75
Y68
X114.25
Y57.733
X114.242 Y57.695
X114.221 Y57.663
X114.188 Y57.641
X114.15 Y57.633
X114.05
X114.012 Z-2.992
X113.979 Z-2.971
X113.958 Z-2.938
X113.95 Z-2.9
Z3
X108.85 Y66.035
Z2
Z-2 F200
Z-2.5
Y67.9 Z-2.565 F600
X114.15 Z-2.75
Y57.883 Z-3.1
Y22.6
X112.1
Y53.5
G3 X111.924 Y53.924 I-0.6 J0
G1 X110.424 Y55.424
G3 X110 Y55.6 I-0.424 J-0.424
G1 X108.85
Y67.9
X114.15
Y57.883
X114.156 Y57.852
X114.174 Y57.826
X114.2 Y57.808
X114.226 Y57.791
X114.244 Y57.764
X114.25 Y57.733
Y22.5
X112
Y53.5
G3 X111.854 Y53.854 I-0.5 J0
G1 X110.354 Y55.354
G3 X110 Y55.5 I-0.354 J-0.354
G1 X108.75
Y68
X114.25
Y57.733
X114.242 Y57.695
X114.221 Y57.663
X114.188 Y57.641
X114.15 Y57.633
X114.05
X114.012 Z-3.092
X113.979 Z-3.071
X113.958 Z-3.038
X113.95 Z-3
Z3
X76.35 Y36.406
Z2
Z1 F200
Z0.5
Y57.883 Z-0.25 F600
Y67.9
X81.65
Y55.6
X80.5
G3 X80.076 Y55.424 I0 J-0.6
G1 X78.576 Y53.924
G3 X78.4 Y53.5 I0.424 J-0.424
G1 Y22.6
X76.35
Y57.883
X76.344 Y57.914
X76.326 Y57.941
X76.3 Y57.958
X76.274 Y57.976
X76.256 Y58.002
X76.25 Y58.033
Y67.999
Y68
X81.75
Y55.5
X80.5
G3 X80.146 Y55.354 I0 J-0.5
G1 X78.646 Y53.854
G3 X78.5 Y53.5 I0.354 J-0.354
G1 Y22.5
X76.25
Y58.033
X76.257 Y58.072
X76.279 Y58.104
X76.312 Y58.126
X76.35 Y58.133
X76.45
X76.488 Z-0.242
X76.521 Z-0.221
X76.542 Z-0.188
X76.55 Z-0.15
Z3
X76.35 Y36.406
Z2
Z0.75 F200
Z0.25
Y57.883 Z-0.5 F600
Y67.9
X81.65
Y55.6
X80.5
G3 X80.076 Y55.424 I0 J-0.6
G1 X78.576 Y53.924
G3 X78.4 Y53.5 I0.424 J-0.424
G1 Y22.6
X76.35
Y57.883
X76.344 Y57.914
X76.326 Y57.941
X76.3 Y57.958
X76.274 Y57.976
X76.256 Y58.002
X76.25 Y58.033
Y67.999
Y68
X81.75
Y55.5
X80.5
G3 X80.146 Y55.354 I0 J-0.5
G1 X78.646 Y53.854
G3 X78.5 Y53.5 I0.354 J-0.354
G1 Y22.5
X76.25
Y58.033
X76.257 Y58.072
X76.279 Y58.104
X76.312 Y58.126
X76.35 Y58.133
X76.45
X76.488 Z-0.492
X76.521 Z-0.471
X76.542 Z-0.438
X76.55 Z-0.4
Z3
X76.35 Y36.406
Z2
Z0.5 F200
Z0
Y57.883 Z-0.75 F600
Y67.9
X81.65
Y55.6
X80.5
G3 X80.076 Y55.424 I0 J-0.6
G1 X78.576 Y53.924
G3 X78.4 Y53.5 I0.424 J-0.424
G1 Y22.6
X76.35
Y57.883
X76.344 Y57.914
X76.326 Y57.941
X76.3 Y57.958
X76.274 Y57.976
X76.256 Y58.002
X76.25 Y58.033
Y67.999
Y68
X81.75
Y55.5
X80.5
G3 X80.146 Y55.354 I0 J-0.5
G1 X78.646 Y53.854
G3 X78.5 Y53.5 I0.354 J-0.354
G1 Y22.5
X76.25
Y58.033
X76.257 Y58.072
X76.279 Y58.104
X76.312 Y58.126
X76.35 Y58.133
X76.45
X76.488 Z-0.742
X76.521 Z-0.721
X76.542 Z-0.688
X76.55 Z-0.65
Z3
X76.35 Y36.406
Z2
Z0.25 F200
Z-0.25
Y57.883 Z-1 F600
Y67.9
X81.65
Y55.6
X80.5
G3 X80.076 Y55.424 I0 J-0.6
G1 X78.576 Y53.924
G3 X78.4 Y53.5 I0.424 J-0.424
G1 Y22.6
X76.35
Y57.883
X76.344 Y57.914
X76.326 Y57.941
X76.3 Y57.958
X76.274 Y57.976
X76.256 Y58.002
X76.25 Y58.033
Y67.999
Y68
X81.75
Y55.5
X80.5
G3 X80.146 Y55.354 I0 J-0.5
G1 X78.646 Y53.854
G3 X78.5 Y53.5 I0.354 J-0.354
G1 Y22.5
X76.25
Y58.033
X76.257 Y58.072
X76.279 Y58.104
X76.312 Y58.126
X76.35 Y58.133
X76.45
X76.488 Z-0.992
X76.521 Z-0.971
X76.542 Z-0.938
X76.55 Z-0.9
Z3
X76.35 Y36.406
Z2
Z0 F200
Z-0.5
Y57.883 Z-1.25 F600
Y67.9
X81.65
Y55.6
X80.5
G3 X80.076 Y55.424 I0 J-0.6
G1 X78.576 Y53.924
G3 X78.4 Y53.5 I0.424 J-0.424
G1 Y22.6
X76.35
Y57.883
X76.344 Y57.914
X76.326 Y57.941
X76.3 Y57.958
X76.274 Y57.976
X76.256 Y58.002
X76.25 Y58.033
Y67.999
Y68
X81.75
Y55.5
X80.5
G3 X80.146 Y55.354 I0 J-0.5
G1 X78.646 Y53.854
G3 X78.5 Y53.5 I0.354 J-0.354
G1 Y22.5
X76.25
Y58.033
X76.257 Y58.072
X76.279 Y58.104
X76.312 Y58.126
X76.35 Y58.133
X76.45
X76.488 Z-1.242
X76.521 Z-1.221
X76.542 Z-1.188
X76.55 Z-1.15
Z3
X76.35 Y36.406
Z2
Z-0.25 F200
Z-0.75
Y57.883 Z-1.5 F600
Y67.9
X81.65
Y55.6
X80.5
G3 X80.076 Y55.424 I0 J-0.6
G1 X78.576 Y53.924
G3 X78.4 Y53.5 I0.424 J-0.424
G1 Y22.6
X76.35
Y57.883
X76.344 Y57.914
X76.326 Y57.941
X76.3 Y57.958
X76.274 Y57.976
X76.256 Y58.002
X76.25 Y58.033
Y67.999
Y68
X81.75
Y55.5
X80.5
G3 X80.146 Y55.354 I0 J-0.5
G1 X78.646 Y53.854
G3 X78.5 Y53.5 I0.354 J-0.354
G1 Y22.5
X76.25
Y58.033
X76.257 Y58.072
X76.279 Y58.104
X76.312 Y58.126
X76.35 Y58.133
X76.45
X76.488 Z-1.492
X76.521 Z-1.471
X76.542 Z-1.438
X76.55 Z-1.4
Z3
X76.35 Y36.406
Z2
Z-0.5 F200
Z-1
Y57.883 Z-1.75 F600
Y67.9
X81.65
Y55.6
X80.5
G3 X80.076 Y55.424 I0 J-0.6
G1 X78.576 Y53.924
G3 X78.4 Y53.5 I0.424 J-0.424
G1 Y22.6
X76.35
Y57.883
X76.344 Y57.914
X76.326 Y57.941
X76.3 Y57.958
X76.274 Y57.976
X76.256 Y58.002
X76.25 Y58.033
Y67.999
Y68
X81.75
Y55.5
X80.5
G3 X80.146 Y55.354 I0 J-0.5
G1 X78.646 Y53.854
G3 X78.5 Y53.5 I0.354 J-0.354
G1 Y22.5
X76.25
Y58.033
X76.257 Y58.072
X76.279 Y58.104
X76.312 Y58.126
X76.35 Y58.133
X76.45
X76.488 Z-1.742
X76.521 Z-1.721
X76.542 Z-1.688
X76.55 Z-1.65
Z3
X76.35 Y36.406
Z2
Z-0.75 F200
Z-1.25
Y57.883 Z-2 F600
Y67.9
X81.65
Y55.6
X80.5
G3 X80.076 Y55.424 I0 J-0.6
G1 X78.576 Y53.924
G3 X78.4 Y53.5 I0.424 J-0.424
G1 Y22.6
X76.35
Y57.883
X76.344 Y57.914
X76.326 Y57.941
X76.3 Y57.958
X76.274 Y57.976
X76.256 Y58.002
X76.25 Y58.033
Y67.999
Y68
X81.75
Y55.5
X80.5
G3 X80.146 Y55.354 I0 J-0.5
G1 X78.646 Y53.854
G3 X78.5 Y53.5 I0.354 J-0.354
G1 Y22.5
X76.25
Y58.033
X76.257 Y58.072
X76.279 Y58.104
X76.312 Y58.126
X76.35 Y58.133
X76.45
X76.488 Z-1.992
X76.521 Z-1.971
X76.542 Z-1.938
X76.55 Z-1.9
Z3
X76.35 Y36.406
Z2
Z-1 F200
Z-1.5
Y57.883 Z-2.25 F600
Y67.9
X81.65
Y55.6
X80.5
G3 X80.076 Y55.424 I0 J-0.6
G1 X78.576 Y53.924
G3 X78.4 Y53.5 I0.424 J-0.424
G1 Y22.6
X76.35
Y57.883
X76.344 Y57.914
X76.326 Y57.941
X76.3 Y57.958
X76.274 Y57.976
X76.256 Y58.002
X76.25 Y58.033
Y67.999
Y68
X81.75
Y55.5
X80.5
G3 X80.146 Y55.354 I0 J-0.5
G1 X78.646 Y53.854
G3 X78.5 Y53.5 I0.354 J-0.354
G1 Y22.5
X76.25
Y58.033
X76.257 Y58.072
X76.279 Y58.104
X76.312 Y58.126
X76.35 Y58.133
X76.45
X76.488 Z-2.242
X76.521 Z-2.221
X76.542 Z-2.188
X76.55 Z-2.15
Z3
X76.35 Y36.406
Z2
Z-1.25 F200
Z-1.75
Y57.883 Z-2.5 F600
Y67.9
X81.65
Y55.6
X80.5
G3 X80.076 Y55.424 I0 J-0.6
G1 X78.576 Y53.924
G3 X78.4 Y53.5 I0.424 J-0.424
G1 Y22.6
X76.35
Y57.883
X76.344 Y57.914
X76.326 Y57.941
X76.3 Y57.958
X76.274 Y57.976
X76.256 Y58.002
X76.25 Y58.033
Y67.999
Y68
X81.75
Y55.5
X80.5
G3 X80.146 Y55.354 I0 J-0.5
G1 X78.646 Y53.854
G3 X78.5 Y53.5 I0.354 J-0.354
G1 Y22.5
X76.25
Y58.033
X76.257 Y58.072
X76.279 Y58.104
X76.312 Y58.126
X76.35 Y58.133
X76.45
X76.488 Z-2.492
X76.521 Z-2.471
X76.542 Z-2.438
X76.55 Z-2.4
Z3
X76.35 Y36.406
Z2
Z-1.5 F200
Z-2
Y57.883 Z-2.75 F600
Y67.9
X81.65
Y55.6
X80.5
G3 X80.076 Y55.424 I0 J-0.6
G1 X78.576 Y53.924
G3 X78.4 Y53.5 I0.424 J-0.424
G1 Y22.6
X76.35
Y57.883
X76.344 Y57.914
X76.326 Y57.941
X76.3 Y57.958
X76.274 Y57.976
X76.256 Y58.002
X76.25 Y58.033
Y67.999
Y68
X81.75
Y55.5
X80.5
G3 X80.146 Y55.354 I0 J-0.5
G1 X78.646 Y53.854
G3 X78.5 Y53.5 I0.354 J-0.354
G1 Y22.5
X76.25
Y58.033
X76.257 Y58.072
X76.279 Y58.104
X76.312 Y58.126
X76.35 Y58.133
X76.45
X76.488 Z-2.742
X76.521 Z-2.721
X76.542 Z-2.688
X76.55 Z-2.65
Z3
X76.35 Y36.406
Z2
Z-1.75 F200
Z-2.25
Y57.883 Z-3 F600
Y67.9
X81.65
Y55.6
X80.5
G3 X80.076 Y55.424 I0 J-0.6
G1 X78.576 Y53.924
G3 X78.4 Y53.5 I0.424 J-0.424
G1 Y22.6
X76.35
Y57.883
X76.344 Y57.914
X76.326 Y57.941
X76.3 Y57.958
X76.274 Y57.976
X76.256 Y58.002
X76.25 Y58.033
Y67.999
Y68
X81.75
Y55.5
X80.5
G3 X80.146 Y55.354 I0 J-0.5
G1 X78.646 Y53.854
G3 X78.5 Y53.5 I0.354 J-0.354
G1 Y22.5
X76.25
Y58.033
X76.257 Y58.072
X76.279 Y58.104
X76.312 Y58.126
X76.35 Y58.133
X76.45
X76.488 Z-2.992
X76.521 Z-2.971
X76.542 Z-2.938
X76.55 Z-2.9
Z3
X76.35 Y40.701
Z2
Z-2 F200
Z-2.5
Y57.883 Z-3.1 F600
Y67.9
X81.65
Y55.6
X80.5
G3 X80.076 Y55.424 I0 J-0.6
G1 X78.576 Y53.924
G3 X78.4 Y53.5 I0.424 J-0.424
G1 Y22.6
X76.35
Y57.883
X76.344 Y57.914
X76.326 Y57.941
X76.3 Y57.958
X76.274 Y57.976
X76.256 Y58.002
X76.25 Y58.033
Y67.999
Y68
X81.75
Y55.5
X80.5
G3 X80.146 Y55.354 I0 J-0.5
G1 X78.646 Y53.854
G3 X78.5 Y53.5 I0.354 J-0.354
G1 Y22.5
X76.25
Y58.033
X76.257 Y58.072
X76.279 Y58.104
X76.312 Y58.126
X76.35 Y58.133
X76.45
X76.488 Z-3.092
X76.521 Z-3.071
X76.542 Z-3.038
X76.55 Z-3
Z3
X8.7 Y113.055
Z2
Z1 F200
Z0.5
Y103.6 Z0.17 F600
X6.3 Z0.086
G3 X4.7 Y102 Z-0.002 I0 J-1.6
G1 Y95 Z-0.246
X4.704 Y94.891 Z-0.25
G3 X6.3 Y93.4 I1.596 J0.109
G1 X8.7
Y16
G3 X10.3 Y14.4 I1.6 J0
G1 X65.8
G3 X67.4 Y16 I0 J1.6
G1 Y20
G3 X65.8 Y21.6 I-1.6 J0
G1 X64.8
G3 X63.2 Y20 I0 J-1.6
G1 Y18.6
X60.8
Y54.4
X65.8
G3 X67.4 Y56 I0 J1.6
G1 Y60
G3 X65.8 Y61.6 I-1.6 J0
G1 X64.8
G3 X63.2 Y60 I0 J-1.6
G1 Y58.6
X60.8
Y144
G3 X59.2 Y145.6 I-1.6 J0
G1 X10.3
G3 X8.7 Y144 I0 J-1.6
G1 Y103.6
X6.3
G3 X4.7 Y102 I0 J-1.6
G1 Y95
X4.704 Y94.891
X4.712 Y94.86
X4.733 Y94.834
X4.761 Y94.819
X4.789 Y94.803
X4.81 Y94.779
X4.821 Y94.749
G3 X6.3 Y93.5 I1.479 J0.251
G1 X8.8
Y16
G3 X10.3 Y14.5 I1.5 J0
G1 X65.8
G3 X67.3 Y16 I0 J1.5
G1 Y20
G3 X65.8 Y21.5 I-1.5 J0
G1 X64.8
G3 X63.3 Y20 I0 J-1.5
G1 Y18.5
X60.7
Y54.5
X65.8
G3 X67.3 Y56 I0 J1.5
G1 Y60
G3 X65.8 Y61.5 I-1.5 J0
G1 X64.8
G3 X63.3 Y60 I0 J-1.5
G1 Y58.5
X60.7
Y144
G3 X59.2 Y145.5 I-1.5 J0
G1 X10.3
G3 X8.8 Y144 I0 J-1.5
G1 Y103.5
X6.3
G3 X4.8 Y102 I0 J-1.5
G1 Y95
G3 X4.821 Y94.749 I1.5 J0
G1 X4.82 Y94.71
X4.804 Y94.674
X4.776 Y94.648
X4.739 Y94.634
X4.641 Y94.617
X4.603 Y94.611 Z-0.242
X4.571 Y94.605 Z-0.221
X4.55 Y94.602 Z-0.188
X4.542 Y94.6 Z-0.15
Z3
X8.7 Y113.055
Z2
Z0.75 F200
Z0.25
Y103.6 Z-0.08 F600
X6.3 Z-0.164
G3 X4.7 Y102 Z-0.252 I0 J-1.6
G1 Y95 Z-0.496
X4.704 Y94.891 Z-0.5
G3 X6.3 Y93.4 I1.596 J0.109
G1 X8.7
Y16
G3 X10.3 Y14.4 I1.6 J0
G1 X65.8
G3 X67.4 Y16 I0 J1.6
G1 Y20
G3 X65.8 Y21.6 I-1.6 J0
G1 X64.8
G3 X63.2 Y20 I0 J-1.6
G1 Y18.6
X60.8
Y54.4
X65.8
G3 X67.4 Y56 I0 J1.6
G1 Y60
G3 X65.8 Y61.6 I-1.6 J0
G1 X64.8
G3 X63.2 Y60 I0 J-1.6
G1 Y58.6
X60.8
Y144
G3 X59.2 Y145.6 I-1.6 J0
G1 X10.3
G3 X8.7 Y144 I0 J-1.6
G1 Y103.6
X6.3
G3 X4.7 Y102 I0 J-1.6
G1 Y95
X4.704 Y94.891
X4.712 Y94.86
X4.733 Y94.834
X4.761 Y94.819
X4.789 Y94.803
X4.81 Y94.779
X4.821 Y94.749
G3 X6.3 Y93.5 I1.479 J0.251
G1 X8.8
Y16
G3 X10.3 Y14.5 I1.5 J0
G1 X65.8
G3 X67.3 Y16 I0 J1.5
G1 Y20
G3 X65.8 Y21.5 I-1.5 J0
G1 X64.8
G3 X63.3 Y20 I0 J-1.5
G1 Y18.5
X60.7
Y54.5
X65.8
G3 X67.3 Y56 I0 J1.5
G1 Y60
G3 X65.8 Y61.5 I-1.5 J0
G1 X64.8
G3 X63.3 Y60 I0 J-1.5
G1 Y58.5
X60.7
Y144
G3 X59.2 Y145.5 I-1.5 J0
G1 X10.3
G3 X8.8 Y144 I0 J-1.5
G1 Y103.5
X6.3
G3 X4.8 Y102 I0 J-1.5
G1 Y95
G3 X4.821 Y94.749 I1.5 J0
G1 X4.82 Y94.71
X4.804 Y94.674
X4.776 Y94.648
X4.739 Y94.634
X4.641 Y94.617
X4.603 Y94.611 Z-0.492
X4.571 Y94.605 Z-0.471
X4.55 Y94.602 Z-0.438
X4.542 Y94.6 Z-0.4
Z3
X8.7 Y113.055
Z2
Z0.5 F200
Z0
Y103.6 Z-0.33 F600
X6.3 Z-0.414
G3 X4.7 Y102 Z-0.502 I0 J-1.6
G1 Y95 Z-0.746
X4.704 Y94.891 Z-0.75
G3 X6.3 Y93.4 I1.596 J0.109
G1 X8.7
Y16
G3 X10.3 Y14.4 I1.6 J0
G1 X65.8
G3 X67.4 Y16 I0 J1.6
G1 Y20
G3 X65.8 Y21.6 I-1.6 J0
G1 X64.8
G3 X63.2 Y20 I0 J-1.6
G1 Y18.6
X60.8
Y54.4
X65.8
G3 X67.4 Y56 I0 J1.6
G1 Y60
G3 X65.8 Y61.6 I-1.6 J0
G1 X64.8
G3 X63.2 Y60 I0 J-1.6
G1 Y58.6
X60.8
Y144
G3 X59.2 Y145.6 I-1.6 J0
G1 X10.3
G3 X8.7 Y144 I0 J-1.6
G1 Y103.6
X6.3
G3 X4.7 Y102 I0 J-1.6
G1 Y95
X4.704 Y94.891
X4.712 Y94.86
X4.733 Y94.834
X4.761 Y94.819
X4.789 Y94.803
X4.81 Y94.779
X4.821 Y94.749
G3 X6.3 Y93.5 I1.479 J0.251
G1 X8.8
Y16
G3 X10.3 Y14.5 I1.5 J0
G1 X65.8
G3 X67.3 Y16 I0 J1.5
G1 Y20
G3 X65.8 Y21.5 I-1.5 J0
G1 X64.8
G3 X63.3 Y20 I0 J-1.5
G1 Y18.5
X60.7
Y54.5
X65.8
G3 X67.3 Y56 I0 J1.5
G1 Y60
G3 X65.8 Y61.5 I-1.5 J0
G1 X64.8
G3 X63.3 Y60 I0 J-1.5
G1 Y58.5
X60.7
Y144
G3 X59.2 Y145.5 I-1.5 J0
G1 X10.3
G3 X8.8 Y144 I0 J-1.5
G1 Y103.5
X6.3
G3 X4.8 Y102 I0 J-1.5
G1 Y95
G3 X4.821 Y94.749 I1.5 J0
G1 X4.82 Y94.71
X4.804 Y94.674
X4.776 Y94.648
X4.739 Y94.634
X4.641 Y94.617
X4.603 Y94.611 Z-0.742
X4.571 Y94.605 Z-0.721
X4.55 Y94.602 Z-0.688
X4.542 Y94.6 Z-0.65
Z3
X8.7 Y113.055
Z2
Z0.25 F200
Z-0.25
Y103.6 Z-0.58 F600
X6.3 Z-0.664
G3 X4.7 Y102 Z-0.752 I0 J-1.6
G1 Y95 Z-0.996
X4.704 Y94.891 Z-1
G3 X6.3 Y93.4 I1.596 J0.109
G1 X8.7
Y16
G3 X10.3 Y14.4 I1.6 J0
G1 X65.8
G3 X67.4 Y16 I0 J1.6
G1 Y20
G3 X65.8 Y21.6 I-1.6 J0
G1 X64.8
G3 X63.2 Y20 I0 J-1.6
G1 Y18.6
X60.8
Y54.4
X65.8
G3 X67.4 Y56 I0 J1.6
G1 Y60
G3 X65.8 Y61.6 I-1.6 J0
G1 X64.8
G3 X63.2 Y60 I0 J-1.6
G1 Y58.6
X60.8
Y144
G3 X59.2 Y145.6 I-1.6 J0
G1 X10.3
G3 X8.7 Y144 I0 J-1.6
G1 Y103.6
X6.3
G3 X4.7 Y102 I0 J-1.6
G1 Y95
X4.704 Y94.891
X4.712 Y94.86
X4.733 Y94.834
X4.761 Y94.819
X4.789 Y94.803
X4.81 Y94.779
X4.821 Y94.749
G3 X6.3 Y93.5 I1.479 J0.251
G1 X8.8
Y16
G3 X10.3 Y14.5 I1.5 J0
G1 X65.8
G3 X67.3 Y16 I0 J1.5
G1 Y20
G3 X65.8 Y21.5 I-1.5 J0
G1 X64.8
G3 X63.3 Y20 I0 J-1.5
G1 Y18.5
X60.7
Y54.5
X65.8
G3 X67.3 Y56 I0 J1.5
G1 Y60
G3 X65.8 Y61.5 I-1.5 J0
G1 X64.8
G3 X63.3 Y60 I0 J-1.5
G1 Y58.5
X60.7
Y144
G3 X59.2 Y145.5 I-1.5 J0
G1 X10.3
G3 X8.8 Y144 I0 J-1.5
G1 Y103.5
X6.3
G3 X4.8 Y102 I0 J-1.5
G1 Y95
G3 X4.821 Y94.749 I1.5 J0
G1 X4.82 Y94.71
X4.804 Y94.674
X4.776 Y94.648
X4.739 Y94.634
X4.641 Y94.617
X4.603 Y94.611 Z-0.992
X4.571 Y94.605 Z-0.971
X4.55 Y94.602 Z-0.938
X4.542 Y94.6 Z-0.9
Z3
X8.7 Y113.055
Z2
Z0 F200
Z-0.5
Y103.6 Z-0.83 F600
X6.3 Z-0.914
G3 X4.7 Y102 Z-1.002 I0 J-1.6
G1 Y95 Z-1.246
X4.704 Y94.891 Z-1.25
G3 X6.3 Y93.4 I1.596 J0.109
G1 X8.7
Y16
G3 X10.3 Y14.4 I1.6 J0
G1 X65.8
G3 X67.4 Y16 I0 J1.6
G1 Y20
G3 X65.8 Y21.6 I-1.6 J0
G1 X64.8
G3 X63.2 Y20 I0 J-1.6
G1 Y18.6
X60.8
Y54.4
X65.8
G3 X67.4 Y56 I0 J1.6
G1 Y60
G3 X65.8 Y61.6 I-1.6 J0
G1 X64.8
G3 X63.2 Y60 I0 J-1.6
G1 Y58.6
X60.8
Y144
G3 X59.2 Y145.6 I-1.6 J0
G1 X10.3
G3 X8.7 Y144 I0 J-1.6
G1 Y103.6
X6.3
G3 X4.7 Y102 I0 J-1.6
G1 Y95
X4.704 Y94.891
X4.712 Y94.86
X4.733 Y94.834
X4.761 Y94.819
X4.789 Y94.803
X4.81 Y94.779
X4.821 Y94.749
G3 X6.3 Y93.5 I1.479 J0.251
G1 X8.8
Y16
G3 X10.3 Y14.5 I1.5 J0
G1 X65.8
G3 X67.3 Y16 I0 J1.5
G1 Y20
G3 X65.8 Y21.5 I-1.5 J0
G1 X64.8
G3 X63.3 Y20 I0 J-1.5
G1 Y18.5
X60.7
Y54.5
X65.8
G3 X67.3 Y56 I0 J1.5
G1 Y60
G3 X65.8 Y61.5 I-1.5 J0
G1 X64.8
G3 X63.3 Y60 I0 J-1.5
G1 Y58.5
X60.7
Y144
G3 X59.2 Y145.5 I-1.5 J0
G1 X10.3
G3 X8.8 Y144 I0 J-1.5
G1 Y103.5
X6.3
G3 X4.8 Y102 I0 J-1.5
G1 Y95
G3 X4.821 Y94.749 I1.5 J0
G1 X4.82 Y94.71
X4.804 Y94.674
X4.776 Y94.648
X4.739 Y94.634
X4.641 Y94.617
X4.603 Y94.611 Z-1.242
X4.571 Y94.605 Z-1.221
X4.55 Y94.602 Z-1.188
X4.542 Y94.6 Z-1.15
Z3
X8.7 Y113.055
Z2
Z-0.25 F200
Z-0.75
Y103.6 Z-1.08 F600
X6.3 Z-1.164
G3 X4.7 Y102 Z-1.252 I0 J-1.6
G1 Y95 Z-1.496
X4.704 Y94.891 Z-1.5
G3 X6.3 Y93.4 I1.596 J0.109
G1 X8.7
Y16
G3 X10.3 Y14.4 I1.6 J0
G1 X65.8
G3 X67.4 Y16 I0 J1.6
G1 Y20
G3 X65.8 Y21.6 I-1.6 J0
G1 X64.8
G3 X63.2 Y20 I0 J-1.6
G1 Y18.6
X60.8
Y54.4
X65.8
G3 X67.4 Y56 I0 J1.6
G1 Y60
G3 X65.8 Y61.6 I-1.6 J0
G1 X64.8
G3 X63.2 Y60 I0 J-1.6
G1 Y58.6
X60.8
Y144
G3 X59.2 Y145.6 I-1.6 J0
G1 X10.3
G3 X8.7 Y144 I0 J-1.6
G1 Y103.6
X6.3
G3 X4.7 Y102 I0 J-1.6
G1 Y95
X4.704 Y94.891
X4.712 Y94.86
X4.733 Y94.834
X4.761 Y94.819
X4.789 Y94.803
X4.81 Y94.779
X4.821 Y94.749
G3 X6.3 Y93.5 I1.479 J0.251
G1 X8.8
Y16
G3 X10.3 Y14.5 I1.5 J0
G1 X65.8
G3 X67.3 Y16 I0 J1.5
G1 Y20
G3 X65.8 Y21.5 I-1.5 J0
G1 X64.8
G3 X63.3 Y20 I0 J-1.5
G1 Y18.5
X60.7
Y54.5
X65.8
G3 X67.3 Y56 I0 J1.5
G1 Y60
G3 X65.8 Y61.5 I-1.5 J0
G1 X64.8
G3 X63.3 Y60 I0 J-1.5
G1 Y58.5
X60.7
Y144
G3 X59.2 Y145.5 I-1.5 J0
G1 X10.3
G3 X8.8 Y144 I0 J-1.5
G1 Y103.5
X6.3
G3 X4.8 Y102 I0 J-1.5
G1 Y95
G3 X4.821 Y94.749 I1.5 J0
G1 X4.82 Y94.71
X4.804 Y94.674
X4.776 Y94.648
X4.739 Y94.634
X4.641 Y94.617
X4.603 Y94.611 Z-1.492
X4.571 Y94.605 Z-1.471
X4.55 Y94.602 Z-1.438
X4.542 Y94.6 Z-1.4
Z3
X8.7 Y113.055
Z2
Z-0.5 F200
Z-1
Y103.6 Z-1.33 F600
X6.3 Z-1.414
G3 X4.7 Y102 Z-1.502 I0 J-1.6
G1 Y95 Z-1.746
X4.704 Y94.891 Z-1.75
G3 X6.3 Y93.4 I1.596 J0.109
G1 X8.7
Y16
G3 X10.3 Y14.4 I1.6 J0
G1 X65.8
G3 X67.4 Y16 I0 J1.6
G1 Y20
G3 X65.8 Y21.6 I-1.6 J0
G1 X64.8
G3 X63.2 Y20 I0 J-1.6
G1 Y18.6
X60.8
Y54.4
X65.8
G3 X67.4 Y56 I0 J1.6
G1 Y60
G3 X65.8 Y61.6 I-1.6 J0
G1 X64.8
G3 X63.2 Y60 I0 J-1.6
G1 Y58.6
X60.8
Y144
G3 X59.2 Y145.6 I-1.6 J0
G1 X10.3
G3 X8.7 Y144 I0 J-1.6
G1 Y103.6
X6.3
G3 X4.7 Y102 I0 J-1.6
G1 Y95
X4.704 Y94.891
X4.712 Y94.86
X4.733 Y94.834
X4.761 Y94.819
X4.789 Y94.803
X4.81 Y94.779
X4.821 Y94.749
G3 X6.3 Y93.5 I1.479 J0.251
G1 X8.8
Y16
G3 X10.3 Y14.5 I1.5 J0
G1 X65.8
G3 X67.3 Y16 I0 J1.5
G1 Y20
G3 X65.8 Y21.5 I-1.5 J0
G1 X64.8
G3 X63.3 Y20 I0 J-1.5
G1 Y18.5
X60.7
Y54.5
X65.8
G3 X67.3 Y56 I0 J1.5
G1 Y60
G3 X65.8 Y61.5 I-1.5 J0
G1 X64.8
G3 X63.3 Y60 I0 J-1.5
G1 Y58.5
X60.7
Y144
G3 X59.2 Y145.5 I-1.5 J0
G1 X10.3
G3 X8.8 Y144 I0 J-1.5
G1 Y103.5
X6.3
G3 X4.8 Y102 I0 J-1.5
G1 Y95
G3 X4.821 Y94.749 I1.5 J0
G1 X4.82 Y94.71
X4.804 Y94.674
X4.776 Y94.648
X4.739 Y94.634
X4.641 Y94.617
X4.603 Y94.611 Z-1.742
X4.571 Y94.605 Z-1.721
X4.55 Y94.602 Z-1.688
X4.542 Y94.6 Z-1.65
Z3
X8.7 Y113.055
Z2
Z-0.75 F200
Z-1.25
Y103.6 Z-1.58 F600
X6.3 Z-1.664
G3 X4.7 Y102 Z-1.752 I0 J-1.6
G1 Y95 Z-1.996
X4.704 Y94.891 Z-2
G3 X6.3 Y93.4 I1.596 J0.109
G1 X8.7
Y16
G3 X10.3 Y14.4 I1.6 J0
G1 X65.8
G3 X67.4 Y16 I0 J1.6
G1 Y20
G3 X65.8 Y21.6 I-1.6 J0
G1 X64.8
G3 X63.2 Y20 I0 J-1.6
G1 Y18.6
X60.8
Y54.4
X65.8
G3 X67.4 Y56 I0 J1.6
G1 Y60
G3 X65.8 Y61.6 I-1.6 J0
G1 X64.8
G3 X63.2 Y60 I0 J-1.6
G1 Y58.6
X60.8
Y144
G3 X59.2 Y145.6 I-1.6 J0
G1 X10.3
G3 X8.7 Y144 I0 J-1.6
G1 Y103.6
X6.3
G3 X4.7 Y102 I0 J-1.6
G1 Y95
X4.704 Y94.891
X4.712 Y94.86
X4.733 Y94.834
X4.761 Y94.819
X4.789 Y94.803
X4.81 Y94.779
X4.821 Y94.749
G3 X6.3 Y93.5 I1.479 J0.251
G1 X8.8
Y16
G3 X10.3 Y14.5 I1.5 J0
G1 X65.8
G3 X67.3 Y16 I0 J1.5
G1 Y20
G3 X65.8 Y21.5 I-1.5 J0
G1 X64.8
G3 X63.3 Y20 I0 J-1.5
G1 Y18.5
X60.7
Y54.5
X65.8
G3 X67.3 Y56 I0 J1.5
G1 Y60
G3 X65.8 Y61.5 I-1.5 J0
G1 X64.8
G3 X63.3 Y60 I0 J-1.5
G1 Y58.5
X60.7
Y144
G3 X59.2 Y145.5 I-1.5 J0
G1 X10.3
G3 X8.8 Y144 I0 J-1.5
G1 Y103.5
X6.3
G3 X4.8 Y102 I0 J-1.5
G1 Y95
G3 X4.821 Y94.749 I1.5 J0
G1 X4.82 Y94.71
X4.804 Y94.674
X4.776 Y94.648
X4.739 Y94.634
X4.641 Y94.617
X4.603 Y94.611 Z-1.992
X4.571 Y94.605 Z-1.971
X4.55 Y94.602 Z-1.938
X4.542 Y94.6 Z-1.9
Z3
X8.7 Y113.055
Z2
Z-1 F200
Z-1.5
Y103.6 Z-1.83 F600
X6.3 Z-1.914
G3 X4.7 Y102 Z-2.002 I0 J-1.6
G1 Y95 Z-2.246
X4.704 Y94.891 Z-2.25
G3 X6.3 Y93.4 I1.596 J0.109
G1 X8.7
Y16
G3 X10.3 Y14.4 I1.6 J0
G1 X65.8
G3 X67.4 Y16 I0 J1.6
G1 Y20
G3 X65.8 Y21.6 I-1.6 J0
G1 X64.8
G3 X63.2 Y20 I0 J-1.6
G1 Y18.6
X60.8
Y54.4
X65.8
G3 X67.4 Y56 I0 J1.6
G1 Y60
G3 X65.8 Y61.6 I-1.6 J0
G1 X64.8
G3 X63.2 Y60 I0 J-1.6
G1 Y58.6
X60.8
Y144
G3 X59.2 Y145.6 I-1.6 J0
G1 X10.3
G3 X8.7 Y144 I0 J-1.6
G1 Y103.6
X6.3
G3 X4.7 Y102 I0 J-1.6
G1 Y95
X4.704 Y94.891
X4.712 Y94.86
X4.733 Y94.834
X4.761 Y94.819
X4.789 Y94.803
X4.81 Y94.779
X4.821 Y94.749
G3 X6.3 Y93.5 I1.479 J0.251
G1 X8.8
Y16
G3 X10.3 Y14.5 I1.5 J0
G1 X65.8
G3 X67.3 Y16 I0 J1.5
G1 Y20
G3 X65.8 Y21.5 I-1.5 J0
G1 X64.8
G3 X63.3 Y20 I0 J-1.5
G1 Y18.5
X60.7
Y54.5
X65.8
G3 X67.3 Y56 I0 J1.5
G1 Y60
G3 X65.8 Y61.5 I-1.5 J0
G1 X64.8
G3 X63.3 Y60 I0 J-1.5
G1 Y58.5
X60.7
Y144
G3 X59.2 Y145.5 I-1.5 J0
G1 X10.3
G3 X8.8 Y144 I0 J-1.5
G1 Y103.5
X6.3
G3 X4.8 Y102 I0 J-1.5
G1 Y95
G3 X4.821 Y94.749 I1.5 J0
G1 X4.82 Y94.71
X4.804 Y94.674
X4.776 Y94.648
X4.739 Y94.634
X4.641 Y94.617
X4.603 Y94.611 Z-2.242
X4.571 Y94.605 Z-2.221
X4.55 Y94.602 Z-2.188
X4.542 Y94.6 Z-2.15
Z3
X8.7 Y113.055
Z2
Z-1.25 F200
Z-1.75
Y103.6 Z-2.08 F600
X6.3 Z-2.164
G3 X4.7 Y102 Z-2.252 I0 J-1.6
G1 Y95 Z-2.496
X4.704 Y94.891 Z-2.5
G3 X6.3 Y93.4 I1.596 J0.109
G1 X8.7
Y16
G3 X10.3 Y14.4 I1.6 J0
G1 X65.8
G3 X67.4 Y16 I0 J1.6
G1 Y20
G3 X65.8 Y21.6 I-1.6 J0
G1 X64.8
G3 X63.2 Y20 I0 J-1.6
G1 Y18.6
X60.8
Y54.4
X65.8
G3 X67.4 Y56 I0 J1.6
G1 Y60
G3 X65.8 Y61.6 I-1.6 J0
G1 X64.8
G3 X63.2 Y60 I0 J-1.6
G1 Y58.6
X60.8
Y144
G3 X59.2 Y145.6 I-1.6 J0
G1 X10.3
G3 X8.7 Y144 I0 J-1.6
G1 Y103.6
X6.3
G3 X4.7 Y102 I0 J-1.6
G1 Y95
X4.704 Y94.891
X4.712 Y94.86
X4.733 Y94.834
X4.761 Y94.819
X4.789 Y94.803
X4.81 Y94.779
X4.821 Y94.749
G3 X6.3 Y93.5 I1.479 J0.251
G1 X8.8
Y16
G3 X10.3 Y14.5 I1.5 J0
G1 X65.8
G3 X67.3 Y16 I0 J1.5
G1 Y20
G3 X65.8 Y21.5 I-1.5 J0
G1 X64.8
G3 X63.3 Y20 I0 J-1.5
G1 Y18.5
X60.7
Y54.5
X65.8
G3 X67.3 Y56 I0 J1.5
G1 Y60
G3 X65.8 Y61.5 I-1.5 J0
G1 X64.8
G3 X63.3 Y60 I0 J-1.5
G1 Y58.5
X60.7
Y144
G3 X59.2 Y145.5 I-1.5 J0
G1 X10.3
G3 X8.8 Y144 I0 J-1.5
G1 Y103.5
X6.3
G3 X4.8 Y102 I0 J-1.5
G1 Y95
G3 X4.821 Y94.749 I1.5 J0
G1 X4.82 Y94.71
X4.804 Y94.674
X4.776 Y94.648
X4.739 Y94.634
X4.641 Y94.617
X4.603 Y94.611 Z-2.492
X4.571 Y94.605 Z-2.471
X4.55 Y94.602 Z-2.438
X4.542 Y94.6 Z-2.4
Z3
X8.7 Y113.055
Z2
Z-1.5 F200
Z-2
Y103.6 Z-2.33 F600
X6.3 Z-2.414
G3 X4.7 Y102 Z-2.502 I0 J-1.6
G1 Y95 Z-2.746
X4.704 Y94.891 Z-2.75
G3 X6.3 Y93.4 I1.596 J0.109
G1 X8.7
Y16
G3 X10.3 Y14.4 I1.6 J0
G1 X65.8
G3 X67.4 Y16 I0 J1.6
G1 Y20
G3 X65.8 Y21.6 I-1.6 J0
G1 X64.8
G3 X63.2 Y20 I0 J-1.6
G1 Y18.6
X60.8
Y54.4
X65.8
G3 X67.4 Y56 I0 J1.6
G1 Y60
G3 X65.8 Y61.6 I-1.6 J0
G1 X64.8
G3 X63.2 Y60 I0 J-1.6
G1 Y58.6
X60.8
Y144
G3 X59.2 Y145.6 I-1.6 J0
G1 X10.3
G3 X8.7 Y144 I0 J-1.6
G1 Y103.6
X6.3
G3 X4.7 Y102 I0 J-1.6
G1 Y95
X4.704 Y94.891
X4.712 Y94.86
X4.733 Y94.834
X4.761 Y94.819
X4.789 Y94.803
X4.81 Y94.779
X4.821 Y94.749
G3 X6.3 Y93.5 I1.479 J0.251
G1 X8.8
Y16
G3 X10.3 Y14.5 I1.5 J0
G1 X65.8
G3 X67.3 Y16 I0 J1.5
G1 Y20
G3 X65.8 Y21.5 I-1.5 J0
G1 X64.8
G3 X63.3 Y20 I0 J-1.5
G1 Y18.5
X60.7
Y54.5
X65.8
G3 X67.3 Y56 I0 J1.5
G1 Y60
G3 X65.8 Y61.5 I-1.5 J0
G1 X64.8
G3 X63.3 Y60 I0 J-1.5
G1 Y58.5
X60.7
Y144
G3 X59.2 Y145.5 I-1.5 J0
G1 X10.3
G3 X8.8 Y144 I0 J-1.5
G1 Y103.5
X6.3
G3 X4.8 Y102 I0 J-1.5
G1 Y95
G3 X4.821 Y94.749 I1.5 J0
G1 X4.82 Y94.71
X4.804 Y94.674
X4.776 Y94.648
X4.739 Y94.634
X4.641 Y94.617
X4.603 Y94.611 Z-2.742
X4.571 Y94.605 Z-2.721
X4.55 Y94.602 Z-2.688
X4.542 Y94.6 Z-2.65
Z3
X8.7 Y113.055
Z2
Z-1.75 F200
Z-2.25
Y103.6 Z-2.58 F600
X6.3 Z-2.664
G3 X4.7 Y102 Z-2.752 I0 J-1.6
G1 Y95 Z-2.996
X4.704 Y94.891 Z-3
G3 X6.3 Y93.4 I1.596 J0.109
G1 X8.7
Y16
G3 X10.3 Y14.4 I1.6 J0
G1 X65.8
G3 X67.4 Y16 I0 J1.6
G1 Y20
G3 X65.8 Y21.6 I-1.6 J0
G1 X64.8
G3 X63.2 Y20 I0 J-1.6
G1 Y18.6
X60.8
Y54.4
X65.8
G3 X67.4 Y56 I0 J1.6
G1 Y60
G3 X65.8 Y61.6 I-1.6 J0
G1 X64.8
G3 X63.2 Y60 I0 J-1.6
G1 Y58.6
X60.8
Y144
G3 X59.2 Y145.6 I-1.6 J0
G1 X10.3
G3 X8.7 Y144 I0 J-1.6
G1 Y103.6
X6.3
G3 X4.7 Y102 I0 J-1.6
G1 Y95
X4.704 Y94.891
X4.712 Y94.86
X4.733 Y94.834
X4.761 Y94.819
X4.789 Y94.803
X4.81 Y94.779
X4.821 Y94.749
G3 X6.3 Y93.5 I1.479 J0.251
G1 X8.8
Y16
G3 X10.3 Y14.5 I1.5 J0
G1 X65.8
G3 X67.3 Y16 I0 J1.5
G1 Y20
G3 X65.8 Y21.5 I-1.5 J0
G1 X64.8
G3 X63.3 Y20 I0 J-1.5
G1 Y18.5
X60.7
Y54.5
X65.8
G3 X67.3 Y56 I0 J1.5
G1 Y60
G3 X65.8 Y61.5 I-1.5 J0
G1 X64.8
G3 X63.3 Y60 I0 J-1.5
G1 Y58.5
X60.7
Y144
G3 X59.2 Y145.5 I-1.5 J0
G1 X10.3
G3 X8.8 Y144 I0 J-1.5
G1 Y103.5
X6.3
G3 X4.8 Y102 I0 J-1.5
G1 Y95
G3 X4.821 Y94.749 I1.5 J0
G1 X4.82 Y94.71
X4.804 Y94.674
X4.776 Y94.648
X4.739 Y94.634
X4.641 Y94.617
X4.603 Y94.611 Z-2.992
X4.571 Y94.605 Z-2.971
X4.55 Y94.602 Z-2.938
X4.542 Y94.6 Z-2.9
Z3
X8.7 Y108.76
Z2
Z-2 F200
Z-2.5
Y103.6 Z-2.68 F600
X6.3 Z-2.764
G3 X4.7 Y102 Z-2.852 I0 J-1.6
G1 Y95 Z-3.096
X4.704 Y94.891 Z-3.1
G3 X6.3 Y93.4 I1.596 J0.109
G1 X8.7
Y16
G3 X10.3 Y14.4 I1.6 J0
G1 X65.8
G3 X67.4 Y16 I0 J1.6
G1 Y20
G3 X65.8 Y21.6 I-1.6 J0
G1 X64.8
G3 X63.2 Y20 I0 J-1.6
G1 Y18.6
X60.8
Y54.4
X65.8
G3 X67.4 Y56 I0 J1.6
G1 Y60
G3 X65.8 Y61.6 I-1.6 J0
G1 X64.8
G3 X63.2 Y60 I0 J-1.6
G1 Y58.6
X60.8
Y144
G3 X59.2 Y145.6 I-1.6 J0
G1 X10.3
G3 X8.7 Y144 I0 J-1.6
G1 Y103.6
X6.3
G3 X4.7 Y102 I0 J-1.6
G1 Y95
X4.704 Y94.891
X4.712 Y94.86
X4.733 Y94.834
X4.761 Y94.819
X4.789 Y94.803
X4.81 Y94.779
X4.821 Y94.749
G3 X6.3 Y93.5 I1.479 J0.251
G1 X8.8
Y16
G3 X10.3 Y14.5 I1.5 J0
G1 X65.8
G3 X67.3 Y16 I0 J1.5
G1 Y20
G3 X65.8 Y21.5 I-1.5 J0
G1 X64.8
G3 X63.3 Y20 I0 J-1.5
G1 Y18.5
X60.7
Y54.5
X65.8
G3 X67.3 Y56 I0 J1.5
G1 Y60
G3 X65.8 Y61.5 I-1.5 J0
G1 X64.8
G3 X63.3 Y60 I0 J-1.5
G1 Y58.5
X60.7
Y144
G3 X59.2 Y145.5 I-1.5 J0
G1 X10.3
G3 X8.8 Y144 I0 J-1.5
G1 Y103.5
X6.3
G3 X4.8 Y102 I0 J-1.5
G1 Y95
G3 X4.821 Y94.749 I1.5 J0
G1 X4.82 Y94.71
X4.804 Y94.674
X4.776 Y94.648
X4.739 Y94.634
X4.641 Y94.617
X4.603 Y94.611 Z-3.092
X4.571 Y94.605 Z-3.071
X4.55 Y94.602 Z-3.038
X4.542 Y94.6 Z-3
Z3
X17.9 Y121.48
Z2
Z1 F200
Z0.5
Y106.5 Z-0.023 F600
G3 X18.076 Y106.076 Z-0.04 I0.6 J0
G1 X19.576 Y104.576 Z-0.114
G3 X20 Y104.4 Z-0.13 I0.424 J0.424
G1 X21.15 Z-0.17
Y102.117 Z-0.25
Y92.1
X15.85
Y137.4
X17.9
Y106.5
G3 X18.076 Y106.076 I0.6 J0
G1 X19.576 Y104.576
G3 X20 Y104.4 I0.424 J0.424
G1 X21.15
Y102.117
X21.156 Y102.086
X21.174 Y102.059
X21.2 Y102.042
X21.226 Y102.024
X21.244 Y101.998
X21.25 Y101.967
Y92
X15.75
Y137.5
X18
Y106.5
G3 X18.147 Y106.146 I0.5 J0
G1 X19.647 Y104.646
G3 X20 Y104.5 I0.354 J0.354
G1 X21.25
Y101.967
X21.243 Y101.929
X21.221 Y101.896
X21.188 Y101.874
X21.15 Y101.867
X21.05
X21.012 Z-0.242
X20.979 Z-0.221
X20.958 Z-0.188
X20.95 Z-0.15
Z3
X17.9 Y121.48
Z2
Z0.75 F200
Z0.25
Y106.5 Z-0.273 F600
G3 X18.076 Y106.076 Z-0.29 I0.6 J0
G1 X19.576 Y104.576 Z-0.364
G3 X20 Y104.4 Z-0.38 I0.424 J0.424
G1 X21.15 Z-0.42
Y102.117 Z-0.5
Y92.1
X15.85
Y137.4
X17.9
Y106.5
G3 X18.076 Y106.076 I0.6 J0
G1 X19.576 Y104.576
G3 X20 Y104.4 I0.424 J0.424
G1 X21.15
Y102.117
X21.156 Y102.086
X21.174 Y102.059
X21.2 Y102.042
X21.226 Y102.024
X21.244 Y101.998
X21.25 Y101.967
Y92
X15.75
Y137.5
X18
Y106.5
G3 X18.147 Y106.146 I0.5 J0
G1 X19.647 Y104.646
G3 X20 Y104.5 I0.354 J0.354
G1 X21.25
Y101.967
X21.243 Y101.929
X21.221 Y101.896
X21.188 Y101.874
X21.15 Y101.867
X21.05
X21.012 Z-0.492
X20.979 Z-0.471
X20.958 Z-0.438
X20.95 Z-0.4
Z3
X17.9 Y121.48
Z2
Z0.5 F200
Z0
Y106.5 Z-0.523 F600
G3 X18.076 Y106.076 Z-0.54 I0.6 J0
G1 X19.576 Y104.576 Z-0.614
G3 X20 Y104.4 Z-0.63 I0.424 J0.424
G1 X21.15 Z-0.67
Y102.117 Z-0.75
Y92.1
X15.85
Y137.4
X17.9
Y106.5
G3 X18.076 Y106.076 I0.6 J0
G1 X19.576 Y104.576
G3 X20 Y104.4 I0.424 J0.424
G1 X21.15
Y102.117
X21.156 Y102.086
X21.174 Y102.059
X21.2 Y102.042
X21.226 Y102.024
X21.244 Y101.998
X21.25 Y101.967
Y92
X15.75
Y137.5
X18
Y106.5
G3 X18.147 Y106.146 I0.5 J0
G1 X19.647 Y104.646
G3 X20 Y104.5 I0.354 J0.354
G1 X21.25
Y101.967
X21.243 Y101.929
X21.221 Y101.896
X21.188 Y101.874
X21.15 Y101.867
X21.05
X21.012 Z-0.742
X20.979 Z-0.721
X20.958 Z-0.688
X20.95 Z-0.65
Z3
X17.9 Y121.48
Z2
Z0.25 F200
Z-0.25
Y106.5 Z-0.773 F600
G3 X18.076 Y106.076 Z-0.79 I0.6 J0
G1 X19.576 Y104.576 Z-0.864
G3 X20 Y104.4 Z-0.88 I0.424 J0.424
G1 X21.15 Z-0.92
Y102.117 Z-1
Y92.1
X15.85
Y137.4
X17.9
Y106.5
G3 X18.076 Y106.076 I0.6 J0
G1 X19.576 Y104.576
G3 X20 Y104.4 I0.424 J0.424
G1 X21.15
Y102.117
X21.156 Y102.086
X21.174 Y102.059
X21.2 Y102.042
X21.226 Y102.024
X21.244 Y101.998
X21.25 Y101.967
Y92
X15.75
Y137.5
X18
Y106.5
G3 X18.147 Y106.146 I0.5 J0
G1 X19.647 Y104.646
G3 X20 Y104.5 I0.354 J0.354
G1 X21.25
Y101.967
X21.243 Y101.929
X21.221 Y101.896
X21.188 Y101.874
X21.15 Y101.867
X21.05
X21.012 Z-0.992
X20.979 Z-0.971
X20.958 Z-0.938
X20.95 Z-0.9
Z3
X17.9 Y121.48
Z2
Z0 F200
Z-0.5
Y106.5 Z-1.023 F600
G3 X18.076 Y106.076 Z-1.04 I0.6 J0
G1 X19.576 Y104.576 Z-1.114
G3 X20 Y104.4 Z-1.13 I0.424 J0.424
G1 X21.15 Z-1.17
Y102.117 Z-1.25
Y92.1
X15.85
Y137.4
X17.9
Y106.5
G3 X18.076 Y106.076 I0.6 J0
G1 X19.576 Y104.576
G3 X20 Y104.4 I0.424 J0.424
G1 X21.15
Y102.117
X21.156 Y102.086
X21.174 Y102.059
X21.2 Y102.042
X21.226 Y102.024
X21.244 Y101.998
X21.25 Y101.967
Y92
X15.75
Y137.5
X18
Y106.5
G3 X18.147 Y106.146 I0.5 J0
G1 X19.647 Y104.646
G3 X20 Y104.5 I0.354 J0.354
G1 X21.25
Y101.967
X21.243 Y101.929
X21.221 Y101.896
X21.188 Y101.874
X21.15 Y101.867
X21.05
X21.012 Z-1.242
X20.979 Z-1.221
X20.958 Z-1.188
X20.95 Z-1.15
Z3
X17.9 Y121.48
Z2
Z-0.25 F200
Z-0.75
Y106.5 Z-1.273 F600
G3 X18.076 Y106.076 Z-1.29 I0.6 J0
G1 X19.576 Y104.576 Z-1.364
G3 X20 Y104.4 Z-1.38 I0.424 J0.424
G1 X21.15 Z-1.42
Y102.117 Z-1.5
Y92.1
X15.85
Y137.4
X17.9
Y106.5
G3 X18.076 Y106.076 I0.6 J0
G1 X19.576 Y104.576
G3 X20 Y104.4 I0.424 J0.424
G1 X21.15
Y102.117
X21.156 Y102.086
X21.174 Y102.059
X21.2 Y102.042
X21.226 Y102.024
X21.244 Y101.998
X21.25 Y101.967
Y92
X15.75
Y137.5
X18
Y106.5
G3 X18.147 Y106.146 I0.5 J0
G1 X19.647 Y104.646
G3 X20 Y104.5 I0.354 J0.354
G1 X21.25
Y101.967
X21.243 Y101.929
X21.221 Y101.896
X21.188 Y101.874
X21.15 Y101.867
X21.05
X21.012 Z-1.492
X20.979 Z-1.471
X20.958 Z-1.438
X20.95 Z-1.4
Z3
X17.9 Y121.48
Z2
Z-0.5 F200
Z-1
Y106.5 Z-1.523 F600
G3 X18.076 Y106.076 Z-1.54 I0.6 J0
G1 X19.576 Y104.576 Z-1.614
G3 X20 Y104.4 Z-1.63 I0.424 J0.424
G1 X21.15 Z-1.67
Y102.117 Z-1.75
Y92.1
X15.85
Y137.4
X17.9
Y106.5
G3 X18.076 Y106.076 I0.6 J0
G1 X19.576 Y104.576
G3 X20 Y104.4 I0.424 J0.424
G1 X21.15
Y102.117
X21.156 Y102.086
X21.174 Y102.059
X21.2 Y102.042
X21.226 Y102.024
X21.244 Y101.998
X21.25 Y101.967
Y92
X15.75
Y137.5
X18
Y106.5
G3 X18.147 Y106.146 I0.5 J0
G1 X19.647 Y104.646
G3 X20 Y104.5 I0.354 J0.354
G1 X21.25
Y101.967
X21.243 Y101.929
X21.221 Y101.896
X21.188 Y101.874
X21.15 Y101.867
X21.05
X21.012 Z-1.742
X20.979 Z-1.721
X20.958 Z-1.688
X20.95 Z-1.65
Z3
X17.9 Y121.48
Z2
Z-0.75 F200
Z-1.25
Y106.5 Z-1.773 F600
G3 X18.076 Y106.076 Z-1.79 I0.6 J0
G1 X19.576 Y104.576 Z-1.864
G3 X20 Y104.4 Z-1.88 I0.424 J0.424
G1 X21.15 Z-1.92
Y102.117 Z-2
Y92.1
X15.85
Y137.4
X17.9
Y106.5
G3 X18.076 Y106.076 I0.6 J0
G1 X19.576 Y104.576
G3 X20 Y104.4 I0.424 J0.424
G1 X21.15
Y102.117
X21.156 Y102.086
X21.174 Y102.059
X21.2 Y102.042
X21.226 Y102.024
X21.244 Y101.998
X21.25 Y101.967
Y92
X15.75
Y137.5
X18
Y106.5
G3 X18.147 Y106.146 I0.5 J0
G1 X19.647 Y104.646
G3 X20 Y104.5 I0.354 J0.354
G1 X21.25
Y101.967
X21.243 Y101.929
X21.221 Y101.896
X21.188 Y101.874
X21.15 Y101.867
X21.05
X21.012 Z-1.992
X20.979 Z-1.971
X20.958 Z-1.938
X20.95 Z-1.9
Z3
X17.9 Y121.48
Z2
Z-1 F200
Z-1.5
Y106.5 Z-2.023 F600
G3 X18.076 Y106.076 Z-2.04 I0.6 J0
G1 X19.576 Y104.576 Z-2.114
G3 X20 Y104.4 Z-2.13 I0.424 J0.424
G1 X21.15 Z-2.17
Y102.117 Z-2.25
Y92.1
X15.85
Y137.4
X17.9
Y106.5
G3 X18.076 Y106.076 I0.6 J0
G1 X19.576 Y104.576
G3 X20 Y104.4 I0.424 J0.424
G1 X21.15
Y102.117
X21.156 Y102.086
X21.174 Y102.059
X21.2 Y102.042
X21.226 Y102.024
X21.244 Y101.998
X21.25 Y101.967
Y92
X15.75
Y137.5
X18
Y106.5
G3 X18.147 Y106.146 I0.5 J0
G1 X19.647 Y104.646
G3 X20 Y104.5 I0.354 J0.354
G1 X21.25
Y101.967
X21.243 Y101.929
X21.221 Y101.896
X21.188 Y101.874
X21.15 Y101.867
X21.05
X21.012 Z-2.242
X20.979 Z-2.221
X20.958 Z-2.188
X20.95 Z-2.15
Z3
X17.9 Y121.48
Z2
Z-1.25 F200
Z-1.75
Y106.5 Z-2.273 F600
G3 X18.076 Y106.076 Z-2.29 I0.6 J0
G1 X19.576 Y104.576 Z-2.364
G3 X20 Y104.4 Z-2.38 I0.424 J0.424
G1 X21.15 Z-2.42
Y102.117 Z-2.5
Y92.1
X15.85
Y137.4
X17.9
Y106.5
G3 X18.076 Y106.076 I0.6 J0
G1 X19.576 Y104.576
G3 X20 Y104.4 I0.424 J0.424
G1 X21.15
Y102.117
X21.156 Y102.086
X21.174 Y102.059
X21.2 Y102.042
X21.226 Y102.024
X21.244 Y101.998
X21.25 Y101.967
Y92
X15.75
Y137.5
X18
Y106.5
G3 X18.147 Y106.146 I0.5 J0
G1 X19.647 Y104.646
G3 X20 Y104.5 I0.354 J0.354
G1 X21.25
Y101.967
X21.243 Y101.929
X21.221 Y101.896
X21.188 Y101.874
X21.15 Y101.867
X21.05
X21.012 Z-2.492
X20.979 Z-2.471
X20.958 Z-2.438
X20.95 Z-2.4
Z3
X17.9 Y121.48
Z2
Z-1.5 F200
Z-2
Y106.5 Z-2.523 F600
G3 X18.076 Y106.076 Z-2.54 I0.6 J0
G1 X19.576 Y104.576 Z-2.614
G3 X20 Y104.4 Z-2.63 I0.424 J0.424
G1 X21.15 Z-2.67
Y102.117 Z-2.75
Y92.1
X15.85
Y137.4
X17.9
Y106.5
G3 X18.076 Y106.076 I0.6 J0
G1 X19.576 Y104.576
G3 X20 Y104.4 I0.424 J0.424
G1 X21.15
Y102.117
X21.156 Y102.086
X21.174 Y102.059
X21.2 Y102.042
X21.226 Y102.024
X21.244 Y101.998
X21.25 Y101.967
Y92
X15.75
Y137.5
X18
Y106.5
G3 X18.147 Y106.146 I0.5 J0
G1 X19.647 Y104.646
G3 X20 Y104.5 I0.354 J0.354
G1 X21.25
Y101.967
X21.243 Y101.929
X21.221 Y101.896
X21.188 Y101.874
X21.15 Y101.867
X21.05
X21.012 Z-2.742
X20.979 Z-2.721
X20.958 Z-2.688
X20.95 Z-2.65
Z3
X17.9 Y121.48
Z2
Z-1.75 F200
Z-2.25
Y106.5 Z-2.773 F600
G3 X18.076 Y106.076 Z-2.79 I0.6 J0
G1 X19.576 Y104.576 Z-2.864
G3 X20 Y104.4 Z-2.88 I0.424 J0.424
G1 X21.15 Z-2.92
Y102.117 Z-3
Y92.1
X15.85
Y137.4
X17.9
Y106.5
G3 X18.076 Y106.076 I0.6 J0
G1 X19.576 Y104.576
G3 X20 Y104.4 I0.424 J0.424
G1 X21.15
Y102.117
X21.156 Y102.086
X21.174 Y102.059
X21.2 Y102.042
X21.226 Y102.024
X21.244 Y101.998
X21.25 Y101.967
Y92
X15.75
Y137.5
X18
Y106.5
G3 X18.147 Y106.146 I0.5 J0
G1 X19.647 Y104.646
G3 X20 Y104.5 I0.354 J0.354
G1 X21.25
Y101.967
X21.243 Y101.929
X21.221 Y101.896
X21.188 Y101.874
X21.15 Y101.867
X21.05
X21.012 Z-2.992
X20.979 Z-2.971
X20.958 Z-2.938
X20.95 Z-2.9
Z3
X17.9 Y117.185
Z2
Z-2 F200
Z-2.5
Y106.5 Z-2.873 F600
G3 X18.076 Y106.076 Z-2.89 I0.6 J0
G1 X19.576 Y104.576 Z-2.964
G3 X20 Y104.4 Z-2.98 I0.424 J0.424
G1 X21.15 Z-3.02
Y102.117 Z-3.1
Y92.1
X15.85
Y137.4
X17.9
Y106.5
G3 X18.076 Y106.076 I0.6 J0
G1 X19.576 Y104.576
G3 X20 Y104.4 I0.424 J0.424
G1 X21.15
Y102.117
X21.156 Y102.086
X21.174 Y102.059
X21.2 Y102.042
X21.226 Y102.024
X21.244 Y101.998
X21.25 Y101.967
Y92
X15.75
Y137.5
X18
Y106.5
G3 X18.147 Y106.146 I0.5 J0
G1 X19.647 Y104.646
G3 X20 Y104.5 I0.354 J0.354
G1 X21.25
Y101.967
X21.243 Y101.929
X21.221 Y101.896
X21.188 Y101.874
X21.15 Y101.867
X21.05
X21.012 Z-3.092
X20.979 Z-3.071
X20.958 Z-3.038
X20.95 Z-3
Z3
X53.65 Y98.26
Z2
Z1 F200
Z0.5
Y92.1 Z0.285 F600
X48.35 Z0.1
Y102.117 Z-0.25
Y104.4
X49.5
G3 X49.924 Y104.576 I0 J0.6
G1 X51.424 Y106.076
G3 X51.6 Y106.5 I-0.424 J0.424
G1 Y137.4
X53.65
Y92.1
X48.35
Y102.117
X48.344 Y102.148
X48.326 Y102.174
X48.3 Y102.192
X48.274 Y102.209
X48.256 Y102.236
X48.25 Y102.267
Y104.5
X49.5
G3 X49.854 Y104.646 I0 J0.5
G1 X51.354 Y106.146
G3 X51.5 Y106.5 I-0.354 J0.354
G1 Y137.5
X53.75
Y92.001
Y92
X48.25
Y102.267
X48.258 Y102.305
X48.279 Y102.338
X48.312 Y102.359
X48.35 Y102.367
X48.45
X48.488 Z-0.242
X48.521 Z-0.221
X48.543 Z-0.188
X48.55 Z-0.15
Z3
X53.65 Y98.26
Z2
Z0.75 F200
Z0.25
Y92.1 Z0.035 F600
X48.35 Z-0.15
Y102.117 Z-0.5
Y104.4
X49.5
G3 X49.924 Y104.576 I0 J0.6
G1 X51.424 Y106.076
G3 X51.6 Y106.5 I-0.424 J0.424
G1 Y137.4
X53.65
Y92.1
X48.35
Y102.117
X48.344 Y102.148
X48.326 Y102.174
X48.3 Y102.192
X48.274 Y102.209
X48.256 Y102.236
X48.25 Y102.267
Y104.5
X49.5
G3 X49.854 Y104.646 I0 J0.5
G1 X51.354 Y106.146
G3 X51.5 Y106.5 I-0.354 J0.354
G1 Y137.5
X53.75
Y92.001
Y92
X48.25
Y102.267
X48.258 Y102.305
X48.279 Y102.338
X48.312 Y102.359
X48.35 Y102.367
X48.45
X48.488 Z-0.492
X48.521 Z-0.471
X48.543 Z-0.438
X48.55 Z-0.4
Z3
X53.65 Y98.26
Z2
Z0.5 F200
Z0
Y92.1 Z-0.215 F600
X48.35 Z-0.4
Y102.117 Z-0.75
Y104.4
X49.5
G3 X49.924 Y104.576 I0 J0.6
G1 X51.424 Y106.076
G3 X51.6 Y106.5 I-0.424 J0.424
G1 Y137.4
X53.65
Y92.1
X48.35
Y102.117
X48.344 Y102.148
X48.326 Y102.174
X48.3 Y102.192
X48.274 Y102.209
X48.256 Y102.236
X48.25 Y102.267
Y104.5
X49.5
G3 X49.854 Y104.646 I0 J0.5
G1 X51.354 Y106.146
G3 X51.5 Y106.5 I-0.354 J0.354
G1 Y137.5
X53.75
Y92.001
Y92
X48.25
Y102.267
X48.258 Y102.305
X48.279 Y102.338
X48.312 Y102.359
X48.35 Y102.367
X48.45
X48.488 Z-0.742
X48.521 Z-0.721
X48.543 Z-0.688
X48.55 Z-0.65
Z3
X53.65 Y98.26
Z2
Z0.25 F200
Z-0.25
Y92.1 Z-0.465 F600
X48.35 Z-0.65
Y102.117 Z-1
Y104.4
X49.5
G3 X49.924 Y104.576 I0 J0.6
G1 X51.424 Y106.076
G3 X51.6 Y106.5 I-0.424 J0.424
G1 Y137.4
X53.65
Y92.1
X48.35
Y102.117
X48.344 Y102.148
X48.326 Y102.174
X48.3 Y102.192
X48.274 Y102.209
X48.256 Y102.236
X48.25 Y102.267
Y104.5
X49.5
G3 X49.854 Y104.646 I0 J0.5
G1 X51.354 Y106.146
G3 X51.5 Y106.5 I-0.354 J0.354
G1 Y137.5
X53.75
Y92.001
Y92
X48.25
Y102.267
X48.258 Y102.305
X48.279 Y102.338
X48.312 Y102.359
X48.35 Y102.367
X48.45
X48.488 Z-0.992
X48.521 Z-0.971
X48.543 Z-0.938
X48.55 Z-0.9
Z3
X53.65 Y98.26
Z2
Z0 F200
Z-0.5
Y92.1 Z-0.715 F600
X48.35 Z-0.9
Y102.117 Z-1.25
Y104.4
X49.5
G3 X49.924 Y104.576 I0 J0.6
G1 X51.424 Y106.076
G3 X51.6 Y106.5 I-0.424 J0.424
G1 Y137.4
X53.65
Y92.1
X48.35
Y102.117
X48.344 Y102.148
X48.326 Y102.174
X48.3 Y102.192
X48.274 Y102.209
X48.256 Y102.236
X48.25 Y102.267
Y104.5
X49.5
G3 X49.854 Y104.646 I0 J0.5
G1 X51.354 Y106.146
G3 X51.5 Y106.5 I-0.354 J0.354
G1 Y137.5
X53.75
Y92.001
Y92
X48.25
Y102.267
X48.258 Y102.305
X48.279 Y102.338
X48.312 Y102.359
X48.35 Y102.367
X48.45
X48.488 Z-1.242
X48.521 Z-1.221
X48.543 Z-1.188
X48.55 Z-1.15
Z3
X53.65 Y98.26
Z2
Z-0.25 F200
Z-0.75
Y92.1 Z-0.965 F600
X48.35 Z-1.15
Y102.117 Z-1.5
Y104.4
X49.5
G3 X49.924 Y104.576 I0 J0.6
G1 X51.424 Y106.076
G3 X51.6 Y106.5 I-0.424 J0.424
G1 Y137.4
X53.65
Y92.1
X48.35
Y102.117
X48.344 Y102.148
X48.326 Y102.174
X48.3 Y102.192
X48.274 Y102.209
X48.256 Y102.236
X48.25 Y102.267
Y104.5
X49.5
G3 X49.854 Y104.646 I0 J0.5
G1 X51.354 Y106.146
G3 X51.5 Y106.5 I-0.354 J0.354
G1 Y137.5
X53.75
Y92.001
Y92
X48.25
Y102.267
X48.258 Y102.305
X48.279 Y102.338
X48.312 Y102.359
X48.35 Y102.367
X48.45
X48.488 Z-1.492
X48.521 Z-1.471
X48.543 Z-1.438
X48.55 Z-1.4
Z3
X53.65 Y98.26
Z2
Z-0.5 F200
Z-1
Y92.1 Z-1.215 F600
X48.35 Z-1.4
Y102.117 Z-1.75
Y104.4
X49.5
G3 X49.924 Y104.576 I0 J0.6
G1 X51.424 Y106.076
G3 X51.6 Y106.5 I-0.424 J0.424
G1 Y137.4
X53.65
Y92.1
X48.35
Y102.117
X48.344 Y102.148
X48.326 Y102.174
X48.3 Y102.192
X48.274 Y102.209
X48.256 Y102.236
X48.25 Y102.267
Y104.5
X49.5
G3 X49.854 Y104.646 I0 J0.5
G1 X51.354 Y106.146
G3 X51.5 Y106.5 I-0.354 J0.354
G1 Y137.5
X53.75
Y92.001
Y92
X48.25
Y102.267
X48.258 Y102.305
X48.279 Y102.338
X48.312 Y102.359
X48.35 Y102.367
X48.45
X48.488 Z-1.742
X48.521 Z-1.721
X48.543 Z-1.688
X48.55 Z-1.65
Z3
X53.65 Y98.26
Z2
Z-0.75 F200
Z-1.25
Y92.1 Z-1.465 F600
X48.35 Z-1.65
Y102.117 Z-2
Y104.4
X49.5
G3 X49.924 Y104.576 I0 J0.6
G1 X51.424 Y106.076
G3 X51.6 Y106.5 I-0.424 J0.424
G1 Y137.4
X53.65
Y92.1
X48.35
Y102.117
X48.344 Y102.148
X48.326 Y102.174
X48.3 Y102.192
X48.274 Y102.209
X48.256 Y102.236
X48.25 Y102.267
Y104.5
X49.5
G3 X49.854 Y104.646 I0 J0.5
G1 X51.354 Y106.146
G3 X51.5 Y106.5 I-0.354 J0.354
G1 Y137.5
X53.75
Y92.001
Y92
X48.25
Y102.267
X48.258 Y102.305
X48.279 Y102.338
X48.312 Y102.359
X48.35 Y102.367
X48.45
X48.488 Z-1.992
X48.521 Z-1.971
X48.543 Z-1.938
X48.55 Z-1.9
Z3
X53.65 Y98.26
Z2
Z-1 F200
Z-1.5
Y92.1 Z-1.715 F600
X48.35 Z-1.9
Y102.117 Z-2.25
Y104.4
X49.5
G3 X49.924 Y104.576 I0 J0.6
G1 X51.424 Y106.076
G3 X51.6 Y106.5 I-0.424 J0.424
G1 Y137.4
X53.65
Y92.1
X48.35
Y102.117
X48.344 Y102.148
X48.326 Y102.174
X48.3 Y102.192
X48.274 Y102.209
X48.256 Y102.236
X48.25 Y102.267
Y104.5
X49.5
G3 X49.854 Y104.646 I0 J0.5
G1 X51.354 Y106.146
G3 X51.5 Y106.5 I-0.354 J0.354
G1 Y137.5
X53.75
Y92.001
Y92
X48.25
Y102.267
X48.258 Y102.305
X48.279 Y102.338
X48.312 Y102.359
X48.35 Y102.367
X48.45
X48.488 Z-2.242
X48.521 Z-2.221
X48.543 Z-2.188
X48.55 Z-2.15
Z3
X53.65 Y98.26
Z2
Z-1.25 F200
Z-1.75
Y92.1 Z-1.965 F600
X48.35 Z-2.15
Y102.117 Z-2.5
Y104.4
X49.5
G3 X49.924 Y104.576 I0 J0.6
G1 X51.424 Y106.076
G3 X51.6 Y106.5 I-0.424 J0.424
G1 Y137.4
X53.65
Y92.1
X48.35
Y102.117
X48.344 Y102.148
X48.326 Y102.174
X48.3 Y102.192
X48.274 Y102.209
X48.256 Y102.236
X48.25 Y102.267
Y104.5
X49.5
G3 X49.854 Y104.646 I0 J0.5
G1 X51.354 Y106.146
G3 X51.5 Y106.5 I-0.354 J0.354
G1 Y137.5
X53.75
Y92.001
Y92
X48.25
Y102.267
X48.258 Y102.305
X48.279 Y102.338
X48.312 Y102.359
X48.35 Y102.367
X48.45
X48.488 Z-2.492
X48.521 Z-2.471
X48.543 Z-2.438
X48.55 Z-2.4
Z3
X53.65 Y98.26
Z2
Z-1.5 F200
Z-2
Y92.1 Z-2.215 F600
X48.35 Z-2.4
Y102.117 Z-2.75
Y104.4
X49.5
G3 X49.924 Y104.576 I0 J0.6
G1 X51.424 Y106.076
G3 X51.6 Y106.5 I-0.424 J0.424
G1 Y137.4
X53.65
Y92.1
X48.35
Y102.117
X48.344 Y102.148
X48.326 Y102.174
X48.3 Y102.192
X48.274 Y102.209
X48.256 Y102.236
X48.25 Y102.267
Y104.5
X49.5
G3 X49.854 Y104.646 I0 J0.5
G1 X51.354 Y106.146
G3 X51.5 Y106.5 I-0.354 J0.354
G1 Y137.5
X53.75
Y92.001
Y92
X48.25
Y102.267
X48.258 Y102.305
X48.279 Y102.338
X48.312 Y102.359
X48.35 Y102.367
X48.45
X48.488 Z-2.742
X48.521 Z-2.721
X48.543 Z-2.688
X48.55 Z-2.65
Z3
X53.65 Y98.26
Z2
Z-1.75 F200
Z-2.25
Y92.1 Z-2.465 F600
X48.35 Z-2.65
Y102.117 Z-3
Y104.4
X49.5
G3 X49.924 Y104.576 I0 J0.6
G1 X51.424 Y106.076
G3 X51.6 Y106.5 I-0.424 J0.424
G1 Y137.4
X53.65
Y92.1
X48.35
Y102.117
X48.344 Y102.148
X48.326 Y102.174
X48.3 Y102.192
X48.274 Y102.209
X48.256 Y102.236
X48.25 Y102.267
Y104.5
X49.5
G3 X49.854 Y104.646 I0 J0.5
G1 X51.354 Y106.146
G3 X51.5 Y106.5 I-0.354 J0.354
G1 Y137.5
X53.75
Y92.001
Y92
X48.25
Y102.267
X48.258 Y102.305
X48.279 Y102.338
X48.312 Y102.359
X48.35 Y102.367
X48.45
X48.488 Z-2.992
X48.521 Z-2.971
X48.543 Z-2.938
X48.55 Z-2.9
Z3
X53.65 Y93.965
Z2
Z-2 F200
Z-2.5
Y92.1 Z-2.565 F600
X48.35 Z-2.75
Y102.117 Z-3.1
Y104.4
X49.5
G3 X49.924 Y104.576 I0 J0.6
G1 X51.424 Y106.076
G3 X51.6 Y106.5 I-0.424 J0.424
G1 Y137.4
X53.65
Y92.1
X48.35
Y102.117
X48.344 Y102.148
X48.326 Y102.174
X48.3 Y102.192
X48.274 Y102.209
X48.256 Y102.236
X48.25 Y102.267
Y104.5
X49.5
G3 X49.854 Y104.646 I0 J0.5
G1 X51.354 Y106.146
G3 X51.5 Y106.5 I-0.354 J0.354
G1 Y137.5
X53.75
Y92.001
Y92
X48.25
Y102.267
X48.258 Y102.305
X48.279 Y102.338
X48.312 Y102.359
X48.35 Y102.367
X48.45
X48.488 Z-3.092
X48.521 Z-3.071
X48.543 Z-3.038
X48.55 Z-3
Z5
M5
M30
