;FLAVOR:Marlin
;TIME:10333
;Filament used: 3.9504m
;Layer height: 0.12
;MINX:64.001
;MINY:73.6
;MINZ:0.12
;MAXX:156
;MAXY:146.399
;MAXZ:12.96
;Generated with Cura_SteamEngine 4.8.0
M140 S60
M105
M190 S60
M104 S200
M105
M109 S200
M82 ;absolute extrusion mode
; Ender 3 Custom Start G-code
G92 E0 ; Reset Extruder

; Start Heating
M105 S180 ; No wait
M140 S60  ; No wait

G28 ; Home all axes
G1 Z2.0 F3000 ; Move Z Axis up little to prevent scratching of Heat Bed
G1 X0.1 Y20 Z0.3 F5000.0 ; Move to start position
G1 X3.1 Y200.0 Z0.3 F1500.0 E15 ; Draw the first line
G1 X3.4 Y200.0 Z0.3 F5000.0 ; Move to side a little
G1 X3.4 Y20 Z0.3 F1500.0 E30 ; Draw the second line
G92 E0 ; Reset Extruder
G1 Z2.0 F3000 ; Move Z Axis up little to prevent scratching of Heat Bed
G1 X5 Y20 Z0.3 F5000.0 ; Move over to prevent blob squish
G92 E0
G92 E0
G1 F1500 E-6.5
;LAYER_COUNT:108
;LAYER:0
M107
G0 F6000 X73.556 Y77.293 Z0.12
;TYPE:SKIRT
G1 F1500 E0
G1 F1200 X74.201 Y76.685 E0.01769
G1 X74.424 Y76.491 E0.02359
G1 X75.192 Y75.881 E0.04316
G1 X75.25 Y75.839 E0.04459
G1 X76.033 Y75.321 E0.06332
G1 X76.856 Y74.873 E0.08202
G1 X77.364 Y74.64 E0.09318
G1 X77.604 Y74.537 E0.09839
G1 X78.481 Y74.204 E0.11711
G1 X79.383 Y73.947 E0.13583
G1 X80.464 Y73.745 E0.15777
G1 X80.641 Y73.721 E0.16134
G1 X81.9 Y73.623 E0.18654
G1 X82.956 Y73.602 E0.20762
G1 X83.175 Y73.6 E0.21199
G1 X137.097 Y73.6 E1.28806
G1 X137.953 Y73.611 E1.30514
G1 X139.234 Y73.704 E1.33077
G1 X139.469 Y73.735 E1.3355
G1 X140.392 Y73.898 E1.35421
G1 X141.299 Y74.138 E1.37293
G1 X142.023 Y74.391 E1.38824
G1 X142.272 Y74.488 E1.39357
G1 X143.13 Y74.866 E1.41228
G1 X143.954 Y75.315 E1.43101
G1 X144.909 Y75.961 E1.45401
G1 X145.142 Y76.137 E1.45984
G1 X145.866 Y76.733 E1.47856
G1 X146.305 Y77.15 E1.49064
G1 X146.683 Y77.532 E1.50136
G1 X148.01 Y78.903 E1.53944
G1 X149.802 Y80.652 E1.58941
G1 X151.703 Y82.406 E1.64103
G1 X152.015 Y82.684 E1.64937
G1 X152.687 Y83.338 E1.66808
G1 X153.399 Y84.172 E1.68996
G1 X153.564 Y84.386 E1.69536
G1 X154.105 Y85.153 E1.71409
G1 X154.578 Y85.963 E1.73281
G1 X154.943 Y86.722 E1.74961
G1 X155.032 Y86.927 E1.75407
G1 X155.369 Y87.803 E1.7728
G1 X155.629 Y88.704 E1.79152
G1 X155.813 Y89.625 E1.81026
G1 X155.863 Y89.948 E1.81678
G1 X155.966 Y90.88 E1.8355
G1 X155.988 Y91.35 E1.84489
G1 X155.996 Y91.663 E1.85113
G1 X156 Y91.944 E1.85674
G1 X155.999 Y94.955 E1.91683
G1 X155.989 Y95.652 E1.93074
G1 X155.926 Y96.68 E1.95129
G1 X155.89 Y97.012 E1.95796
G1 X155.855 Y97.302 E1.96379
G1 X155.585 Y99.298 E2.00398
G1 X155.314 Y101.825 E2.0547
G1 X155.118 Y104.321 E2.10466
G1 X154.993 Y106.828 E2.15476
G1 X154.938 Y109.324 E2.20458
G1 X154.954 Y111.877 E2.25553
G1 X155.042 Y114.373 E2.30537
G1 X155.2 Y116.887 E2.35564
G1 X155.428 Y119.376 E2.40552
G1 X155.738 Y121.955 E2.45735
G1 X155.88 Y122.951 E2.47743
G1 X155.985 Y124.155 E2.50155
G1 X155.993 Y124.404 E2.50652
G1 X155.999 Y124.753 E2.51349
G1 X155.999 Y127.815 E2.57459
G1 X155.989 Y128.545 E2.58916
G1 X155.901 Y129.793 E2.61413
G1 X155.871 Y130.027 E2.61884
G1 X155.712 Y130.951 E2.63755
G1 X155.475 Y131.859 E2.65627
G1 X155.207 Y132.629 E2.67254
G1 X155.109 Y132.88 E2.67792
G1 X154.731 Y133.738 E2.69663
G1 X154.281 Y134.561 E2.71535
G1 X153.657 Y135.485 E2.7376
G1 X153.482 Y135.718 E2.74342
G1 X152.888 Y136.443 E2.76212
G1 X152.05 Y137.271 E2.78563
G1 X152.056 Y137.277 E2.7858
G1 X150.077 Y139.087 E2.83932
G1 X148.294 Y140.813 E2.88884
G1 X146.385 Y142.769 E2.94338
G1 X145.702 Y143.411 E2.96209
G1 X145.247 Y143.783 E2.97382
G1 X145.034 Y143.948 E2.9792
G1 X144.269 Y144.49 E2.99791
G1 X143.46 Y144.965 E3.01663
G1 X142.702 Y145.332 E3.03343
G1 X142.496 Y145.422 E3.03792
G1 X141.621 Y145.76 E3.05664
G1 X140.721 Y146.023 E3.07535
G1 X139.765 Y146.214 E3.09481
G1 X139.44 Y146.264 E3.10137
G1 X138.111 Y146.387 E3.128
G1 X137.887 Y146.394 E3.13247
G1 X137.543 Y146.399 E3.13934
G1 X82.745 Y146.399 E4.23289
G1 X82.048 Y146.389 E4.2468
G1 X80.773 Y146.296 E4.27232
G1 X80.537 Y146.265 E4.27707
G1 X79.614 Y146.104 E4.29576
G1 X78.707 Y145.864 E4.31449
G1 X77.977 Y145.609 E4.32992
G1 X77.728 Y145.512 E4.33525
G1 X76.87 Y145.134 E4.35396
G1 X76.046 Y144.685 E4.37269
G1 X75.091 Y144.039 E4.3957
G1 X74.858 Y143.863 E4.40152
G1 X74.134 Y143.267 E4.42024
G1 X73.695 Y142.85 E4.43232
G1 X73.317 Y142.468 E4.44305
G1 X71.99 Y141.097 E4.48112
G1 X70.198 Y139.348 E4.53109
G1 X68.257 Y137.557 E4.5838
G1 X67.982 Y137.312 E4.59115
G1 X67.309 Y136.658 E4.60988
G1 X66.59 Y135.814 E4.632
G1 X66.427 Y135.602 E4.63734
G1 X65.887 Y134.835 E4.65606
G1 X65.415 Y134.024 E4.67478
G1 X65.049 Y133.26 E4.69169
G1 X64.96 Y133.054 E4.69617
G1 X64.625 Y132.178 E4.71488
G1 X64.366 Y131.276 E4.73361
G1 X64.187 Y130.369 E4.75206
G1 X64.137 Y130.045 E4.7586
G1 X64.013 Y128.697 E4.78562
G1 X64.006 Y128.464 E4.79027
G1 X64.001 Y128.138 E4.79678
G1 X64.001 Y125.046 E4.85848
G1 X64.011 Y124.344 E4.87249
G1 X64.076 Y123.297 E4.89342
G1 X64.112 Y122.97 E4.89999
G1 X64.145 Y122.698 E4.90546
G1 X64.415 Y120.702 E4.94565
G1 X64.686 Y118.175 E4.99637
G1 X64.882 Y115.679 E5.04633
G1 X65.007 Y113.172 E5.09643
G1 X65.062 Y110.676 E5.14625
G1 X65.046 Y108.123 E5.1972
G1 X64.958 Y105.627 E5.24704
G1 X64.8 Y103.112 E5.29733
G1 X64.572 Y100.624 E5.34719
G1 X64.262 Y98.044 E5.39904
G1 X64.12 Y97.048 E5.41912
G1 X64.015 Y95.846 E5.4432
G1 X64.007 Y95.598 E5.44815
G1 X64.001 Y95.247 E5.45516
G1 X64.001 Y92.129 E5.51738
G1 X64.011 Y91.441 E5.53111
G1 X64.103 Y90.172 E5.5565
G1 X64.133 Y89.943 E5.56111
G1 X64.295 Y89.019 E5.57983
G1 X64.534 Y88.112 E5.59855
G1 X64.793 Y87.371 E5.61421
G1 X64.891 Y87.12 E5.61959
G1 X65.269 Y86.262 E5.6383
G1 X65.719 Y85.439 E5.65702
G1 X66.343 Y84.515 E5.67927
G1 X66.515 Y84.286 E5.68499
G1 X67.109 Y83.561 E5.70369
G1 X67.886 Y82.775 E5.72575
G1 X69.922 Y80.913 E5.78081
G1 X71.698 Y79.193 E5.83014
G1 X73.556 Y77.293 E5.88318
G0 F6000 X73.842 Y77.573
G1 F1200 X74.464 Y76.987 E5.90023
G1 X74.687 Y76.793 E5.90613
G1 X75.427 Y76.205 E5.92499
G1 X75.485 Y76.163 E5.92642
G1 X76.253 Y75.656 E5.94479
G1 X77.063 Y75.217 E5.96317
G1 X77.522 Y75.007 E5.97324
G1 X77.762 Y74.904 E5.97846
G1 X78.623 Y74.578 E5.99683
G1 X79.509 Y74.328 E6.0152
G1 X80.518 Y74.141 E6.03568
G1 X80.695 Y74.117 E6.03924
G1 X81.908 Y74.023 E6.06352
G1 X82.964 Y74.002 E6.0846
G1 X83.175 Y74 E6.08881
G1 X137.097 Y74 E7.16488
G1 X137.947 Y74.011 E7.18185
G1 X139.181 Y74.101 E7.20654
G1 X139.416 Y74.132 E7.21127
G1 X140.323 Y74.292 E7.22965
G1 X141.212 Y74.53 E7.24801
G1 X141.878 Y74.764 E7.2621
G1 X142.127 Y74.861 E7.26743
G1 X142.969 Y75.232 E7.2858
G1 X143.776 Y75.675 E7.30417
G1 X144.668 Y76.28 E7.32568
G1 X144.901 Y76.456 E7.3315
G1 X145.611 Y77.042 E7.34987
G1 X146.021 Y77.433 E7.36118
G1 X146.395 Y77.81 E7.37178
G1 X147.708 Y79.167 E7.40946
G1 X149.535 Y80.95 E7.4604
G1 X151.451 Y82.717 E7.51242
G1 X151.749 Y82.983 E7.52039
G1 X152.408 Y83.625 E7.53875
G1 X153.083 Y84.417 E7.55952
G1 X153.248 Y84.631 E7.56491
G1 X153.777 Y85.383 E7.58326
G1 X154.24 Y86.179 E7.60163
G1 X154.576 Y86.882 E7.61718
G1 X154.665 Y87.087 E7.62164
G1 X154.995 Y87.946 E7.64001
G1 X155.249 Y88.831 E7.65838
G1 X155.417 Y89.686 E7.67577
G1 X155.467 Y90.009 E7.68229
G1 X155.589 Y91.36 E7.70936
G1 X155.597 Y91.673 E7.71561
G1 X155.6 Y91.944 E7.72102
G1 X155.599 Y94.949 E7.78099
G1 X155.589 Y95.646 E7.7949
G1 X155.528 Y96.637 E7.81471
G1 X155.492 Y96.969 E7.82138
G1 X155.458 Y97.248 E7.82699
G1 X155.189 Y99.237 E7.86704
G1 X154.916 Y101.784 E7.91816
G1 X154.72 Y104.271 E7.96794
G1 X154.592 Y106.836 E8.01919
G1 X154.538 Y109.318 E8.06874
G1 X154.554 Y111.859 E8.11945
G1 X154.643 Y114.412 E8.17043
G1 X154.801 Y116.915 E8.22048
G1 X155.034 Y119.455 E8.27138
G1 X155.337 Y121.977 E8.32207
G1 X155.484 Y123.008 E8.34285
G1 X155.586 Y124.168 E8.36609
G1 X155.594 Y124.417 E8.37106
G1 X155.599 Y124.753 E8.37777
G1 X155.599 Y127.809 E8.43875
G1 X155.589 Y128.539 E8.45332
G1 X155.504 Y129.742 E8.47739
G1 X155.474 Y129.976 E8.4821
G1 X155.317 Y130.883 E8.50047
G1 X155.083 Y131.773 E8.51883
G1 X154.834 Y132.483 E8.53385
G1 X154.736 Y132.734 E8.53922
G1 X154.364 Y133.576 E8.55759
G1 X153.921 Y134.383 E8.57596
G1 X153.338 Y135.245 E8.59673
G1 X153.163 Y135.478 E8.60255
G1 X152.578 Y136.189 E8.62092
G1 X151.781 Y136.976 E8.64327
G1 X151.786 Y136.981 E8.64341
G1 X149.831 Y138.77 E8.6963
G1 X147.977 Y140.563 E8.74777
G1 X146.098 Y142.489 E8.80146
G1 X145.427 Y143.12 E8.81985
G1 X145.002 Y143.467 E8.8308
G1 X144.789 Y143.632 E8.83617
G1 X144.038 Y144.163 E8.85453
G1 X143.243 Y144.628 E8.87291
G1 X142.542 Y144.965 E8.88843
G1 X142.336 Y145.055 E8.89291
G1 X141.477 Y145.387 E8.91129
G1 X140.592 Y145.643 E8.92968
G1 X139.704 Y145.819 E8.94774
G1 X139.379 Y145.869 E8.95431
G1 X138.098 Y145.987 E8.97998
G1 X137.874 Y145.994 E8.98445
G1 X137.543 Y145.999 E8.99106
G1 X82.751 Y145.999 E10.08449
G1 X82.054 Y145.989 E10.0984
G1 X80.825 Y145.9 E10.12299
G1 X80.589 Y145.869 E10.12774
G1 X79.683 Y145.709 E10.1461
G1 X78.793 Y145.472 E10.16448
G1 X78.122 Y145.236 E10.17868
G1 X77.873 Y145.139 E10.18401
G1 X77.031 Y144.768 E10.20237
G1 X76.224 Y144.325 E10.22074
G1 X75.332 Y143.72 E10.24225
G1 X75.099 Y143.544 E10.24808
G1 X74.389 Y142.958 E10.26645
G1 X73.979 Y142.567 E10.27776
G1 X73.605 Y142.19 E10.28835
G1 X72.292 Y140.833 E10.32603
G1 X70.465 Y139.05 E10.37698
G1 X68.544 Y137.278 E10.42913
G1 X68.248 Y137.014 E10.43705
G1 X67.589 Y136.371 E10.45542
G1 X66.907 Y135.57 E10.47642
G1 X66.744 Y135.358 E10.48175
G1 X66.215 Y134.604 E10.50013
G1 X65.753 Y133.808 E10.5185
G1 X65.416 Y133.101 E10.53413
G1 X65.327 Y132.895 E10.53861
G1 X64.999 Y132.035 E10.55698
G1 X64.747 Y131.149 E10.57536
G1 X64.582 Y130.308 E10.59246
G1 X64.532 Y129.984 E10.599
G1 X64.413 Y128.685 E10.62504
G1 X64.406 Y128.452 E10.62969
G1 X64.401 Y128.138 E10.63596
G1 X64.401 Y125.052 E10.69754
G1 X64.411 Y124.35 E10.71155
G1 X64.474 Y123.341 E10.73173
G1 X64.51 Y123.014 E10.73829
G1 X64.542 Y122.752 E10.74356
G1 X64.811 Y120.763 E10.78361
G1 X65.084 Y118.216 E10.83473
G1 X65.28 Y115.729 E10.88452
G1 X65.408 Y113.164 E10.93577
G1 X65.462 Y110.682 E10.98531
G1 X65.446 Y108.141 E11.03602
G1 X65.357 Y105.588 E11.087
G1 X65.199 Y103.087 E11.13701
G1 X64.965 Y100.537 E11.18811
G1 X64.664 Y98.027 E11.23856
G1 X64.516 Y96.991 E11.25944
G1 X64.415 Y95.833 E11.28264
G1 X64.407 Y95.585 E11.28759
G1 X64.401 Y95.247 E11.29434
G1 X64.401 Y92.135 E11.35644
G1 X64.411 Y91.447 E11.37017
G1 X64.5 Y90.224 E11.39464
G1 X64.53 Y89.995 E11.39925
G1 X64.689 Y89.088 E11.41763
G1 X64.926 Y88.199 E11.43599
G1 X65.166 Y87.517 E11.45042
G1 X65.264 Y87.266 E11.45579
G1 X65.636 Y86.424 E11.47416
G1 X66.079 Y85.617 E11.49253
G1 X66.662 Y84.755 E11.5133
G1 X66.834 Y84.526 E11.51902
G1 X67.419 Y83.815 E11.53739
G1 X68.156 Y83.07 E11.5583
G1 X70.188 Y81.212 E11.61325
G1 X71.998 Y79.459 E11.66354
G1 X73.842 Y77.573 E11.71617
G0 F6000 X74.128 Y77.853
G1 F1200 X74.726 Y77.289 E11.73258
G1 X74.949 Y77.095 E11.73848
G1 X75.662 Y76.529 E11.75664
G1 X75.72 Y76.487 E11.75807
G1 X76.474 Y75.99 E11.77609
G1 X77.679 Y75.375 E11.80309
G1 X77.919 Y75.272 E11.8083
G1 X78.764 Y74.953 E11.82633
G1 X79.634 Y74.71 E11.84435
G1 X80.571 Y74.537 E11.86337
G1 X80.748 Y74.513 E11.86693
G1 X81.916 Y74.423 E11.89031
G1 X82.972 Y74.402 E11.91139
G1 X83.175 Y74.4 E11.91544
G1 X137.097 Y74.4 E12.99151
G1 X137.941 Y74.411 E13.00836
G1 X139.129 Y74.498 E13.03213
G1 X139.364 Y74.529 E13.03686
G1 X140.253 Y74.686 E13.05487
G1 X141.125 Y74.922 E13.0729
G1 X141.732 Y75.137 E13.08575
G1 X141.981 Y75.234 E13.09108
G1 X142.808 Y75.598 E13.10912
G1 X143.598 Y76.035 E13.12713
G1 X144.427 Y76.599 E13.14714
G1 X144.66 Y76.775 E13.15297
G1 X145.356 Y77.351 E13.171
G1 X145.738 Y77.715 E13.18153
G1 X146.108 Y78.088 E13.19201
G1 X147.442 Y79.467 E13.2303
G1 X149.249 Y81.23 E13.28068
G1 X151.194 Y83.024 E13.33349
G1 X151.482 Y83.281 E13.34119
G1 X152.128 Y83.912 E13.35921
G1 X152.766 Y84.661 E13.37885
G1 X152.931 Y84.875 E13.38424
G1 X153.45 Y85.614 E13.40226
G1 X153.902 Y86.396 E13.42028
G1 X154.209 Y87.041 E13.43454
G1 X154.298 Y87.246 E13.439
G1 X154.621 Y88.09 E13.45703
G1 X154.868 Y88.958 E13.47504
G1 X155.022 Y89.748 E13.4911
G1 X155.072 Y90.071 E13.49763
G1 X155.189 Y91.37 E13.52366
G1 X155.197 Y91.683 E13.5299
G1 X155.2 Y91.944 E13.53511
G1 X155.199 Y94.943 E13.59496
G1 X155.189 Y95.64 E13.60887
G1 X155.131 Y96.594 E13.62794
G1 X155.095 Y96.926 E13.63461
G1 X155.062 Y97.195 E13.64002
G1 X154.789 Y99.213 E13.68066
G1 X154.521 Y101.712 E13.73081
G1 X154.318 Y104.291 E13.78244
G1 X154.195 Y106.77 E13.83197
G1 X154.138 Y109.347 E13.88341
G1 X154.154 Y111.875 E13.93386
G1 X154.243 Y114.415 E13.98458
G1 X154.402 Y116.941 E14.03509
G1 X154.637 Y119.507 E14.08651
G1 X154.94 Y122.032 E14.13726
G1 X155.088 Y123.064 E14.15807
G1 X155.186 Y124.18 E14.18042
G1 X155.194 Y124.429 E14.18539
G1 X155.199 Y124.753 E14.19186
G1 X155.199 Y127.804 E14.25275
G1 X155.189 Y128.534 E14.26732
G1 X155.107 Y129.691 E14.29046
G1 X155.077 Y129.925 E14.29517
G1 X154.923 Y130.815 E14.3132
G1 X154.69 Y131.688 E14.33123
G1 X154.461 Y132.338 E14.34498
G1 X154.363 Y132.589 E14.35036
G1 X153.998 Y133.415 E14.36838
G1 X153.561 Y134.205 E14.38639
G1 X153.018 Y135.005 E14.40569
G1 X152.843 Y135.238 E14.41151
G1 X152.269 Y135.935 E14.42952
G1 X151.512 Y136.681 E14.45073
G1 X151.516 Y136.686 E14.45086
G1 X149.547 Y138.487 E14.50411
G1 X147.713 Y140.262 E14.55505
G1 X145.812 Y142.21 E14.60936
G1 X145.153 Y142.828 E14.62739
G1 X144.757 Y143.151 E14.63759
G1 X144.544 Y143.316 E14.64297
G1 X143.807 Y143.837 E14.66098
G1 X143.026 Y144.29 E14.679
G1 X142.382 Y144.599 E14.69325
G1 X142.176 Y144.689 E14.69774
G1 X141.333 Y145.013 E14.71576
G1 X140.465 Y145.262 E14.73378
G1 X139.643 Y145.423 E14.7505
G1 X139.318 Y145.473 E14.75706
G1 X138.086 Y145.587 E14.78175
G1 X137.862 Y145.594 E14.78622
G1 X137.543 Y145.599 E14.79259
G1 X82.757 Y145.599 E15.8859
G1 X82.06 Y145.589 E15.89981
G1 X80.878 Y145.503 E15.92346
G1 X80.642 Y145.472 E15.92821
G1 X79.752 Y145.315 E15.94625
G1 X78.88 Y145.08 E15.96427
G1 X78.268 Y144.863 E15.97723
G1 X78.019 Y144.766 E15.98256
G1 X77.192 Y144.402 E16.00059
G1 X76.402 Y143.965 E16.01861
G1 X75.573 Y143.401 E16.03862
G1 X75.34 Y143.225 E16.04445
G1 X74.644 Y142.649 E16.06248
G1 X74.262 Y142.285 E16.07301
G1 X73.892 Y141.912 E16.08349
G1 X72.558 Y140.533 E16.12178
G1 X70.732 Y138.752 E16.17268
G1 X68.835 Y137.001 E16.2242
G1 X68.515 Y136.716 E16.23275
G1 X67.868 Y136.085 E16.25079
G1 X67.224 Y135.326 E16.27065
G1 X67.061 Y135.114 E16.27599
G1 X66.543 Y134.375 E16.294
G1 X66.092 Y133.592 E16.31203
G1 X65.784 Y132.942 E16.32638
G1 X65.695 Y132.736 E16.33086
G1 X65.373 Y131.892 E16.34889
G1 X65.128 Y131.023 E16.36691
G1 X64.977 Y130.247 E16.38268
G1 X64.927 Y129.923 E16.38923
G1 X64.813 Y128.673 E16.41427
G1 X64.806 Y128.44 E16.41893
G1 X64.801 Y128.137 E16.42497
G1 X64.801 Y125.058 E16.48642
G1 X64.811 Y124.356 E16.50043
G1 X64.871 Y123.385 E16.51984
G1 X64.907 Y123.058 E16.52641
G1 X64.938 Y122.805 E16.5315
G1 X65.211 Y120.787 E16.57213
G1 X65.479 Y118.288 E16.62229
G1 X65.682 Y115.709 E16.67392
G1 X65.805 Y113.23 E16.72345
G1 X65.862 Y110.653 E16.77489
G1 X65.846 Y108.125 E16.82534
G1 X65.757 Y105.585 E16.87606
G1 X65.595 Y103.023 E16.92729
G1 X65.367 Y100.524 E16.97736
G1 X65.06 Y97.972 E17.02866
G1 X64.912 Y96.935 E17.04956
G1 X64.814 Y95.82 E17.0719
G1 X64.806 Y95.572 E17.07685
G1 X64.801 Y95.246 E17.08336
G1 X64.801 Y92.141 E17.14532
G1 X64.811 Y91.453 E17.15905
G1 X64.896 Y90.276 E17.1826
G1 X64.926 Y90.047 E17.18721
G1 X65.083 Y89.158 E17.20523
G1 X65.318 Y88.286 E17.22325
G1 X65.539 Y87.662 E17.23646
