
;Inkscape Lasertools G-code
;https://github.com/ChrisWag91/Inkscape-Lasertools-Plugin

G90	;Absolute programming
G21	;Programming in millimeters (mm)

; START infill strategy
G01 F800.0
G00 X15.16 Y2.01 F1500.0
M4 S400
G01 Y3.26 F800.0
M5
G00 X15.76 Y3.25 F1500.0
M4 S400
G01 Y2.01 F800.0
M5
G00 X16.36 Y2.01 F1500.0
M4 S400
G01 Y3.18 F800.0
M5
M5
;END infill

; START infill strategy
G01 F800.0
G00 X14.17 Y2.01 F1500.0
M4 S400
G01 Y3.26 F800.0
M5
G00 X14.77 Y3.24 F1500.0
M4 S400
G01 Y2.01 F800.0
M5
M5
;END infill

; START infill strategy
G01 F800.0
G00 X13.33 Y2.1 F1500.0
M4 S400
G01 Y3.92 F800.0
M5
M5
;END infill

; START infill strategy
G01 F800.0
G00 X11.66 Y4.01 F1500.0
M4 S400
G01 Y3.41 F800.0
M5
G00 X12.06 Y3.35 F1500.0
M4 S400
G01 Y2.97 F800.0
M5
G00 X11.86 Y2.94 F1500.0
M4 S400
G01 Y2.55 F800.0
M5
G00 X11.66 Y2.52 F1500.0
M4 S400
G01 Y2.01 F800.0
M5
M5
;END infill

; START infill strategy
G01 F800.0
G00 X10.62 Y4.01 F1500.0
M4 S400
G01 Y3.81 F800.0
M5
G00 X11.02 Y3.27 F1500.0
M4 S400
G01 Y2.01 F800.0
M5
M5
;END infill

; START infill strategy
G01 F800.0
M5
;END infill

; START infill strategy
G01 F800.0
G00 X9.31 Y2.1 F1500.0
M4 S400
G01 Y3.92 F800.0
M5
M5
;END infill

; START infill strategy
G01 F800.0
G00 X7.63 Y4.01 F1500.0
M4 S400
G01 Y3.81 F800.0
M5
G00 X8.03 Y3.27 F1500.0
M4 S400
G01 Y2.01 F800.0
M5
M5
;END infill

; START infill strategy
G01 F800.0
G00 X6.56 Y4.01 F1500.0
M4 S400
G01 Y3.41 F800.0
M5
G00 X6.96 Y3.35 F1500.0
M4 S400
G01 Y2.97 F800.0
M5
G00 X6.76 Y2.94 F1500.0
M4 S400
G01 Y2.55 F800.0
M5
G00 X6.56 Y2.52 F1500.0
M4 S400
G01 Y2.01 F800.0
M5
M5
;END infill

; START infill strategy
G01 F800.0
G00 X5.42 Y2.01 F1500.0
M4 S400
G01 Y2.23 F800.0
M5
G00 X5.42 Y2.88 F1500.0
M4 S400
G01 Y3.1 F800.0
M5
M5
;END infill

; START infill strategy
G01 F800.0
G00 X5.06 Y3.21 F1500.0
M4 S400
G01 Y2.6 F800.0
M5
G00 X5.06 Y2.38 F1500.0
M4 S400
G01 Y2.05 F800.0
M5
M5
;END infill

; START infill strategy
G01 F800.0
G00 X4.06 Y3.26 F1500.0
M4 S400
G01 Y2.01 F800.0
M5
M5
;END infill

; START infill strategy
G01 F800.0
G00 X3.01 Y2.01 F1500.0
M4 S400
G01 Y4.01 F800.0
M5
M5
;END infill

; START infill strategy
G01 F800.0
G00 X2. Y2.01 F1500.0
M4 S400
G01 Y4.01 F800.0
M5
G00 X2.6 Y3.24 F1500.0
M4 S400
G01 Y2.07 F800.0
M5
M5
;END infill

; START infill strategy
G01 F800.0
G00 X55.22 Y9.51 F1500.0
M4 S400
G01 Y2.45 F800.0
M5
G00 X55.42 Y2.67 F1500.0
M4 S400
G01 Y2.23 F800.0
M5
G00 X55.62 Y2.09 F1500.0
M4 S400
G01 Y2.43 F800.0
M5
G00 X55.82 Y2.34 F1500.0
M4 S400
G01 Y2.04 F800.0
M5
G00 X56.02 Y2. F1500.0
M4 S400
G01 Y2.26 F800.0
M5
G00 X56.22 Y2.25 F1500.0
M4 S400
G01 Y2.0 F800.0
M5
G00 X56.42 Y2. F1500.0
M4 S400
G01 Y2.25 F800.0
M5
G00 X56.62 Y2.25 F1500.0
M4 S400
G01 Y2.0 F800.0
M5
G00 X56.82 Y2. F1500.0
M4 S400
G01 Y2.25 F800.0
M5
G00 X57.02 Y2.25 F1500.0
M4 S400
G01 Y2.0 F800.0
M5
G00 X57.22 Y2. F1500.0
M4 S400
G01 Y2.25 F800.0
M5
G00 X57.42 Y2.25 F1500.0
M4 S400
G01 Y2.0 F800.0
M5
G00 X57.62 Y2. F1500.0
M4 S400
G01 Y2.25 F800.0
M5
G00 X57.82 Y2.25 F1500.0
M4 S400
G01 Y2.0 F800.0
M5
G00 X58.02 Y2. F1500.0
M4 S400
G01 Y2.25 F800.0
M5
G00 X58.22 Y2.25 F1500.0
M4 S400
G01 Y2.0 F800.0
M5
G00 X58.42 Y2. F1500.0
M4 S400
G01 Y2.25 F800.0
M5
G00 X58.62 Y2.25 F1500.0
M4 S400
G01 Y2.0 F800.0
M5
G00 X58.82 Y2. F1500.0
M4 S400
G01 Y2.25 F800.0
M5
G00 X59.02 Y2.25 F1500.0
M4 S400
G01 Y2.0 F800.0
M5
G00 X59.22 Y2. F1500.0
M4 S400
G01 Y2.25 F800.0
M5
G00 X59.42 Y2.25 F1500.0
M4 S400
G01 Y2.0 F800.0
M5
G00 X59.62 Y2. F1500.0
M4 S400
G01 Y2.25 F800.0
M5
G00 X59.82 Y2.25 F1500.0
M4 S400
G01 Y2.0 F800.0
M5
G00 X60.02 Y2. F1500.0
M4 S400
G01 Y2.25 F800.0
M5
G00 X60.22 Y2.25 F1500.0
M4 S400
G01 Y2.0 F800.0
M5
G00 X60.42 Y2. F1500.0
M4 S400
G01 Y2.25 F800.0
M5
G00 X60.62 Y2.25 F1500.0
M4 S400
G01 Y2.0 F800.0
M5
G00 X60.82 Y2. F1500.0
M4 S400
G01 Y2.25 F800.0
M5
G00 X61.02 Y2.25 F1500.0
M4 S400
G01 Y2.0 F800.0
M5
G00 X61.22 Y2. F1500.0
M4 S400
G01 Y2.25 F800.0
M5
G00 X61.42 Y2.25 F1500.0
M4 S400
G01 Y2.0 F800.0
M5
G00 X61.62 Y2. F1500.0
M4 S400
G01 Y2.25 F800.0
M5
G00 X61.82 Y2.25 F1500.0
M4 S400
G01 Y2.0 F800.0
M5
G00 X62.02 Y2. F1500.0
M4 S400
G01 Y2.25 F800.0
M5
G00 X62.22 Y2.25 F1500.0
M4 S400
G01 Y2.0 F800.0
M5
G00 X62.42 Y2. F1500.0
M4 S400
G01 Y2.25 F800.0
M5
G00 X62.62 Y2.25 F1500.0
M4 S400
G01 Y2.0 F800.0
M5
G00 X62.82 Y2. F1500.0
M4 S400
G01 Y2.25 F800.0
M5
G00 X63.02 Y2.25 F1500.0
M4 S400
G01 Y2.0 F800.0
M5
G00 X63.22 Y2. F1500.0
M4 S400
G01 Y2.25 F800.0
M5
G00 X63.42 Y2.25 F1500.0
M4 S400
G01 Y2.0 F800.0
M5
G00 X63.62 Y2. F1500.0
M4 S400
G01 Y2.25 F800.0
M5
G00 X63.82 Y2.25 F1500.0
M4 S400
G01 Y2.0 F800.0
M5
G00 X64.02 Y2. F1500.0
M4 S400
G01 Y2.25 F800.0
M5
G00 X64.22 Y2.25 F1500.0
M4 S400
G01 Y2.0 F800.0
M5
G00 X64.42 Y2. F1500.0
M4 S400
G01 Y2.25 F800.0
M5
G00 X64.62 Y2.25 F1500.0
M4 S400
G01 Y2.0 F800.0
M5
G00 X64.82 Y2. F1500.0
M4 S400
G01 Y2.25 F800.0
M5
G00 X65.02 Y2.25 F1500.0
M4 S400
G01 Y2.0 F800.0
M5
G00 X65.22 Y2. F1500.0
M4 S400
G01 Y2.25 F800.0
M5
G00 X65.42 Y2.25 F1500.0
M4 S400
G01 Y2.0 F800.0
M5
G00 X65.62 Y2. F1500.0
M4 S400
G01 Y2.25 F800.0
M5
G00 X65.82 Y2.25 F1500.0
M4 S400
G01 Y2.0 F800.0
M5
G00 X66.02 Y2. F1500.0
M4 S400
G01 Y2.25 F800.0
M5
G00 X66.22 Y2.25 F1500.0
M4 S400
G01 Y2.0 F800.0
M5
G00 X66.42 Y2. F1500.0
M4 S400
G01 Y2.25 F800.0
M5
G00 X66.62 Y2.25 F1500.0
M4 S400
G01 Y2.0 F800.0
M5
G00 X66.82 Y2. F1500.0
M4 S400
G01 Y2.25 F800.0
M5
G00 X67.02 Y2.25 F1500.0
M4 S400
G01 Y2.0 F800.0
M5
G00 X67.22 Y2. F1500.0
M4 S400
G01 Y2.25 F800.0
M5
G00 X67.42 Y2.25 F1500.0
M4 S400
G01 Y2.0 F800.0
M5
G00 X67.62 Y2. F1500.0
M4 S400
G01 Y2.25 F800.0
M5
G00 X67.82 Y2.25 F1500.0
M4 S400
G01 Y2.0 F800.0
M5
G00 X68.02 Y2. F1500.0
M4 S400
G01 Y2.25 F800.0
M5
G00 X68.22 Y2.25 F1500.0
M4 S400
G01 Y2.0 F800.0
M5
G00 X68.42 Y2. F1500.0
M4 S400
G01 Y2.25 F800.0
M5
G00 X68.62 Y2.25 F1500.0
M4 S400
G01 Y2.0 F800.0
M5
G00 X68.82 Y2. F1500.0
M4 S400
G01 Y2.25 F800.0
M5
G00 X69.02 Y2.25 F1500.0
M4 S400
G01 Y2.0 F800.0
M5
G00 X69.22 Y2. F1500.0
M4 S400
G01 Y2.25 F800.0
M5
G00 X69.42 Y2.27 F1500.0
M4 S400
G01 Y2.01 F800.0
M5
G00 X69.62 Y2.05 F1500.0
M4 S400
G01 Y2.35 F800.0
M5
G00 X69.82 Y2.44 F1500.0
M4 S400
G01 Y2.11 F800.0
M5
G00 X70.02 Y2.25 F1500.0
M4 S400
G01 Y2.73 F800.0
M5
G00 X70.22 Y2.49 F1500.0
M4 S400
G01 Y9.47 F800.0
M5
G00 X70.02 Y9.71 F1500.0
M4 S400
G01 Y9.23 F800.0
M5
G00 X69.82 Y9.52 F1500.0
M4 S400
G01 Y9.85 F800.0
M5
G00 X69.62 Y9.91 F1500.0
M4 S400
G01 Y9.61 F800.0
M5
G00 X69.42 Y9.7 F1500.0
M4 S400
G01 Y9.96 F800.0
M5
G00 X69.22 Y9.96 F1500.0
M4 S400
G01 Y9.71 F800.0
M5
G00 X69.02 Y9.71 F1500.0
M4 S400
G01 Y9.96 F800.0
M5
G00 X68.82 Y9.96 F1500.0
M4 S400
G01 Y9.71 F800.0
M5
G00 X68.62 Y9.71 F1500.0
M4 S400
G01 Y9.96 F800.0
M5
G00 X68.42 Y9.96 F1500.0
M4 S400
G01 Y9.71 F800.0
M5
G00 X68.22 Y9.71 F1500.0
M4 S400
G01 Y9.96 F800.0
M5
G00 X68.02 Y9.96 F1500.0
M4 S400
G01 Y9.71 F800.0
M5
G00 X67.82 Y9.71 F1500.0
M4 S400
G01 Y9.96 F800.0
M5
G00 X67.62 Y9.96 F1500.0
M4 S400
G01 Y9.71 F800.0
M5
G00 X67.42 Y9.71 F1500.0
M4 S400
G01 Y9.96 F800.0
M5
G00 X67.22 Y9.96 F1500.0
M4 S400
G01 Y9.71 F800.0
M5
G00 X67.02 Y9.71 F1500.0
M4 S400
G01 Y9.96 F800.0
M5
G00 X66.82 Y9.96 F1500.0
M4 S400
G01 Y9.71 F800.0
M5
G00 X66.62 Y9.71 F1500.0
M4 S400
G01 Y9.96 F800.0
M5
G00 X66.42 Y9.96 F1500.0
M4 S400
G01 Y9.71 F800.0
M5
G00 X66.22 Y9.71 F1500.0
M4 S400
G01 Y9.96 F800.0
M5
G00 X66.02 Y9.96 F1500.0
M4 S400
G01 Y9.71 F800.0
M5
G00 X65.82 Y9.71 F1500.0
M4 S400
G01 Y9.96 F800.0
M5
G00 X65.62 Y9.96 F1500.0
M4 S400
G01 Y9.71 F800.0
M5
G00 X65.42 Y9.71 F1500.0
M4 S400
G01 Y9.96 F800.0
M5
G00 X65.22 Y9.96 F1500.0
M4 S400
G01 Y9.71 F800.0
M5
G00 X65.02 Y9.71 F1500.0
M4 S400
G01 Y9.96 F800.0
M5
G00 X64.82 Y9.96 F1500.0
M4 S400
G01 Y9.71 F800.0
M5
G00 X64.62 Y9.71 F1500.0
M4 S400
G01 Y9.96 F800.0
M5
G00 X64.42 Y9.96 F1500.0
M4 S400
G01 Y9.71 F800.0
M5
G00 X64.22 Y9.71 F1500.0
M4 S400
G01 Y9.96 F800.0
M5
G00 X64.02 Y9.96 F1500.0
M4 S400
G01 Y9.71 F800.0
M5
G00 X63.82 Y9.71 F1500.0
M4 S400
G01 Y9.96 F800.0
M5
G00 X63.62 Y9.96 F1500.0
M4 S400
G01 Y9.71 F800.0
M5
G00 X63.42 Y9.71 F1500.0
M4 S400
G01 Y9.96 F800.0
M5
G00 X63.22 Y9.96 F1500.0
M4 S400
G01 Y9.71 F800.0
M5
G00 X63.02 Y9.71 F1500.0
M4 S400
G01 Y9.96 F800.0
M5
G00 X62.82 Y9.96 F1500.0
M4 S400
G01 Y9.71 F800.0
M5
G00 X62.62 Y9.71 F1500.0
M4 S400
G01 Y9.96 F800.0
M5
G00 X62.42 Y9.96 F1500.0
M4 S400
G01 Y9.71 F800.0
M5
G00 X62.22 Y9.71 F1500.0
M4 S400
G01 Y9.96 F800.0
M5
G00 X62.02 Y9.96 F1500.0
M4 S400
G01 Y9.71 F800.0
M5
G00 X61.82 Y9.71 F1500.0
M4 S400
G01 Y9.96 F800.0
M5
G00 X61.62 Y9.96 F1500.0
M4 S400
G01 Y9.71 F800.0
M5
G00 X61.42 Y9.71 F1500.0
M4 S400
G01 Y9.96 F800.0
M5
G00 X61.22 Y9.96 F1500.0
M4 S400
G01 Y9.71 F800.0
M5
G00 X61.02 Y9.71 F1500.0
M4 S400
G01 Y9.96 F800.0
M5
G00 X60.82 Y9.96 F1500.0
M4 S400
G01 Y9.71 F800.0
M5
G00 X60.62 Y9.71 F1500.0
M4 S400
G01 Y9.96 F800.0
M5
G00 X60.42 Y9.96 F1500.0
M4 S400
G01 Y9.71 F800.0
M5
G00 X60.22 Y9.71 F1500.0
M4 S400
G01 Y9.96 F800.0
M5
G00 X60.02 Y9.96 F1500.0
M4 S400
G01 Y9.71 F800.0
M5
G00 X59.82 Y9.71 F1500.0
M4 S400
G01 Y9.96 F800.0
M5
G00 X59.62 Y9.96 F1500.0
M4 S400
G01 Y9.71 F800.0
M5
G00 X59.42 Y9.71 F1500.0
M4 S400
G01 Y9.96 F800.0
M5
G00 X59.22 Y9.96 F1500.0
M4 S400
G01 Y9.71 F800.0
M5
G00 X59.02 Y9.71 F1500.0
M4 S400
G01 Y9.96 F800.0
M5
G00 X58.82 Y9.96 F1500.0
M4 S400
G01 Y9.71 F800.0
M5
G00 X58.62 Y9.71 F1500.0
M4 S400
G01 Y9.96 F800.0
M5
G00 X58.42 Y9.96 F1500.0
M4 S400
G01 Y9.71 F800.0
M5
G00 X58.22 Y9.71 F1500.0
M4 S400
G01 Y9.96 F800.0
M5
G00 X58.02 Y9.96 F1500.0
M4 S400
G01 Y9.71 F800.0
M5
G00 X57.82 Y9.71 F1500.0
M4 S400
G01 Y9.96 F800.0
M5
G00 X57.62 Y9.96 F1500.0
M4 S400
G01 Y9.71 F800.0
M5
G00 X57.42 Y9.71 F1500.0
M4 S400
G01 Y9.96 F800.0
M5
G00 X57.22 Y9.96 F1500.0
M4 S400
G01 Y9.71 F800.0
M5
G00 X57.02 Y9.71 F1500.0
M4 S400
G01 Y9.96 F800.0
M5
G00 X56.82 Y9.96 F1500.0
M4 S400
G01 Y9.71 F800.0
M5
G00 X56.62 Y9.71 F1500.0
M4 S400
G01 Y9.96 F800.0
M5
G00 X56.42 Y9.96 F1500.0
M4 S400
G01 Y9.71 F800.0
M5
G00 X56.22 Y9.71 F1500.0
M4 S400
G01 Y9.96 F800.0
M5
G00 X56.02 Y9.96 F1500.0
M4 S400
G01 Y9.7 F800.0
M5
G00 X55.82 Y9.62 F1500.0
M4 S400
G01 Y9.92 F800.0
M5
G00 X55.62 Y9.87 F1500.0
M4 S400
G01 Y9.53 F800.0
M5
G00 X55.42 Y9.73 F1500.0
M4 S400
G01 Y9.29 F800.0
M5
M5
;END infill

; START infill strategy
G01 F800.0
G00 X67.97 Y4.34 F1500.0
M4 S400
G01 Y3.86 F800.0
M5
G00 X68.17 Y3.96 F1500.0
M4 S400
G01 Y3.72 F800.0
M5
G00 X68.37 Y3.66 F1500.0
M4 S400
G01 Y3.87 F800.0
M5
G00 X68.57 Y3.85 F1500.0
M4 S400
G01 Y3.64 F800.0
M5
G00 X68.77 Y3.63 F1500.0
M4 S400
G01 Y3.84 F800.0
M5
G00 X68.97 Y3.82 F1500.0
M4 S400
G01 Y3.62 F800.0
M5
G00 X69.17 Y3.6 F1500.0
M4 S400
G01 Y3.81 F800.0
M5
G00 X69.37 Y3.76 F1500.0
M4 S400
G01 Y3.43 F800.0
M5
G00 X69.37 Y3.17 F1500.0
M4 S400
G01 Y2.91 F800.0
M5
G00 X69.57 Y3.15 F1500.0
M4 S400
G01 Y3.51 F800.0
M5
G00 X69.37 Y4.33 F1500.0
M4 S400
G01 Y4.55 F800.0
M5
G00 X69.17 Y4.62 F1500.0
M4 S400
G01 Y4.4 F800.0
M5
G00 X68.97 Y4.44 F1500.0
M4 S400
G01 Y4.66 F800.0
M5
G00 X68.37 Y4.63 F1500.0
M4 S400
G01 Y4.42 F800.0
M5
G00 X68.17 Y4.3 F1500.0
M4 S400
G01 Y4.54 F800.0
M5
G00 X67.97 Y3.31 F1500.0
M4 S400
G01 Y2.97 F800.0
M5
G00 X68.17 Y2.89 F1500.0
M4 S400
G01 Y3.09 F800.0
M5
G00 X68.37 Y3.01 F1500.0
M4 S400
G01 Y2.8 F800.0
M5
M5
;END infill

; START infill strategy
G01 F800.0
G00 X65.67 Y4.65 F1500.0
M4 S400
G01 Y2.78 F800.0
M5
G00 X67.07 Y2.78 F1500.0
M4 S400
G01 Y3.22 F800.0
M5
G00 X66.87 Y3.14 F1500.0
M4 S400
G01 Y3.45 F800.0
M5
G00 X66.67 Y3.37 F1500.0
M4 S400
G01 Y3.68 F800.0
M5
G00 X66.47 Y3.6 F1500.0
M4 S400
G01 Y3.91 F800.0
M5
G00 X66.27 Y3.83 F1500.0
M4 S400
G01 Y4.14 F800.0
M5
G00 X66.07 Y4.05 F1500.0
M4 S400
G01 Y4.37 F800.0
M5
G00 X65.87 Y4.28 F1500.0
M4 S400
G01 Y4.65 F800.0
M5
G00 X67.27 Y4.65 F1500.0
M4 S400
G01 Y2.78 F800.0
M5
M5
;END infill

; START infill strategy
G01 F800.0
G00 X63.24 Y4.29 F1500.0
M4 S400
G01 Y3.16 F800.0
M5
G00 X63.44 Y3.33 F1500.0
M4 S400
G01 Y2.98 F800.0
M5
G00 X63.44 Y4.18 F1500.0
M4 S400
G01 Y4.43 F800.0
M5
G00 X63.64 Y4.33 F1500.0
M4 S400
G01 Y4.57 F800.0
M5
G00 X63.84 Y4.63 F1500.0
M4 S400
G01 Y4.4 F800.0
M5
G00 X64.24 Y4.47 F1500.0
M4 S400
G01 Y4.67 F800.0
M5
G00 X64.44 Y4.64 F1500.0
M4 S400
G01 Y4.41 F800.0
M5
G00 X64.64 Y4.36 F1500.0
M4 S400
G01 Y4.58 F800.0
M5
G00 X64.84 Y4.5 F1500.0
M4 S400
G01 Y4.24 F800.0
M5
G00 X64.84 Y3.69 F1500.0
M4 S400
G01 Y2.93 F800.0
M5
G00 X64.24 Y3.42 F1500.0
M4 S400
G01 Y3.78 F800.0
M5
M5
;END infill

; START infill strategy
G01 F800.0
G00 X62.47 Y4.65 F1500.0
M4 S400
G01 Y2.78 F800.0
M5
M5
;END infill

; START infill strategy
G01 F800.0
G00 X60.25 Y4.34 F1500.0
M4 S400
G01 Y3.86 F800.0
M5
G00 X60.45 Y3.96 F1500.0
M4 S400
G01 Y3.72 F800.0
M5
G00 X60.65 Y3.66 F1500.0
M4 S400
G01 Y3.87 F800.0
M5
G00 X60.85 Y3.85 F1500.0
M4 S400
G01 Y3.64 F800.0
M5
G00 X61.05 Y3.63 F1500.0
M4 S400
G01 Y3.84 F800.0
M5
G00 X61.25 Y3.82 F1500.0
M4 S400
G01 Y3.62 F800.0
M5
G00 X61.45 Y3.6 F1500.0
M4 S400
G01 Y3.81 F800.0
M5
G00 X61.65 Y3.76 F1500.0
M4 S400
G01 Y3.43 F800.0
M5
G00 X61.65 Y3.17 F1500.0
M4 S400
G01 Y2.91 F800.0
M5
G00 X61.85 Y3.15 F1500.0
M4 S400
G01 Y3.51 F800.0
M5
G00 X61.65 Y4.33 F1500.0
M4 S400
G01 Y4.55 F800.0
M5
G00 X61.45 Y4.62 F1500.0
M4 S400
G01 Y4.4 F800.0
M5
G00 X61.25 Y4.44 F1500.0
M4 S400
G01 Y4.66 F800.0
M5
G00 X60.65 Y4.63 F1500.0
M4 S400
G01 Y4.42 F800.0
M5
G00 X60.45 Y4.3 F1500.0
M4 S400
G01 Y4.54 F800.0
M5
G00 X60.25 Y3.31 F1500.0
M4 S400
G01 Y2.97 F800.0
M5
G00 X60.45 Y2.89 F1500.0
M4 S400
G01 Y3.09 F800.0
M5
G00 X60.65 Y3.01 F1500.0
M4 S400
G01 Y2.8 F800.0
M5
M5
;END infill

; START infill strategy
G01 F800.0
G00 X58.29 Y4.65 F1500.0
M4 S400
G01 Y2.78 F800.0
M5
G00 X59.69 Y2.77 F1500.0
M4 S400
G01 Y2.98 F800.0
M5
G00 X59.29 Y3.58 F1500.0
M4 S400
G01 Y3.9 F800.0
M5
G00 X59.69 Y4.43 F1500.0
M4 S400
G01 Y4.69 F800.0
M5
M5
;END infill

; START infill strategy
G01 F800.0
G00 X55.95 Y4.65 F1500.0
M4 S400
G01 Y2.78 F800.0
M5
G00 X57.35 Y2.95 F1500.0
M4 S400
G01 Y3.27 F800.0
M5
G00 X57.55 Y3.14 F1500.0
M4 S400
G01 Y4.27 F800.0
M5
G00 X57.35 Y4.17 F1500.0
M4 S400
G01 Y4.47 F800.0
M5
M5
;END infill

; START infill strategy
G01 F800.0
G00 X65.37 Y9.27 F1500.0
M4 S400
G01 Y5.2 F800.0
M5
G00 X65.57 Y5.2 F1500.0
M4 S400
G01 Y9.27 F800.0
M5
G00 X65.77 Y9.27 F1500.0
M4 S400
G01 Y5.2 F800.0
M5
G00 X65.97 Y5.2 F1500.0
M4 S400
G01 Y9.27 F800.0
M5
G00 X66.17 Y9.27 F1500.0
M4 S400
G01 Y5.2 F800.0
M5
G00 X66.37 Y6.97 F1500.0
M4 S400
G01 Y7.64 F800.0
M5
G00 X66.57 Y7.64 F1500.0
M4 S400
G01 Y6.97 F800.0
M5
G00 X66.77 Y6.97 F1500.0
M4 S400
G01 Y7.64 F800.0
M5
G00 X66.97 Y7.64 F1500.0
M4 S400
G01 Y6.97 F800.0
M5
G00 X67.17 Y6.97 F1500.0
M4 S400
G01 Y7.64 F800.0
M5
G00 X67.37 Y7.64 F1500.0
M4 S400
G01 Y6.97 F800.0
M5
G00 X67.57 Y6.97 F1500.0
M4 S400
G01 Y7.64 F800.0
M5
G00 X67.77 Y7.64 F1500.0
M4 S400
G01 Y6.97 F800.0
M5
G00 X67.97 Y6.97 F1500.0
M4 S400
G01 Y7.64 F800.0
M5
G00 X68.17 Y7.64 F1500.0
M4 S400
G01 Y6.97 F800.0
M5
G00 X68.37 Y6.97 F1500.0
M4 S400
G01 Y7.64 F800.0
M5
G00 X68.57 Y7.64 F1500.0
M4 S400
G01 Y6.97 F800.0
M5
G00 X68.57 Y5.45 F1500.0
M4 S400
G01 Y5.2 F800.0
M5
G00 X68.77 Y5.2 F1500.0
M4 S400
G01 Y9.27 F800.0
M5
G00 X68.57 Y9.27 F1500.0
M4 S400
G01 Y9.01 F800.0
M5
G00 X68.97 Y9.27 F1500.0
M4 S400
G01 Y5.2 F800.0
M5
G00 X69.17 Y5.2 F1500.0
M4 S400
G01 Y9.27 F800.0
M5
G00 X69.37 Y9.27 F1500.0
M4 S400
G01 Y5.2 F800.0
M5
M5
;END infill

; START infill strategy
G01 F800.0
G00 X61.06 Y9.27 F1500.0
M4 S400
G01 Y5.2 F800.0
M5
G00 X61.26 Y5.2 F1500.0
M4 S400
G01 Y9.27 F800.0
M5
G00 X61.46 Y9.27 F1500.0
M4 S400
G01 Y5.2 F800.0
M5
G00 X61.66 Y5.2 F1500.0
M4 S400
G01 Y9.27 F800.0
M5
G00 X61.86 Y9.27 F1500.0
M4 S400
G01 Y5.2 F800.0
M5
G00 X62.06 Y5.2 F1500.0
M4 S400
G01 Y5.87 F800.0
M5
G00 X62.26 Y5.87 F1500.0
M4 S400
G01 Y5.2 F800.0
M5
G00 X62.46 Y5.2 F1500.0
M4 S400
G01 Y5.87 F800.0
M5
G00 X62.66 Y5.87 F1500.0
M4 S400
G01 Y5.2 F800.0
M5
G00 X62.86 Y5.2 F1500.0
M4 S400
G01 Y5.87 F800.0
M5
G00 X63.06 Y5.87 F1500.0
M4 S400
G01 Y5.2 F800.0
M5
G00 X63.26 Y5.2 F1500.0
M4 S400
G01 Y5.87 F800.0
M5
G00 X63.46 Y5.87 F1500.0
M4 S400
G01 Y5.2 F800.0
M5
G00 X63.66 Y5.2 F1500.0
M4 S400
G01 Y5.87 F800.0
M5
G00 X63.86 Y5.87 F1500.0
M4 S400
G01 Y5.2 F800.0
M5
G00 X64.06 Y5.2 F1500.0
M4 S400
G01 Y5.87 F800.0
M5
G00 X64.26 Y5.87 F1500.0
M4 S400
G01 Y5.2 F800.0
M5
G00 X64.46 Y5.19 F1500.0
M4 S400
G01 Y5.88 F800.0
M5
G00 X64.66 Y6.06 F1500.0
M4 S400
G01 Y5.01 F800.0
M5
M5
;END infill

; START infill strategy
G01 F800.0
G00 X55.95 Y9.27 F1500.0
M4 S400
G01 Y5.2 F800.0
M5
G00 X56.15 Y5.2 F1500.0
M4 S400
G01 Y9.27 F800.0
M5
G00 X56.35 Y9.27 F1500.0
M4 S400
G01 Y5.2 F800.0
M5
G00 X56.55 Y5.2 F1500.0
M4 S400
G01 Y9.27 F800.0
M5
G00 X56.75 Y9.27 F1500.0
M4 S400
G01 Y5.2 F800.0
M5
G00 X56.95 Y5.2 F1500.0
M4 S400
G01 Y5.87 F800.0
M5
G00 X57.15 Y5.87 F1500.0
M4 S400
G01 Y5.2 F800.0
M5
G00 X57.35 Y5.2 F1500.0
M4 S400
G01 Y5.87 F800.0
M5
G00 X57.55 Y5.87 F1500.0
M4 S400
G01 Y5.2 F800.0
M5
G00 X57.75 Y5.2 F1500.0
M4 S400
G01 Y5.87 F800.0
M5
G00 X57.95 Y5.87 F1500.0
M4 S400
G01 Y5.2 F800.0
M5
G00 X58.15 Y5.21 F1500.0
M4 S400
G01 Y5.91 F800.0
M5
G00 X58.35 Y5.94 F1500.0
M4 S400
G01 Y5.23 F800.0
M5
G00 X58.55 Y5.25 F1500.0
M4 S400
G01 Y5.98 F800.0
M5
G00 X58.75 Y6.03 F1500.0
M4 S400
G01 Y5.28 F800.0
M5
G00 X58.95 Y5.3 F1500.0
M4 S400
G01 Y6.24 F800.0
M5
G00 X59.15 Y6.45 F1500.0
M4 S400
G01 Y5.41 F800.0
M5
G00 X59.35 Y5.51 F1500.0
M4 S400
G01 Y8.97 F800.0
M5
G00 X59.15 Y9.1 F1500.0
M4 S400
G01 Y7.97 F800.0
M5
G00 X58.95 Y8.27 F1500.0
M4 S400
G01 Y9.13 F800.0
M5
G00 X58.75 Y9.16 F1500.0
M4 S400
G01 Y8.4 F800.0
M5
G00 X58.55 Y8.52 F1500.0
M4 S400
G01 Y9.19 F800.0
M5
G00 X58.35 Y9.22 F1500.0
M4 S400
G01 Y8.54 F800.0
M5
G00 X58.15 Y8.57 F1500.0
M4 S400
G01 Y9.25 F800.0
M5
G00 X57.95 Y9.27 F1500.0
M4 S400
G01 Y8.59 F800.0
M5
G00 X57.75 Y8.6 F1500.0
M4 S400
G01 Y9.27 F800.0
M5
G00 X57.55 Y9.27 F1500.0
M4 S400
G01 Y8.6 F800.0
M5
G00 X57.35 Y8.6 F1500.0
M4 S400
G01 Y9.27 F800.0
M5
G00 X57.15 Y9.27 F1500.0
M4 S400
G01 Y8.6 F800.0
M5
G00 X56.95 Y8.6 F1500.0
M4 S400
G01 Y9.27 F800.0
M5
G00 X59.55 Y8.84 F1500.0
M4 S400
G01 Y5.62 F800.0
M5
G00 X59.75 Y5.88 F1500.0
M4 S400
G01 Y8.63 F800.0
M5
G00 X59.95 Y8.35 F1500.0
M4 S400
G01 Y6.16 F800.0
M5
G00 X60.15 Y6.84 F1500.0
M4 S400
G01 Y7.56 F800.0
M5
M5
;END infill

; START infill strategy
G01 F800.0
G00 X49.66 Y77.24 F1500.0
M4 S400
G01 Y81.05 F800.0
M5
G00 X49.86 Y81.05 F1500.0
M4 S400
G01 Y77.24 F800.0
M5
G00 X50.06 Y77.24 F1500.0
M4 S400
G01 Y81.05 F800.0
M5
G00 X50.26 Y81.05 F1500.0
M4 S400
G01 Y77.24 F800.0
M5
G00 X50.46 Y77.24 F1500.0
M4 S400
G01 Y77.76 F800.0
M5
G00 X50.66 Y77.76 F1500.0
M4 S400
G01 Y77.24 F800.0
M5
G00 X50.86 Y77.24 F1500.0
M4 S400
G01 Y77.76 F800.0
M5
G00 X51.06 Y77.76 F1500.0
M4 S400
G01 Y77.24 F800.0
M5
G00 X51.26 Y77.24 F1500.0
M4 S400
G01 Y77.76 F800.0
M5
G00 X51.46 Y77.76 F1500.0
M4 S400
G01 Y77.24 F800.0
M5
G00 X51.66 Y77.24 F1500.0
M4 S400
G01 Y77.76 F800.0
M5
G00 X51.86 Y77.76 F1500.0
M4 S400
G01 Y77.24 F800.0
M5
G00 X52.06 Y77.24 F1500.0
M4 S400
G01 Y77.76 F800.0
M5
G00 X51.66 Y78.95 F1500.0
M4 S400
G01 Y79.46 F800.0
M5
G00 X51.46 Y79.46 F1500.0
M4 S400
G01 Y78.95 F800.0
M5
G00 X51.26 Y78.95 F1500.0
M4 S400
G01 Y79.46 F800.0
M5
G00 X51.06 Y79.46 F1500.0
M4 S400
G01 Y78.95 F800.0
M5
G00 X50.86 Y78.95 F1500.0
M4 S400
G01 Y79.46 F800.0
M5
G00 X50.66 Y79.46 F1500.0
M4 S400
G01 Y78.95 F800.0
M5
G00 X50.46 Y78.95 F1500.0
M4 S400
G01 Y79.46 F800.0
M5
G00 X50.46 Y80.55 F1500.0
M4 S400
G01 Y81.05 F800.0
M5
G00 X50.66 Y81.05 F1500.0
M4 S400
G01 Y80.55 F800.0
M5
G00 X50.86 Y80.55 F1500.0
M4 S400
G01 Y81.05 F800.0
M5
G00 X51.06 Y81.05 F1500.0
M4 S400
G01 Y80.55 F800.0
M5
G00 X51.26 Y80.55 F1500.0
M4 S400
G01 Y81.05 F800.0
M5
G00 X51.46 Y81.05 F1500.0
M4 S400
G01 Y80.55 F800.0
M5
G00 X51.66 Y80.55 F1500.0
M4 S400
G01 Y81.05 F800.0
M5
G00 X51.86 Y81.05 F1500.0
M4 S400
G01 Y80.55 F800.0
M5
G00 X52.06 Y80.55 F1500.0
M4 S400
G01 Y81.05 F800.0
M5
M5
;END infill

; START infill strategy
G01 F800.0
G00 X46.36 Y80.18 F1500.0
M4 S400
G01 Y79.95 F800.0
M5
G00 X46.56 Y79.45 F1500.0
M4 S400
G01 Y80.65 F800.0
M5
G00 X46.76 Y80.85 F1500.0
M4 S400
G01 Y79.26 F800.0
M5
G00 X46.96 Y79.12 F1500.0
M4 S400
G01 Y80.97 F800.0
M5
G00 X47.16 Y81.05 F1500.0
M4 S400
G01 Y80.45 F800.0
M5
G00 X47.36 Y80.52 F1500.0
M4 S400
G01 Y81.08 F800.0
M5
G00 X47.56 Y81.11 F1500.0
M4 S400
G01 Y80.59 F800.0
M5
G00 X47.76 Y80.55 F1500.0
M4 S400
G01 Y81.08 F800.0
M5
G00 X47.96 Y81.03 F1500.0
M4 S400
G01 Y80.49 F800.0
M5
G00 X48.16 Y80.29 F1500.0
M4 S400
G01 Y80.97 F800.0
M5
G00 X48.36 Y80.92 F1500.0
M4 S400
G01 Y80.02 F800.0
M5
G00 X48.56 Y80.08 F1500.0
M4 S400
G01 Y80.75 F800.0
M5
G00 X48.76 Y80.45 F1500.0
M4 S400
G01 Y80.15 F800.0
M5
G00 X48.76 Y78.98 F1500.0
M4 S400
G01 Y77.64 F800.0
M5
G00 X48.56 Y77.46 F1500.0
M4 S400
G01 Y79.17 F800.0
M5
G00 X48.36 Y79.27 F1500.0
M4 S400
G01 Y77.34 F800.0
M5
G00 X48.16 Y77.25 F1500.0
M4 S400
G01 Y77.88 F800.0
M5
G00 X47.96 Y77.79 F1500.0
M4 S400
G01 Y77.22 F800.0
M5
G00 X47.76 Y77.2 F1500.0
M4 S400
G01 Y77.73 F800.0
M5
G00 X47.56 Y77.72 F1500.0
M4 S400
G01 Y77.18 F800.0
M5
G00 X47.36 Y77.21 F1500.0
M4 S400
G01 Y77.78 F800.0
M5
G00 X47.16 Y77.85 F1500.0
M4 S400
G01 Y77.23 F800.0
M5
G00 X46.96 Y77.3 F1500.0
M4 S400
G01 Y78.09 F800.0
M5
G00 X46.76 Y78.39 F1500.0
M4 S400
G01 Y77.39 F800.0
M5
G00 X46.56 Y77.55 F1500.0
M4 S400
G01 Y78.34 F800.0
M5
G00 X46.36 Y78.29 F1500.0
M4 S400
G01 Y77.77 F800.0
M5
G00 X47.16 Y79.04 F1500.0
M4 S400
G01 Y79.83 F800.0
M5
G00 X47.36 Y79.71 F1500.0
M4 S400
G01 Y78.97 F800.0
M5
G00 X47.56 Y78.89 F1500.0
M4 S400
G01 Y79.62 F800.0
M5
G00 X47.76 Y79.53 F1500.0
M4 S400
G01 Y78.79 F800.0
M5
G00 X47.96 Y78.68 F1500.0
M4 S400
G01 Y79.44 F800.0
M5
G00 X48.16 Y79.36 F1500.0
M4 S400
G01 Y78.58 F800.0
M5
G00 X48.96 Y78.61 F1500.0
M4 S400
G01 Y77.96 F800.0
M5
M5
;END infill

; START infill strategy
G01 F800.0
G00 X43.13 Y81.05 F1500.0
M4 S400
G01 Y77.66 F800.0
M5
G00 X43.33 Y77.49 F1500.0
M4 S400
G01 Y81.05 F800.0
M5
G00 X43.53 Y81.05 F1500.0
M4 S400
G01 Y77.32 F800.0
M5
G00 X43.73 Y77.27 F1500.0
M4 S400
G01 Y78.0 F800.0
M5
G00 X43.93 Y77.79 F1500.0
M4 S400
G01 Y77.23 F800.0
M5
G00 X44.13 Y77.2 F1500.0
M4 S400
G01 Y77.74 F800.0
M5
G00 X44.33 Y77.7 F1500.0
M4 S400
G01 Y77.19 F800.0
M5
G00 X44.53 Y77.23 F1500.0
M4 S400
G01 Y77.74 F800.0
M5
G00 X44.73 Y77.78 F1500.0
M4 S400
G01 Y77.28 F800.0
M5
G00 X44.93 Y77.33 F1500.0
M4 S400
G01 Y78.02 F800.0
M5
G00 X45.53 Y77.85 F1500.0
M4 S400
G01 Y81.05 F800.0
M5
G00 X45.33 Y81.05 F1500.0
M4 S400
G01 Y77.61 F800.0
M5
G00 X45.13 Y77.37 F1500.0
M4 S400
G01 Y81.05 F800.0
M5
M5
;END infill

; START infill strategy
G01 F800.0
G00 X38.19 Y77.24 F1500.0
M4 S400
G01 Y81.05 F800.0
M5
G00 X38.39 Y81.05 F1500.0
M4 S400
G01 Y77.24 F800.0
M5
G00 X38.59 Y77.24 F1500.0
M4 S400
G01 Y81.05 F800.0
M5
G00 X38.79 Y81.05 F1500.0
M4 S400
G01 Y80.26 F800.0
M5
G00 X38.99 Y79.87 F1500.0
M4 S400
G01 Y81.05 F800.0
M5
G00 X39.19 Y80.7 F1500.0
M4 S400
G01 Y79.48 F800.0
M5
G00 X39.39 Y79.09 F1500.0
M4 S400
G01 Y80.31 F800.0
M5
G00 X39.59 Y79.91 F1500.0
M4 S400
G01 Y78.7 F800.0
M5
G00 X39.79 Y78.31 F1500.0
M4 S400
G01 Y79.52 F800.0
M5
G00 X39.99 Y79.12 F1500.0
M4 S400
G01 Y77.92 F800.0
M5
G00 X40.19 Y77.53 F1500.0
M4 S400
G01 Y78.73 F800.0
M5
G00 X40.39 Y78.33 F1500.0
M4 S400
G01 Y77.24 F800.0
M5
G00 X40.59 Y77.24 F1500.0
M4 S400
G01 Y81.05 F800.0
M5
G00 X40.79 Y81.05 F1500.0
M4 S400
G01 Y77.24 F800.0
M5
M5
;END infill

; START infill strategy
G01 F800.0
G00 X36.71 Y77.24 F1500.0
M4 S400
G01 Y81.05 F800.0
M5
G00 X36.91 Y81.05 F1500.0
M4 S400
G01 Y77.24 F800.0
M5
G00 X37.11 Y77.24 F1500.0
M4 S400
G01 Y81.05 F800.0
M5
G00 X37.31 Y81.05 F1500.0
M4 S400
G01 Y77.24 F800.0
M5
M5
;END infill

; START infill strategy
G01 F800.0
G00 X32.18 Y77.24 F1500.0
M4 S400
G01 Y81.05 F800.0
M5
G00 X32.38 Y81.05 F1500.0
M4 S400
G01 Y77.24 F800.0
M5
G00 X32.58 Y77.24 F1500.0
M4 S400
G01 Y81.05 F800.0
M5
G00 X32.78 Y81.05 F1500.0
M4 S400
G01 Y77.24 F800.0
M5
G00 X34.18 Y77.28 F1500.0
M4 S400
G01 Y78.9 F800.0
M5
G00 X34.18 Y78.99 F1500.0
M4 S400
G01 Y80.92 F800.0
M5
G00 X33.98 Y80.99 F1500.0
M4 S400
G01 Y80.3 F800.0
M5
G00 X33.78 Y80.46 F1500.0
M4 S400
G01 Y81.01 F800.0
M5
G00 X33.58 Y81.04 F1500.0
M4 S400
G01 Y80.52 F800.0
M5
G00 X33.38 Y80.56 F1500.0
M4 S400
G01 Y81.05 F800.0
M5
G00 X33.18 Y81.05 F1500.0
M4 S400
G01 Y80.56 F800.0
M5
G00 X32.98 Y80.56 F1500.0
M4 S400
G01 Y81.05 F800.0
M5
G00 X34.38 Y80.81 F1500.0
M4 S400
G01 Y79.15 F800.0
M5
G00 X34.58 Y79.31 F1500.0
M4 S400
G01 Y80.62 F800.0
M5
G00 X33.98 Y79.61 F1500.0
M4 S400
G01 Y77.76 F800.0
M5
G00 X33.78 Y78.24 F1500.0
M4 S400
G01 Y79.45 F800.0
M5
G00 X33.58 Y79.38 F1500.0
M4 S400
G01 Y78.73 F800.0
M5
G00 X33.38 Y78.83 F1500.0
M4 S400
G01 Y79.32 F800.0
M5
G00 X33.18 Y79.32 F1500.0
M4 S400
G01 Y78.83 F800.0
M5
G00 X32.98 Y78.83 F1500.0
M4 S400
G01 Y79.32 F800.0
M5
G00 X34.38 Y78.47 F1500.0
M4 S400
G01 Y77.24 F800.0
M5
G00 X34.58 Y77.24 F1500.0
M4 S400
G01 Y78.04 F800.0
M5
G00 X34.78 Y77.62 F1500.0
M4 S400
G01 Y77.24 F800.0
M5
M5
;END infill

; START infill strategy
G01 F800.0
G00 X29.26 Y77.24 F1500.0
M4 S400
G01 Y81.05 F800.0
M5
G00 X29.46 Y81.05 F1500.0
M4 S400
G01 Y77.24 F800.0
M5
G00 X29.66 Y77.24 F1500.0
M4 S400
G01 Y81.05 F800.0
M5
G00 X29.86 Y81.05 F1500.0
M4 S400
G01 Y77.24 F800.0
M5
G00 X30.06 Y77.24 F1500.0
M4 S400
G01 Y77.76 F800.0
M5
G00 X30.26 Y77.76 F1500.0
M4 S400
G01 Y77.24 F800.0
M5
G00 X30.46 Y77.24 F1500.0
M4 S400
G01 Y77.76 F800.0
M5
G00 X30.66 Y77.76 F1500.0
M4 S400
G01 Y77.24 F800.0
M5
G00 X30.86 Y77.24 F1500.0
M4 S400
G01 Y77.76 F800.0
M5
G00 X31.06 Y77.76 F1500.0
M4 S400
G01 Y77.24 F800.0
M5
G00 X31.26 Y77.24 F1500.0
M4 S400
G01 Y77.76 F800.0
M5
G00 X31.46 Y77.76 F1500.0
M4 S400
G01 Y77.24 F800.0
M5
G00 X31.66 Y77.24 F1500.0
M4 S400
G01 Y77.76 F800.0
M5
G00 X31.26 Y78.95 F1500.0
M4 S400
G01 Y79.46 F800.0
M5
G00 X31.06 Y79.46 F1500.0
M4 S400
G01 Y78.95 F800.0
M5
G00 X30.86 Y78.95 F1500.0
M4 S400
G01 Y79.46 F800.0
M5
G00 X30.66 Y79.46 F1500.0
M4 S400
G01 Y78.95 F800.0
M5
G00 X30.46 Y78.95 F1500.0
M4 S400
G01 Y79.46 F800.0
M5
G00 X30.26 Y79.46 F1500.0
M4 S400
G01 Y78.95 F800.0
M5
G00 X30.06 Y78.95 F1500.0
M4 S400
G01 Y79.46 F800.0
M5
G00 X30.06 Y80.55 F1500.0
M4 S400
G01 Y81.05 F800.0
M5
G00 X30.26 Y81.05 F1500.0
M4 S400
G01 Y80.55 F800.0
M5
G00 X30.46 Y80.55 F1500.0
M4 S400
G01 Y81.05 F800.0
M5
G00 X30.66 Y81.05 F1500.0
M4 S400
G01 Y80.55 F800.0
M5
G00 X30.86 Y80.55 F1500.0
M4 S400
G01 Y81.05 F800.0
M5
G00 X31.06 Y81.05 F1500.0
M4 S400
G01 Y80.55 F800.0
M5
G00 X31.26 Y80.55 F1500.0
M4 S400
G01 Y81.05 F800.0
M5
G00 X31.46 Y81.05 F1500.0
M4 S400
G01 Y80.55 F800.0
M5
G00 X31.66 Y80.55 F1500.0
M4 S400
G01 Y81.05 F800.0
M5
M5
;END infill

; START infill strategy
G01 F800.0
G00 X25.96 Y80.18 F1500.0
M4 S400
G01 Y79.95 F800.0
M5
G00 X26.16 Y79.45 F1500.0
M4 S400
G01 Y80.65 F800.0
M5
G00 X26.36 Y80.85 F1500.0
M4 S400
G01 Y79.26 F800.0
M5
G00 X26.56 Y79.12 F1500.0
M4 S400
G01 Y80.97 F800.0
M5
G00 X26.76 Y81.05 F1500.0
M4 S400
G01 Y80.45 F800.0
M5
G00 X26.96 Y80.52 F1500.0
M4 S400
G01 Y81.08 F800.0
M5
G00 X27.16 Y81.11 F1500.0
M4 S400
G01 Y80.59 F800.0
M5
G00 X27.36 Y80.55 F1500.0
M4 S400
G01 Y81.08 F800.0
M5
G00 X27.56 Y81.03 F1500.0
M4 S400
G01 Y80.49 F800.0
M5
G00 X27.76 Y80.29 F1500.0
M4 S400
G01 Y80.97 F800.0
M5
G00 X27.96 Y80.92 F1500.0
M4 S400
G01 Y80.02 F800.0
M5
G00 X28.16 Y80.08 F1500.0
M4 S400
G01 Y80.75 F800.0
M5
G00 X28.36 Y80.45 F1500.0
M4 S400
G01 Y80.15 F800.0
M5
G00 X28.36 Y78.98 F1500.0
M4 S400
G01 Y77.64 F800.0
M5
G00 X28.16 Y77.46 F1500.0
M4 S400
G01 Y79.17 F800.0
M5
G00 X27.96 Y79.27 F1500.0
M4 S400
G01 Y77.34 F800.0
M5
G00 X27.76 Y77.25 F1500.0
M4 S400
G01 Y77.88 F800.0
M5
G00 X27.56 Y77.79 F1500.0
M4 S400
G01 Y77.22 F800.0
M5
G00 X27.36 Y77.2 F1500.0
M4 S400
G01 Y77.73 F800.0
M5
G00 X27.16 Y77.72 F1500.0
M4 S400
G01 Y77.18 F800.0
M5
G00 X26.96 Y77.21 F1500.0
M4 S400
G01 Y77.78 F800.0
M5
G00 X26.76 Y77.85 F1500.0
M4 S400
G01 Y77.23 F800.0
M5
G00 X26.56 Y77.3 F1500.0
M4 S400
G01 Y78.09 F800.0
M5
G00 X26.36 Y78.39 F1500.0
M4 S400
G01 Y77.39 F800.0
M5
G00 X26.16 Y77.55 F1500.0
M4 S400
G01 Y78.34 F800.0
M5
G00 X25.96 Y78.29 F1500.0
M4 S400
G01 Y77.77 F800.0
M5
G00 X26.76 Y79.04 F1500.0
M4 S400
G01 Y79.83 F800.0
M5
G00 X26.96 Y79.71 F1500.0
M4 S400
G01 Y78.97 F800.0
M5
G00 X27.16 Y78.89 F1500.0
M4 S400
G01 Y79.62 F800.0
M5
G00 X27.36 Y79.53 F1500.0
M4 S400
G01 Y78.79 F800.0
M5
G00 X27.56 Y78.68 F1500.0
M4 S400
G01 Y79.44 F800.0
M5
G00 X27.76 Y79.36 F1500.0
M4 S400
G01 Y78.58 F800.0
M5
G00 X28.56 Y78.61 F1500.0
M4 S400
G01 Y77.96 F800.0
M5
M5
;END infill

; START infill strategy
G01 F800.0
G00 X22.66 Y77.87 F1500.0
M4 S400
G01 Y77.24 F800.0
M5
G00 X22.86 Y77.24 F1500.0
M4 S400
G01 Y78.49 F800.0
M5
G00 X23.06 Y79.12 F1500.0
M4 S400
G01 Y77.24 F800.0
M5
G00 X23.26 Y77.73 F1500.0
M4 S400
G01 Y79.74 F800.0
M5
G00 X23.86 Y79.91 F1500.0
M4 S400
G01 Y81.05 F800.0
M5
G00 X24.06 Y81.05 F1500.0
M4 S400
G01 Y80.23 F800.0
M5
G00 X23.46 Y80.36 F1500.0
M4 S400
G01 Y78.2 F800.0
M5
G00 X23.66 Y78.2 F1500.0
M4 S400
G01 Y78.69 F800.0
M5
G00 X23.86 Y78.69 F1500.0
M4 S400
G01 Y78.2 F800.0
M5
G00 X24.06 Y78.2 F1500.0
M4 S400
G01 Y78.69 F800.0
M5
G00 X24.26 Y78.69 F1500.0
M4 S400
G01 Y78.2 F800.0
M5
G00 X24.46 Y78.2 F1500.0
M4 S400
G01 Y78.69 F800.0
M5
G00 X24.46 Y78.78 F1500.0
M4 S400
G01 Y81.05 F800.0
M5
G00 X24.26 Y81.05 F1500.0
M4 S400
G01 Y79.51 F800.0
M5
G00 X24.86 Y79.72 F1500.0
M4 S400
G01 Y77.35 F800.0
M5
G00 X25.06 Y77.24 F1500.0
M4 S400
G01 Y79.05 F800.0
M5
G00 X25.26 Y78.38 F1500.0
M4 S400
G01 Y77.24 F800.0
M5
G00 X25.46 Y77.24 F1500.0
M4 S400
G01 Y77.71 F800.0
M5
G00 X24.66 Y78.07 F1500.0
M4 S400
G01 Y80.4 F800.0
M5
G00 X23.66 Y80.98 F1500.0
M4 S400
G01 Y79.18 F800.0
M5
M5
;END infill

; START infill strategy
G01 F800.0
G00 X20.3 Y77.24 F1500.0
M4 S400
G01 Y81.05 F800.0
M5
G00 X20.5 Y81.05 F1500.0
M4 S400
G01 Y77.24 F800.0
M5
G00 X20.69 Y77.24 F1500.0
M4 S400
G01 Y81.05 F800.0
M5
G00 X20.9 Y81.05 F1500.0
M4 S400
G01 Y77.24 F800.0
M5
G00 X21.09 Y77.24 F1500.0
M4 S400
G01 Y77.78 F800.0
M5
G00 X21.3 Y77.78 F1500.0
M4 S400
G01 Y77.24 F800.0
M5
G00 X21.5 Y77.24 F1500.0
M4 S400
G01 Y77.78 F800.0
M5
G00 X21.69 Y77.78 F1500.0
M4 S400
G01 Y77.24 F800.0
M5
G00 X21.9 Y77.24 F1500.0
M4 S400
G01 Y77.78 F800.0
M5
G00 X22.09 Y77.78 F1500.0
M4 S400
G01 Y77.24 F800.0
M5
G00 X22.3 Y77.24 F1500.0
M4 S400
G01 Y77.78 F800.0
M5
M5
;END infill

; START infill strategy
G01 F800.0
G00 X48.71 Y81.86 F1500.0
M4 S400
G01 Y86.26 F800.0
M5
G00 X48.91 Y86.26 F1500.0
M4 S400
G01 Y81.86 F800.0
M5
G00 X49.11 Y81.86 F1500.0
M4 S400
G01 Y86.26 F800.0
M5
G00 X49.31 Y86.26 F1500.0
M4 S400
G01 Y81.86 F800.0
M5
G00 X49.51 Y81.86 F1500.0
M4 S400
G01 Y84.54 F800.0
M5
G00 X49.51 Y84.81 F1500.0
M4 S400
G01 Y86.26 F800.0
M5
G00 X49.71 Y86.26 F1500.0
M4 S400
G01 Y84.46 F800.0
M5
G00 X49.91 Y84.12 F1500.0
M4 S400
G01 Y86.11 F800.0
M5
G00 X50.11 Y85.77 F1500.0
M4 S400
G01 Y83.77 F800.0
M5
G00 X50.31 Y83.43 F1500.0
M4 S400
G01 Y85.42 F800.0
M5
G00 X50.51 Y85.07 F1500.0
M4 S400
G01 Y83.08 F800.0
M5
G00 X50.71 Y82.74 F1500.0
M4 S400
G01 Y84.73 F800.0
M5
G00 X50.91 Y84.38 F1500.0
M4 S400
G01 Y82.39 F800.0
M5
G00 X51.11 Y82.05 F1500.0
M4 S400
G01 Y84.04 F800.0
M5
G00 X51.31 Y83.88 F1500.0
M4 S400
G01 Y86.26 F800.0
M5
G00 X51.51 Y86.26 F1500.0
M4 S400
G01 Y81.86 F800.0
M5
G00 X51.31 Y81.86 F1500.0
M4 S400
G01 Y83.69 F800.0
M5
G00 X51.71 Y81.86 F1500.0
M4 S400
G01 Y86.26 F800.0
M5
G00 X51.91 Y86.26 F1500.0
M4 S400
G01 Y81.86 F800.0
M5
M5
;END infill

; START infill strategy
G01 F800.0
G00 X44.48 Y85.11 F1500.0
M4 S400
G01 Y83.04 F800.0
M5
G00 X44.68 Y82.63 F1500.0
M4 S400
G01 Y85.5 F800.0
M5
G00 X44.88 Y85.77 F1500.0
M4 S400
G01 Y82.36 F800.0
M5
G00 X45.08 Y82.19 F1500.0
M4 S400
G01 Y85.93 F800.0
M5
G00 X45.28 Y86.1 F1500.0
M4 S400
G01 Y82.02 F800.0
M5
G00 X45.48 Y81.93 F1500.0
M4 S400
G01 Y83.43 F800.0
M5
G00 X45.68 Y82.87 F1500.0
M4 S400
G01 Y81.89 F800.0
M5
G00 X45.88 Y81.85 F1500.0
M4 S400
G01 Y82.71 F800.0
M5
G00 X46.08 Y82.66 F1500.0
M4 S400
G01 Y81.8 F800.0
M5
G00 X46.28 Y81.82 F1500.0
M4 S400
G01 Y82.66 F800.0
M5
G00 X46.48 Y82.71 F1500.0
M4 S400
G01 Y81.86 F800.0
M5
G00 X46.68 Y81.9 F1500.0
M4 S400
G01 Y82.9 F800.0
M5
G00 X46.88 Y83.61 F1500.0
M4 S400
G01 Y81.94 F800.0
M5
G00 X47.08 Y82.05 F1500.0
M4 S400
G01 Y86.08 F800.0
M5
G00 X46.88 Y86.18 F1500.0
M4 S400
G01 Y84.51 F800.0
M5
G00 X46.68 Y85.22 F1500.0
M4 S400
G01 Y86.23 F800.0
M5
G00 X46.48 Y86.27 F1500.0
M4 S400
G01 Y85.41 F800.0
M5
G00 X46.28 Y85.46 F1500.0
M4 S400
G01 Y86.31 F800.0
M5
G00 X46.08 Y86.31 F1500.0
M4 S400
G01 Y85.47 F800.0
M5
G00 X45.88 Y85.42 F1500.0
M4 S400
G01 Y86.27 F800.0
M5
G00 X45.68 Y86.23 F1500.0
M4 S400
G01 Y85.26 F800.0
M5
G00 X45.48 Y84.69 F1500.0
M4 S400
G01 Y86.19 F800.0
M5
G00 X47.28 Y85.9 F1500.0
M4 S400
G01 Y82.22 F800.0
M5
G00 X47.48 Y82.38 F1500.0
M4 S400
G01 Y85.72 F800.0
M5
G00 X47.68 Y85.42 F1500.0
M4 S400
G01 Y82.69 F800.0
M5
G00 X47.88 Y83.1 F1500.0
M4 S400
G01 Y85.0 F800.0
M5
M5
;END infill

; START infill strategy
G01 F800.0
G00 X42.57 Y81.86 F1500.0
M4 S400
G01 Y86.26 F800.0
M5
G00 X42.77 Y86.26 F1500.0
M4 S400
G01 Y81.86 F800.0
M5
G00 X42.97 Y81.86 F1500.0
M4 S400
G01 Y86.26 F800.0
M5
G00 X43.17 Y86.26 F1500.0
M4 S400
G01 Y81.86 F800.0
M5
G00 X43.37 Y81.86 F1500.0
M4 S400
G01 Y86.26 F800.0
M5
G00 X43.57 Y86.26 F1500.0
M4 S400
G01 Y81.86 F800.0
M5
M5
;END infill

; START infill strategy
G01 F800.0
G00 X39.1 Y86.26 F1500.0
M4 S400
G01 Y85.39 F800.0
M5
G00 X39.3 Y85.39 F1500.0
M4 S400
G01 Y86.26 F800.0
M5
G00 X39.5 Y86.26 F1500.0
M4 S400
G01 Y85.39 F800.0
M5
G00 X39.7 Y85.39 F1500.0
M4 S400
G01 Y86.26 F800.0
M5
G00 X39.9 Y86.26 F1500.0
M4 S400
G01 Y85.39 F800.0
M5
G00 X40.1 Y86.26 F1500.0
M4 S400
G01 Y81.86 F800.0
M5
G00 X40.3 Y81.86 F1500.0
M4 S400
G01 Y86.26 F800.0
M5
G00 X40.5 Y86.26 F1500.0
M4 S400
G01 Y81.86 F800.0
M5
G00 X40.7 Y81.86 F1500.0
M4 S400
G01 Y86.26 F800.0
M5
G00 X40.9 Y86.26 F1500.0
M4 S400
G01 Y81.86 F800.0
M5
G00 X41.1 Y85.39 F1500.0
M4 S400
G01 Y86.26 F800.0
M5
G00 X41.3 Y86.26 F1500.0
M4 S400
G01 Y85.39 F800.0
M5
G00 X41.5 Y85.39 F1500.0
M4 S400
G01 Y86.26 F800.0
M5
G00 X41.7 Y86.26 F1500.0
M4 S400
G01 Y85.39 F800.0
M5
G00 X41.9 Y85.39 F1500.0
M4 S400
G01 Y86.26 F800.0
M5
G00 X42.1 Y86.26 F1500.0
M4 S400
G01 Y85.39 F800.0
M5
M5
;END infill

; START infill strategy
G01 F800.0
G00 X35.2 Y86.26 F1500.0
M4 S400
G01 Y82.5 F800.0
M5
G00 X35.4 Y82.31 F1500.0
M4 S400
G01 Y86.26 F800.0
M5
G00 X35.6 Y86.26 F1500.0
M4 S400
G01 Y82.12 F800.0
M5
G00 X35.8 Y81.97 F1500.0
M4 S400
G01 Y86.26 F800.0
M5
G00 X36. Y86.26 F1500.0
M4 S400
G01 Y81.93 F800.0
M5
G00 X36.2 Y81.89 F1500.0
M4 S400
G01 Y82.97 F800.0
M5
G00 X36.4 Y82.75 F1500.0
M4 S400
G01 Y81.86 F800.0
M5
G00 X36.6 Y81.82 F1500.0
M4 S400
G01 Y82.69 F800.0
M5
G00 X36.8 Y82.65 F1500.0
M4 S400
G01 Y81.8 F800.0
M5
G00 X37. Y81.84 F1500.0
M4 S400
G01 Y82.66 F800.0
M5
G00 X37.2 Y82.7 F1500.0
M4 S400
G01 Y81.88 F800.0
M5
G00 X37.4 Y81.92 F1500.0
M4 S400
G01 Y82.8 F800.0
M5
G00 X37.6 Y83.23 F1500.0
M4 S400
G01 Y81.96 F800.0
M5
G00 X37.8 Y82. F1500.0
M4 S400
G01 Y86.26 F800.0
M5
G00 X38. Y86.26 F1500.0
M4 S400
G01 Y82.18 F800.0
M5
G00 X38.2 Y82.37 F1500.0
M4 S400
G01 Y86.26 F800.0
M5
G00 X38.4 Y86.26 F1500.0
M4 S400
G01 Y82.75 F800.0
M5
M5
;END infill

; START infill strategy
G01 F800.0
G00 X30.9 Y82.49 F1500.0
M4 S400
G01 Y81.86 F800.0
M5
G00 X31.1 Y81.86 F1500.0
M4 S400
G01 Y83.11 F800.0
M5
G00 X31.3 Y83.73 F1500.0
M4 S400
G01 Y81.86 F800.0
M5
G00 X31.5 Y81.86 F1500.0
M4 S400
G01 Y84.36 F800.0
M5
G00 X31.7 Y84.98 F1500.0
M4 S400
G01 Y82.17 F800.0
M5
G00 X31.9 Y82.76 F1500.0
M4 S400
G01 Y85.61 F800.0
M5
G00 X32.1 Y86.23 F1500.0
M4 S400
G01 Y82.76 F800.0
M5
G00 X32.3 Y82.76 F1500.0
M4 S400
G01 Y83.58 F800.0
M5
G00 X32.5 Y83.58 F1500.0
M4 S400
G01 Y82.76 F800.0
M5
G00 X32.7 Y82.76 F1500.0
M4 S400
G01 Y83.58 F800.0
M5
G00 X32.9 Y83.58 F1500.0
M4 S400
G01 Y82.76 F800.0
M5
G00 X33.1 Y82.76 F1500.0
M4 S400
G01 Y86.26 F800.0
M5
G00 X33.3 Y86.26 F1500.0
M4 S400
G01 Y82.76 F800.0
M5
G00 X33.5 Y82.11 F1500.0
M4 S400
G01 Y85.65 F800.0
M5
G00 X33.7 Y85.01 F1500.0
M4 S400
G01 Y81.86 F800.0
M5
G00 X33.9 Y81.86 F1500.0
M4 S400
G01 Y84.37 F800.0
M5
G00 X34.1 Y83.73 F1500.0
M4 S400
G01 Y81.86 F800.0
M5
G00 X34.3 Y81.86 F1500.0
M4 S400
G01 Y83.09 F800.0
M5
G00 X34.5 Y82.45 F1500.0
M4 S400
G01 Y81.86 F800.0
M5
G00 X32.9 Y84.13 F1500.0
M4 S400
G01 Y86.26 F800.0
M5
G00 X32.7 Y86.26 F1500.0
M4 S400
G01 Y84.79 F800.0
M5
G00 X32.5 Y84.8 F1500.0
M4 S400
G01 Y86.26 F800.0
M5
G00 X32.3 Y86.26 F1500.0
M4 S400
G01 Y84.14 F800.0
M5
M5
;END infill

; START infill strategy
G01 F800.0
G00 X27.03 Y85.1 F1500.0
M4 S400
G01 Y83.0 F800.0
M5
G00 X27.23 Y82.65 F1500.0
M4 S400
G01 Y85.46 F800.0
M5
G00 X27.43 Y85.75 F1500.0
M4 S400
G01 Y82.35 F800.0
M5
G00 X27.63 Y82.21 F1500.0
M4 S400
G01 Y85.9 F800.0
M5
G00 X27.83 Y86.06 F1500.0
M4 S400
G01 Y82.07 F800.0
M5
G00 X28.03 Y81.94 F1500.0
M4 S400
G01 Y83.4 F800.0
M5
G00 X28.23 Y82.9 F1500.0
M4 S400
G01 Y81.9 F800.0
M5
G00 X28.43 Y81.86 F1500.0
M4 S400
G01 Y82.73 F800.0
M5
G00 X28.63 Y82.67 F1500.0
M4 S400
G01 Y81.82 F800.0
M5
G00 X28.83 Y81.79 F1500.0
M4 S400
G01 Y82.64 F800.0
M5
G00 X29.03 Y82.72 F1500.0
M4 S400
G01 Y81.83 F800.0
M5
G00 X29.23 Y81.86 F1500.0
M4 S400
G01 Y82.8 F800.0
M5
G00 X29.43 Y83.08 F1500.0
M4 S400
G01 Y81.89 F800.0
M5
G00 X29.63 Y81.99 F1500.0
M4 S400
G01 Y83.46 F800.0
M5
G00 X29.83 Y83.45 F1500.0
M4 S400
G01 Y82.1 F800.0
M5
G00 X30.03 Y82.24 F1500.0
M4 S400
G01 Y83.44 F800.0
M5
G00 X30.23 Y83.43 F1500.0
M4 S400
G01 Y82.49 F800.0
M5
G00 X30.43 Y82.82 F1500.0
M4 S400
G01 Y83.41 F800.0
M5
G00 X30.43 Y84.61 F1500.0
M4 S400
G01 Y85.28 F800.0
M5
G00 X30.23 Y85.63 F1500.0
M4 S400
G01 Y84.6 F800.0
M5
G00 X30.03 Y84.59 F1500.0
M4 S400
G01 Y85.92 F800.0
M5
G00 X29.83 Y86.04 F1500.0
M4 S400
G01 Y84.58 F800.0
M5
G00 X29.63 Y84.56 F1500.0
M4 S400
G01 Y86.16 F800.0
M5
G00 X29.43 Y86.24 F1500.0
M4 S400
G01 Y84.85 F800.0
M5
G00 X29.23 Y85.3 F1500.0
M4 S400
G01 Y86.27 F800.0
M5
G00 X29.03 Y86.3 F1500.0
M4 S400
G01 Y85.38 F800.0
M5
G00 X28.83 Y85.47 F1500.0
M4 S400
G01 Y86.33 F800.0
M5
G00 X28.63 Y86.3 F1500.0
M4 S400
G01 Y85.45 F800.0
M5
G00 X28.43 Y85.4 F1500.0
M4 S400
G01 Y86.26 F800.0
M5
G00 X28.23 Y86.22 F1500.0
M4 S400
G01 Y85.18 F800.0
M5
G00 X28.03 Y84.33 F1500.0
M4 S400
G01 Y86.18 F800.0
M5
M5
;END infill

; START infill strategy
G01 F800.0
G00 X22.9 Y82.83 F1500.0
M4 S400
G01 Y82.62 F800.0
M5
G00 X22.9 Y82.48 F1500.0
M4 S400
G01 Y82.28 F800.0
M5
M5
;END infill

; START infill strategy
G01 F800.0
G00 X22.96 Y82.79 F1500.0
M4 S400
G01 Y82.32 F800.0
M5
G00 X23.16 Y82.37 F1500.0
M4 S400
G01 Y82.74 F800.0
M5
M5
;END infill

; START infill strategy
G01 F800.0
G00 X23.14 Y83. F1500.0
M4 S400
G01 Y84.8 F800.0
M5
M5
;END infill

; START infill strategy
G01 F800.0
G00 X23.01 Y84.91 F1500.0
M4 S400
G01 Y83.07 F800.0
M5
M5
;END infill

; START infill strategy
G01 F800.0
G00 X20.55 Y82.59 F1500.0
M4 S400
G01 Y82.32 F800.0
M5
G00 X20.55 Y82.19 F1500.0
M4 S400
G01 Y81.91 F800.0
M5
G00 X20.75 Y82.27 F1500.0
M4 S400
G01 Y82.54 F800.0
M5
G00 X20.75 Y82.66 F1500.0
M4 S400
G01 Y82.93 F800.0
M5
G00 X20.95 Y82.88 F1500.0
M4 S400
G01 Y82.61 F800.0
M5
G00 X20.95 Y83.01 F1500.0
M4 S400
G01 Y83.28 F800.0
M5
G00 X21.15 Y83.23 F1500.0
M4 S400
G01 Y82.96 F800.0
M5
G00 X21.15 Y83.35 F1500.0
M4 S400
G01 Y83.63 F800.0
M5
G00 X21.35 Y83.58 F1500.0
M4 S400
G01 Y83.3 F800.0
M5
G00 X21.35 Y83.7 F1500.0
M4 S400
G01 Y83.97 F800.0
M5
G00 X21.55 Y83.92 F1500.0
M4 S400
G01 Y83.65 F800.0
M5
G00 X21.55 Y84.05 F1500.0
M4 S400
G01 Y84.32 F800.0
M5
G00 X21.75 Y84.27 F1500.0
M4 S400
G01 Y84.0 F800.0
M5
G00 X21.75 Y84.39 F1500.0
M4 S400
G01 Y84.67 F800.0
M5
G00 X21.95 Y84.62 F1500.0
M4 S400
G01 Y84.34 F800.0
M5
G00 X21.95 Y84.74 F1500.0
M4 S400
G01 Y85.01 F800.0
M5
G00 X22.15 Y84.96 F1500.0
M4 S400
G01 Y84.69 F800.0
M5
G00 X22.15 Y85.09 F1500.0
M4 S400
G01 Y85.36 F800.0
M5
G00 X22.35 Y85.31 F1500.0
M4 S400
G01 Y85.04 F800.0
M5
G00 X22.35 Y85.43 F1500.0
M4 S400
G01 Y85.71 F800.0
M5
G00 X22.55 Y85.66 F1500.0
M4 S400
G01 Y85.38 F800.0
M5
G00 X22.55 Y85.78 F1500.0
M4 S400
G01 Y86.05 F800.0
M5
G00 X22.75 Y86. F1500.0
M4 S400
G01 Y85.73 F800.0
M5
G00 X22.75 Y86.13 F1500.0
M4 S400
G01 Y86.33 F800.0
M5
G00 X23.35 Y86.32 F1500.0
M4 S400
G01 Y86.11 F800.0
M5
G00 X23.35 Y85.99 F1500.0
M4 S400
G01 Y85.71 F800.0
M5
G00 X23.55 Y85.76 F1500.0
M4 S400
G01 Y86.03 F800.0
M5
G00 X23.55 Y85.64 F1500.0
M4 S400
G01 Y85.37 F800.0
M5
G00 X23.75 Y85.42 F1500.0
M4 S400
G01 Y85.69 F800.0
M5
G00 X23.75 Y85.29 F1500.0
M4 S400
G01 Y85.02 F800.0
M5
G00 X23.95 Y85.07 F1500.0
M4 S400
G01 Y85.34 F800.0
M5
G00 X23.95 Y84.95 F1500.0
M4 S400
G01 Y84.67 F800.0
M5
G00 X24.15 Y84.72 F1500.0
M4 S400
G01 Y85.0 F800.0
M5
G00 X24.15 Y84.6 F1500.0
M4 S400
G01 Y84.33 F800.0
M5
G00 X24.35 Y84.38 F1500.0
M4 S400
G01 Y84.65 F800.0
M5
G00 X24.35 Y84.25 F1500.0
M4 S400
G01 Y83.98 F800.0
M5
G00 X24.55 Y84.03 F1500.0
M4 S400
G01 Y84.3 F800.0
M5
G00 X24.55 Y83.91 F1500.0
M4 S400
G01 Y83.64 F800.0
M5
G00 X24.75 Y83.68 F1500.0
M4 S400
G01 Y83.96 F800.0
M5
G00 X24.75 Y83.56 F1500.0
M4 S400
G01 Y83.29 F800.0
M5
G00 X24.95 Y83.34 F1500.0
M4 S400
G01 Y83.61 F800.0
M5
G00 X24.95 Y83.21 F1500.0
M4 S400
G01 Y82.94 F800.0
M5
G00 X25.15 Y82.99 F1500.0
M4 S400
G01 Y83.26 F800.0
M5
G00 X25.15 Y82.87 F1500.0
M4 S400
G01 Y82.6 F800.0
M5
G00 X25.35 Y82.65 F1500.0
M4 S400
G01 Y82.92 F800.0
M5
G00 X25.35 Y82.52 F1500.0
M4 S400
G01 Y82.25 F800.0
M5
G00 X25.55 Y82.3 F1500.0
M4 S400
G01 Y82.57 F800.0
M5
G00 X25.75 Y82.19 F1500.0
M4 S400
G01 Y81.92 F800.0
M5
M5
;END infill

; START infill strategy
G01 F800.0
G00 X20.61 Y82.55 F1500.0
M4 S400
G01 Y82.16 F800.0
M5
G00 X20.81 Y82.5 F1500.0
M4 S400
G01 Y82.9 F800.0
M5
G00 X21.01 Y82.85 F1500.0
M4 S400
G01 Y83.25 F800.0
M5
G00 X21.21 Y83.2 F1500.0
M4 S400
G01 Y83.59 F800.0
M5
G00 X21.41 Y83.54 F1500.0
M4 S400
G01 Y83.94 F800.0
M5
G00 X21.61 Y83.89 F1500.0
M4 S400
G01 Y84.29 F800.0
M5
G00 X21.81 Y84.24 F1500.0
M4 S400
G01 Y84.63 F800.0
M5
G00 X22.01 Y84.58 F1500.0
M4 S400
G01 Y84.98 F800.0
M5
G00 X22.21 Y84.93 F1500.0
M4 S400
G01 Y85.32 F800.0
M5
G00 X22.41 Y85.27 F1500.0
M4 S400
G01 Y85.67 F800.0
M5
G00 X22.61 Y85.62 F1500.0
M4 S400
G01 Y86.02 F800.0
M5
G00 X22.81 Y85.97 F1500.0
M4 S400
G01 Y86.29 F800.0
M5
G00 X23.21 Y86.34 F1500.0
M4 S400
G01 Y86.09 F800.0
M5
G00 X23.41 Y86.14 F1500.0
M4 S400
G01 Y85.75 F800.0
M5
G00 X23.61 Y85.8 F1500.0
M4 S400
G01 Y85.4 F800.0
M5
G00 X23.81 Y85.45 F1500.0
M4 S400
G01 Y85.05 F800.0
M5
G00 X24.01 Y85.1 F1500.0
M4 S400
G01 Y84.71 F800.0
M5
G00 X24.21 Y84.76 F1500.0
M4 S400
G01 Y84.36 F800.0
M5
G00 X24.41 Y84.41 F1500.0
M4 S400
G01 Y84.02 F800.0
M5
G00 X24.61 Y84.06 F1500.0
M4 S400
G01 Y83.67 F800.0
M5
G00 X24.81 Y83.72 F1500.0
M4 S400
G01 Y83.32 F800.0
M5
G00 X25.01 Y83.37 F1500.0
M4 S400
G01 Y82.98 F800.0
M5
G00 X25.21 Y83.03 F1500.0
M4 S400
G01 Y82.63 F800.0
M5
G00 X25.41 Y82.68 F1500.0
M4 S400
G01 Y82.28 F800.0
M5
G00 X25.61 Y82.33 F1500.0
M4 S400
G01 Y81.78 F800.0
M5
G00 X25.41 Y81.7 F1500.0
M4 S400
G01 Y81.91 F800.0
M5
M5
;END infill

; START infill strategy
G01 F800.0
G00 X25.11 Y90.47 F1500.0
M4 S400
G01 Y89.53 F800.0
M5
G00 X25.31 Y89.41 F1500.0
M4 S400
G01 Y90.81 F800.0
M5
G00 X25.51 Y91.16 F1500.0
M4 S400
G01 Y89.41 F800.0
M5
G00 X25.71 Y89.41 F1500.0
M4 S400
G01 Y91.51 F800.0
M5
G00 X25.91 Y91.86 F1500.0
M4 S400
G01 Y89.41 F800.0
M5
G00 X26.11 Y89.41 F1500.0
M4 S400
G01 Y92.21 F800.0
M5
G00 X26.31 Y92.55 F1500.0
M4 S400
G01 Y90.65 F800.0
M5
G00 X26.31 Y90.36 F1500.0
M4 S400
G01 Y89.41 F800.0
M5
G00 X26.51 Y89.41 F1500.0
M4 S400
G01 Y90.36 F800.0
M5
G00 X26.71 Y90.36 F1500.0
M4 S400
G01 Y89.41 F800.0
M5
G00 X26.91 Y89.41 F1500.0
M4 S400
G01 Y90.36 F800.0
M5
G00 X27.11 Y90.36 F1500.0
M4 S400
G01 Y89.41 F800.0
M5
G00 X27.31 Y89.41 F1500.0
M4 S400
G01 Y90.36 F800.0
M5
G00 X27.51 Y90.36 F1500.0
M4 S400
G01 Y89.41 F800.0
M5
G00 X27.71 Y89.41 F1500.0
M4 S400
G01 Y90.36 F800.0
M5
G00 X27.91 Y90.36 F1500.0
M4 S400
G01 Y89.41 F800.0
M5
G00 X28.11 Y89.41 F1500.0
M4 S400
G01 Y90.36 F800.0
M5
G00 X28.31 Y90.36 F1500.0
M4 S400
G01 Y89.41 F800.0
M5
G00 X28.51 Y89.41 F1500.0
M4 S400
G01 Y90.36 F800.0
M5
G00 X28.71 Y90.36 F1500.0
M4 S400
G01 Y89.41 F800.0
M5
G00 X28.91 Y89.41 F1500.0
M4 S400
G01 Y90.36 F800.0
M5
G00 X29.11 Y90.36 F1500.0
M4 S400
G01 Y89.41 F800.0
M5
G00 X29.31 Y89.41 F1500.0
M4 S400
G01 Y90.36 F800.0
M5
G00 X29.51 Y90.36 F1500.0
M4 S400
G01 Y89.41 F800.0
M5
G00 X29.71 Y89.42 F1500.0
M4 S400
G01 Y90.36 F800.0
M5
G00 X29.91 Y90.36 F1500.0
M4 S400
G01 Y89.42 F800.0
M5
G00 X30.11 Y89.42 F1500.0
M4 S400
G01 Y90.36 F800.0
M5
G00 X30.31 Y90.37 F1500.0
M4 S400
G01 Y89.42 F800.0
M5
G00 X30.51 Y89.42 F1500.0
M4 S400
G01 Y90.37 F800.0
M5
G00 X30.71 Y90.37 F1500.0
M4 S400
G01 Y89.42 F800.0
M5
G00 X30.91 Y89.42 F1500.0
M4 S400
G01 Y90.37 F800.0
M5
G00 X31.11 Y90.37 F1500.0
M4 S400
G01 Y89.42 F800.0
M5
G00 X31.31 Y89.42 F1500.0
M4 S400
G01 Y90.37 F800.0
M5
G00 X31.51 Y90.37 F1500.0
M4 S400
G01 Y89.42 F800.0
M5
G00 X31.71 Y89.42 F1500.0
M4 S400
G01 Y90.37 F800.0
M5
G00 X31.91 Y90.37 F1500.0
M4 S400
G01 Y89.42 F800.0
M5
G00 X32.11 Y89.42 F1500.0
M4 S400
G01 Y90.37 F800.0
M5
G00 X32.31 Y90.37 F1500.0
M4 S400
G01 Y89.42 F800.0
M5
G00 X32.51 Y89.42 F1500.0
M4 S400
G01 Y90.37 F800.0
M5
G00 X32.71 Y90.37 F1500.0
M4 S400
G01 Y89.42 F800.0
M5
G00 X32.91 Y89.42 F1500.0
M4 S400
G01 Y90.37 F800.0
M5
G00 X33.11 Y90.37 F1500.0
M4 S400
G01 Y89.42 F800.0
M5
G00 X33.31 Y89.42 F1500.0
M4 S400
G01 Y90.37 F800.0
M5
G00 X33.51 Y90.37 F1500.0
M4 S400
G01 Y89.42 F800.0
M5
G00 X33.71 Y89.42 F1500.0
M4 S400
G01 Y90.37 F800.0
M5
G00 X33.91 Y90.37 F1500.0
M4 S400
G01 Y89.42 F800.0
M5
G00 X34.11 Y89.42 F1500.0
M4 S400
G01 Y90.37 F800.0
M5
G00 X34.31 Y90.37 F1500.0
M4 S400
G01 Y89.42 F800.0
M5
G00 X34.51 Y89.42 F1500.0
M4 S400
G01 Y90.37 F800.0
M5
G00 X34.71 Y90.37 F1500.0
M4 S400
G01 Y89.43 F800.0
M5
G00 X34.91 Y89.43 F1500.0
M4 S400
G01 Y90.37 F800.0
M5
G00 X35.11 Y90.37 F1500.0
M4 S400
G01 Y89.43 F800.0
M5
G00 X35.31 Y89.43 F1500.0
M4 S400
G01 Y90.38 F800.0
M5
G00 X35.51 Y90.38 F1500.0
M4 S400
G01 Y89.43 F800.0
M5
G00 X35.71 Y89.43 F1500.0
M4 S400
G01 Y90.38 F800.0
M5
G00 X35.91 Y90.38 F1500.0
M4 S400
G01 Y89.43 F800.0
M5
G00 X36.11 Y89.43 F1500.0
M4 S400
G01 Y90.38 F800.0
M5
G00 X36.31 Y90.38 F1500.0
M4 S400
G01 Y89.43 F800.0
M5
G00 X36.51 Y89.43 F1500.0
M4 S400
G01 Y90.38 F800.0
M5
G00 X36.71 Y90.38 F1500.0
M4 S400
G01 Y89.43 F800.0
M5
G00 X36.91 Y89.43 F1500.0
M4 S400
G01 Y90.38 F800.0
M5
G00 X37.11 Y90.38 F1500.0
M4 S400
G01 Y89.43 F800.0
M5
G00 X37.31 Y89.43 F1500.0
M4 S400
G01 Y90.38 F800.0
M5
G00 X37.51 Y90.38 F1500.0
M4 S400
G01 Y89.43 F800.0
M5
G00 X37.71 Y89.43 F1500.0
M4 S400
G01 Y90.38 F800.0
M5
G00 X37.91 Y90.38 F1500.0
M4 S400
G01 Y89.43 F800.0
M5
G00 X38.11 Y89.43 F1500.0
M4 S400
G01 Y90.38 F800.0
M5
G00 X38.31 Y90.38 F1500.0
M4 S400
G01 Y89.43 F800.0
M5
G00 X38.51 Y89.43 F1500.0
M4 S400
G01 Y90.38 F800.0
M5
G00 X38.71 Y90.38 F1500.0
M4 S400
G01 Y89.43 F800.0
M5
G00 X38.91 Y89.43 F1500.0
M4 S400
G01 Y90.38 F800.0
M5
G00 X39.11 Y90.38 F1500.0
M4 S400
G01 Y89.43 F800.0
M5
G00 X39.31 Y89.43 F1500.0
M4 S400
G01 Y90.38 F800.0
M5
G00 X39.51 Y90.38 F1500.0
M4 S400
G01 Y89.44 F800.0
M5
G00 X39.71 Y89.44 F1500.0
M4 S400
G01 Y90.38 F800.0
M5
G00 X39.91 Y90.38 F1500.0
M4 S400
G01 Y89.44 F800.0
M5
G00 X40.11 Y89.44 F1500.0
M4 S400
G01 Y90.38 F800.0
M5
G00 X40.31 Y90.39 F1500.0
M4 S400
G01 Y89.44 F800.0
M5
G00 X40.51 Y89.44 F1500.0
M4 S400
G01 Y90.39 F800.0
M5
G00 X40.71 Y90.39 F1500.0
M4 S400
G01 Y89.44 F800.0
M5
G00 X40.91 Y89.44 F1500.0
M4 S400
G01 Y90.39 F800.0
M5
G00 X41.11 Y90.39 F1500.0
M4 S400
G01 Y89.44 F800.0
M5
G00 X41.31 Y89.44 F1500.0
M4 S400
G01 Y90.39 F800.0
M5
G00 X41.51 Y90.39 F1500.0
M4 S400
G01 Y89.44 F800.0
M5
G00 X41.71 Y89.44 F1500.0
M4 S400
G01 Y90.39 F800.0
M5
G00 X41.91 Y90.39 F1500.0
M4 S400
G01 Y89.44 F800.0
M5
G00 X42.11 Y89.44 F1500.0
M4 S400
G01 Y90.39 F800.0
M5
G00 X42.31 Y90.39 F1500.0
M4 S400
G01 Y89.44 F800.0
M5
G00 X42.51 Y89.44 F1500.0
M4 S400
G01 Y90.39 F800.0
M5
G00 X42.71 Y90.39 F1500.0
M4 S400
G01 Y89.44 F800.0
M5
G00 X42.91 Y89.44 F1500.0
M4 S400
G01 Y90.39 F800.0
M5
G00 X43.11 Y90.39 F1500.0
M4 S400
G01 Y89.44 F800.0
M5
G00 X43.31 Y89.44 F1500.0
M4 S400
G01 Y90.39 F800.0
M5
G00 X43.51 Y90.39 F1500.0
M4 S400
G01 Y89.44 F800.0
M5
G00 X43.71 Y89.44 F1500.0
M4 S400
G01 Y90.39 F800.0
M5
G00 X43.91 Y90.39 F1500.0
M4 S400
G01 Y89.44 F800.0
M5
G00 X44.11 Y89.44 F1500.0
M4 S400
G01 Y90.39 F800.0
M5
G00 X44.31 Y90.39 F1500.0
M4 S400
G01 Y89.44 F800.0
M5
G00 X44.51 Y89.45 F1500.0
M4 S400
G01 Y90.39 F800.0
M5
G00 X44.71 Y90.39 F1500.0
M4 S400
G01 Y89.45 F800.0
M5
G00 X44.91 Y89.45 F1500.0
M4 S400
G01 Y90.39 F800.0
M5
G00 X45.11 Y90.4 F1500.0
M4 S400
G01 Y89.45 F800.0
M5
G00 X45.31 Y89.45 F1500.0
M4 S400
G01 Y90.4 F800.0
M5
G00 X45.51 Y90.4 F1500.0
M4 S400
G01 Y89.45 F800.0
M5
G00 X45.71 Y89.45 F1500.0
M4 S400
G01 Y90.4 F800.0
M5
G00 X45.91 Y90.4 F1500.0
M4 S400
G01 Y89.45 F800.0
M5
G00 X46.11 Y89.45 F1500.0
M4 S400
G01 Y90.4 F800.0
M5
G00 X46.11 Y90.64 F1500.0
M4 S400
G01 Y92.53 F800.0
M5
G00 X45.91 Y92.88 F1500.0
M4 S400
G01 Y90.98 F800.0
M5
G00 X45.71 Y91.33 F1500.0
M4 S400
G01 Y93.22 F800.0
M5
G00 X45.51 Y93.57 F1500.0
M4 S400
G01 Y91.67 F800.0
M5
G00 X45.31 Y92.02 F1500.0
M4 S400
G01 Y93.91 F800.0
M5
G00 X45.11 Y94.25 F1500.0
M4 S400
G01 Y92.36 F800.0
M5
G00 X44.91 Y92.71 F1500.0
M4 S400
G01 Y94.6 F800.0
M5
G00 X44.71 Y94.94 F1500.0
M4 S400
G01 Y93.05 F800.0
M5
G00 X44.51 Y93.4 F1500.0
M4 S400
G01 Y95.29 F800.0
M5
G00 X44.31 Y95.63 F1500.0
M4 S400
G01 Y93.74 F800.0
M5
G00 X44.11 Y94.09 F1500.0
M4 S400
G01 Y95.98 F800.0
M5
G00 X43.91 Y96.32 F1500.0
M4 S400
G01 Y94.43 F800.0
M5
G00 X43.71 Y94.78 F1500.0
M4 S400
G01 Y96.67 F800.0
M5
G00 X43.51 Y97.01 F1500.0
M4 S400
G01 Y95.12 F800.0
M5
G00 X43.31 Y95.47 F1500.0
M4 S400
G01 Y97.36 F800.0
M5
G00 X43.11 Y97.7 F1500.0
M4 S400
G01 Y95.81 F800.0
M5
G00 X42.91 Y96.16 F1500.0
M4 S400
G01 Y98.05 F800.0
M5
G00 X42.71 Y98.39 F1500.0
M4 S400
G01 Y96.5 F800.0
M5
G00 X42.51 Y96.85 F1500.0
M4 S400
G01 Y98.74 F800.0
M5
G00 X42.31 Y99.08 F1500.0
M4 S400
G01 Y97.19 F800.0
M5
G00 X42.11 Y97.54 F1500.0
M4 S400
G01 Y99.43 F800.0
M5
G00 X41.91 Y99.77 F1500.0
M4 S400
G01 Y97.88 F800.0
M5
G00 X41.71 Y98.22 F1500.0
M4 S400
G01 Y100.12 F800.0
M5
G00 X41.51 Y100.46 F1500.0
M4 S400
G01 Y98.57 F800.0
M5
G00 X41.31 Y98.91 F1500.0
M4 S400
G01 Y100.81 F800.0
M5
G00 X41.11 Y101.15 F1500.0
M4 S400
G01 Y99.26 F800.0
M5
G00 X40.91 Y99.6 F1500.0
M4 S400
G01 Y101.5 F800.0
M5
G00 X40.71 Y101.84 F1500.0
M4 S400
G01 Y99.95 F800.0
M5
G00 X40.51 Y100.29 F1500.0
M4 S400
G01 Y102.18 F800.0
M5
G00 X40.31 Y102.53 F1500.0
M4 S400
G01 Y100.64 F800.0
M5
G00 X40.11 Y100.98 F1500.0
M4 S400
G01 Y102.87 F800.0
M5
G00 X39.91 Y103.22 F1500.0
M4 S400
G01 Y101.33 F800.0
M5
G00 X39.71 Y101.67 F1500.0
M4 S400
G01 Y103.56 F800.0
M5
G00 X39.51 Y103.91 F1500.0
M4 S400
G01 Y102.02 F800.0
M5
G00 X39.31 Y102.36 F1500.0
M4 S400
G01 Y104.25 F800.0
M5
G00 X39.11 Y104.6 F1500.0
M4 S400
G01 Y102.71 F800.0
M5
G00 X38.91 Y103.05 F1500.0
M4 S400
G01 Y104.94 F800.0
M5
G00 X38.71 Y105.29 F1500.0
M4 S400
G01 Y103.4 F800.0
M5
G00 X38.51 Y103.74 F1500.0
M4 S400
G01 Y105.63 F800.0
M5
G00 X38.31 Y105.98 F1500.0
M4 S400
G01 Y104.09 F800.0
M5
G00 X38.11 Y104.43 F1500.0
M4 S400
G01 Y106.32 F800.0
M5
G00 X37.91 Y106.67 F1500.0
M4 S400
G01 Y104.78 F800.0
M5
G00 X37.71 Y105.12 F1500.0
M4 S400
G01 Y107.01 F800.0
M5
G00 X37.51 Y107.36 F1500.0
M4 S400
G01 Y105.47 F800.0
M5
G00 X37.31 Y105.81 F1500.0
M4 S400
G01 Y107.7 F800.0
M5
G00 X37.11 Y108.05 F1500.0
M4 S400
G01 Y106.15 F800.0
M5
G00 X36.91 Y106.5 F1500.0
M4 S400
G01 Y108.39 F800.0
M5
G00 X36.71 Y108.74 F1500.0
M4 S400
G01 Y106.84 F800.0
M5
G00 X36.51 Y107.19 F1500.0
M4 S400
G01 Y109.03 F800.0
M5
G00 X36.31 Y109.19 F1500.0
M4 S400
G01 Y107.53 F800.0
M5
G00 X36.11 Y107.7 F1500.0
M4 S400
G01 Y109.18 F800.0
M5
G00 X35.91 Y109.13 F1500.0
M4 S400
G01 Y107.36 F800.0
M5
G00 X35.71 Y107.01 F1500.0
M4 S400
G01 Y108.91 F800.0
M5
G00 X35.51 Y108.57 F1500.0
M4 S400
G01 Y106.66 F800.0
M5
G00 X35.31 Y106.31 F1500.0
M4 S400
G01 Y108.22 F800.0
M5
G00 X35.11 Y107.87 F1500.0
M4 S400
G01 Y105.96 F800.0
M5
G00 X34.91 Y105.62 F1500.0
M4 S400
G01 Y107.52 F800.0
M5
G00 X34.71 Y107.17 F1500.0
M4 S400
G01 Y105.27 F800.0
M5
G00 X34.51 Y104.92 F1500.0
M4 S400
G01 Y106.83 F800.0
M5
G00 X34.31 Y106.48 F1500.0
M4 S400
G01 Y104.57 F800.0
M5
G00 X34.11 Y104.22 F1500.0
M4 S400
G01 Y106.13 F800.0
M5
G00 X33.91 Y105.78 F1500.0
M4 S400
G01 Y103.88 F800.0
M5
G00 X33.71 Y103.53 F1500.0
M4 S400
G01 Y105.43 F800.0
M5
G00 X33.51 Y105.09 F1500.0
M4 S400
G01 Y103.18 F800.0
M5
G00 X33.31 Y102.83 F1500.0
M4 S400
G01 Y104.74 F800.0
M5
G00 X33.11 Y104.39 F1500.0
M4 S400
G01 Y102.48 F800.0
M5
G00 X32.91 Y102.14 F1500.0
M4 S400
G01 Y104.04 F800.0
M5
G00 X32.71 Y103.69 F1500.0
M4 S400
G01 Y101.79 F800.0
M5
G00 X32.51 Y101.44 F1500.0
M4 S400
G01 Y103.35 F800.0
M5
G00 X32.31 Y103. F1500.0
M4 S400
G01 Y101.09 F800.0
M5
G00 X32.11 Y100.74 F1500.0
M4 S400
G01 Y102.65 F800.0
M5
G00 X31.91 Y102.3 F1500.0
M4 S400
G01 Y100.4 F800.0
M5
G00 X31.71 Y100.05 F1500.0
M4 S400
G01 Y101.95 F800.0
M5
G00 X31.51 Y101.6 F1500.0
M4 S400
G01 Y99.7 F800.0
M5
G00 X31.31 Y99.35 F1500.0
M4 S400
G01 Y101.26 F800.0
M5
G00 X31.11 Y100.91 F1500.0
M4 S400
G01 Y99.0 F800.0
M5
G00 X30.91 Y98.66 F1500.0
M4 S400
G01 Y100.56 F800.0
M5
G00 X30.71 Y100.21 F1500.0
M4 S400
G01 Y98.31 F800.0
M5
G00 X30.51 Y97.96 F1500.0
M4 S400
G01 Y99.86 F800.0
M5
G00 X30.31 Y99.52 F1500.0
M4 S400
G01 Y97.61 F800.0
M5
G00 X30.11 Y97.26 F1500.0
M4 S400
G01 Y99.17 F800.0
M5
G00 X29.91 Y98.82 F1500.0
M4 S400
G01 Y96.91 F800.0
M5
G00 X29.71 Y96.57 F1500.0
M4 S400
G01 Y98.47 F800.0
M5
G00 X29.51 Y98.12 F1500.0
M4 S400
G01 Y96.22 F800.0
M5
G00 X29.31 Y95.87 F1500.0
M4 S400
G01 Y97.78 F800.0
M5
G00 X29.11 Y97.43 F1500.0
M4 S400
G01 Y95.52 F800.0
M5
G00 X28.91 Y95.17 F1500.0
M4 S400
G01 Y97.08 F800.0
M5
G00 X28.71 Y96.73 F1500.0
M4 S400
G01 Y94.83 F800.0
M5
G00 X28.51 Y94.48 F1500.0
M4 S400
G01 Y96.38 F800.0
M5
G00 X28.31 Y96.04 F1500.0
M4 S400
G01 Y94.13 F800.0
M5
G00 X28.11 Y93.78 F1500.0
M4 S400
G01 Y95.69 F800.0
M5
G00 X27.91 Y95.34 F1500.0
M4 S400
G01 Y93.43 F800.0
M5
G00 X27.71 Y93.09 F1500.0
M4 S400
G01 Y94.99 F800.0
M5
G00 X27.51 Y94.64 F1500.0
M4 S400
G01 Y92.74 F800.0
M5
G00 X27.31 Y92.39 F1500.0
M4 S400
G01 Y94.3 F800.0
M5
G00 X27.11 Y93.95 F1500.0
M4 S400
G01 Y92.04 F800.0
M5
G00 X26.91 Y91.69 F1500.0
M4 S400
G01 Y93.6 F800.0
M5
G00 X26.71 Y93.25 F1500.0
M4 S400
G01 Y91.35 F800.0
M5
G00 X26.51 Y91. F1500.0
M4 S400
G01 Y92.9 F800.0
M5
G00 X46.31 Y92.19 F1500.0
M4 S400
G01 Y89.45 F800.0
M5
G00 X46.51 Y89.45 F1500.0
M4 S400
G01 Y91.84 F800.0
M5
G00 X46.71 Y91.5 F1500.0
M4 S400
G01 Y89.45 F800.0
M5
G00 X46.91 Y89.45 F1500.0
M4 S400
G01 Y91.15 F800.0
M5
G00 X47.11 Y90.81 F1500.0
M4 S400
G01 Y89.47 F800.0
M5
G00 X47.31 Y89.59 F1500.0
M4 S400
G01 Y90.46 F800.0
M5
M5
;END infill

; START infill strategy
G01 F800.0
G00 X32.98 Y97.58 F1500.0
M4 S400
G01 Y97.17 F800.0
M5
G00 X33.18 Y97.17 F1500.0
M4 S400
G01 Y97.58 F800.0
M5
G00 X33.38 Y97.58 F1500.0
M4 S400
G01 Y97.17 F800.0
M5
G00 X33.58 Y97.17 F1500.0
M4 S400
G01 Y97.58 F800.0
M5
G00 X33.78 Y97.58 F1500.0
M4 S400
G01 Y97.17 F800.0
M5
G00 X33.98 Y97.17 F1500.0
M4 S400
G01 Y97.58 F800.0
M5
G00 X34.18 Y97.58 F1500.0
M4 S400
G01 Y97.18 F800.0
M5
G00 X34.38 Y97.19 F1500.0
M4 S400
G01 Y97.58 F800.0
M5
G00 X34.58 Y97.57 F1500.0
M4 S400
G01 Y97.2 F800.0
M5
G00 X34.78 Y97.2 F1500.0
M4 S400
G01 Y97.57 F800.0
M5
G00 X34.98 Y97.52 F1500.0
M4 S400
G01 Y97.21 F800.0
M5
M5
;END infill

; START infill strategy
G01 F800.0
G00 X33.51 Y96.06 F1500.0
M4 S400
G01 Y95.65 F800.0
M5
G00 X33.71 Y95.7 F1500.0
M4 S400
G01 Y96.18 F800.0
M5
G00 X33.91 Y96.3 F1500.0
M4 S400
G01 Y95.81 F800.0
M5
G00 X34.11 Y95.92 F1500.0
M4 S400
G01 Y96.42 F800.0
M5
G00 X34.31 Y96.53 F1500.0
M4 S400
G01 Y96.03 F800.0
M5
G00 X34.51 Y96.15 F1500.0
M4 S400
G01 Y96.64 F800.0
M5
G00 X34.71 Y96.75 F1500.0
M4 S400
G01 Y96.27 F800.0
M5
G00 X34.91 Y96.39 F1500.0
M4 S400
G01 Y96.86 F800.0
M5
G00 X35.11 Y96.88 F1500.0
M4 S400
G01 Y96.51 F800.0
M5
M5
;END infill

; START infill strategy
G01 F800.0
G00 X32.29 Y99.81 F1500.0
M4 S400
G01 Y99.4 F800.0
M5
G00 X32.49 Y99.28 F1500.0
M4 S400
G01 Y99.75 F800.0
M5
G00 X32.69 Y99.64 F1500.0
M4 S400
G01 Y99.16 F800.0
M5
G00 X32.89 Y99.04 F1500.0
M4 S400
G01 Y99.52 F800.0
M5
G00 X33.09 Y99.4 F1500.0
M4 S400
G01 Y98.92 F800.0
M5
G00 X33.29 Y98.8 F1500.0
M4 S400
G01 Y99.29 F800.0
M5
G00 X33.49 Y99.17 F1500.0
M4 S400
G01 Y98.68 F800.0
M5
G00 X33.69 Y98.57 F1500.0
M4 S400
G01 Y99.05 F800.0
M5
G00 X33.89 Y98.94 F1500.0
M4 S400
G01 Y98.45 F800.0
M5
G00 X34.09 Y98.34 F1500.0
M4 S400
G01 Y98.82 F800.0
M5
G00 X34.29 Y98.7 F1500.0
M4 S400
G01 Y98.23 F800.0
M5
G00 X34.49 Y98.12 F1500.0
M4 S400
G01 Y98.59 F800.0
M5
G00 X34.69 Y98.47 F1500.0
M4 S400
G01 Y98.0 F800.0
M5
G00 X34.89 Y97.89 F1500.0
M4 S400
G01 Y98.36 F800.0
M5
G00 X35.09 Y98.24 F1500.0
M4 S400
G01 Y97.87 F800.0
M5
M5
;END infill

; START infill strategy
G01 F800.0
G00 X33.94 Y93.84 F1500.0
M4 S400
G01 Y93.27 F800.0
M5
G00 X34.14 Y93.41 F1500.0
M4 S400
G01 Y94.21 F800.0
M5
G00 X34.54 Y94.11 F1500.0
M4 S400
G01 Y94.94 F800.0
M5
G00 X34.74 Y95.27 F1500.0
M4 S400
G01 Y94.45 F800.0
M5
G00 X34.34 Y94.57 F1500.0
M4 S400
G01 Y93.76 F800.0
M5
G00 X34.94 Y94.8 F1500.0
M4 S400
G01 Y95.61 F800.0
M5
G00 X35.34 Y95.5 F1500.0
M4 S400
G01 Y96.28 F800.0
M5
G00 X35.54 Y96.42 F1500.0
M4 S400
G01 Y95.85 F800.0
M5
G00 X35.14 Y95.94 F1500.0
M4 S400
G01 Y95.15 F800.0
M5
M5
;END infill

; START infill strategy
G01 F800.0
G00 X34.64 Y100.26 F1500.0
M4 S400
G01 Y99.67 F800.0
M5
G00 X35.04 Y99.77 F1500.0
M4 S400
G01 Y98.94 F800.0
M5
G00 X35.24 Y98.61 F1500.0
M4 S400
G01 Y99.43 F800.0
M5
G00 X35.44 Y99.09 F1500.0
M4 S400
G01 Y98.36 F800.0
M5
G00 X35.64 Y98.33 F1500.0
M4 S400
G01 Y98.74 F800.0
M5
G00 X34.84 Y99.28 F1500.0
M4 S400
G01 Y100.12 F800.0
M5
M5
;END infill

; START infill strategy
G01 F800.0
G00 X36.18 Y96.26 F1500.0
M4 S400
G01 Y91.92 F800.0
M5
G00 X36.38 Y92.52 F1500.0
M4 S400
G01 Y96.16 F800.0
M5
M5
;END infill

; START infill strategy
G01 F800.0
G00 X36.18 Y102.81 F1500.0
M4 S400
G01 Y98.49 F800.0
M5
G00 X36.38 Y98.59 F1500.0
M4 S400
G01 Y102.7 F800.0
M5
M5
;END infill

; START infill strategy
G01 F800.0
G00 X36.85 Y96.42 F1500.0
M4 S400
G01 Y95.85 F800.0
M5
G00 X37.25 Y95.98 F1500.0
M4 S400
G01 Y95.13 F800.0
M5
G00 X37.45 Y94.81 F1500.0
M4 S400
G01 Y95.65 F800.0
M5
G00 X37.65 Y95.3 F1500.0
M4 S400
G01 Y94.52 F800.0
M5
G00 X37.85 Y94.53 F1500.0
M4 S400
G01 Y94.91 F800.0
M5
G00 X37.05 Y95.47 F1500.0
M4 S400
G01 Y96.27 F800.0
M5
M5
;END infill

; START infill strategy
G01 F800.0
G00 X36.86 Y98.94 F1500.0
M4 S400
G01 Y98.34 F800.0
M5
G00 X37.06 Y98.48 F1500.0
M4 S400
G01 Y99.29 F800.0
M5
G00 X37.46 Y99.18 F1500.0
M4 S400
G01 Y99.97 F800.0
M5
G00 X37.86 Y99.87 F1500.0
M4 S400
G01 Y100.66 F800.0
M5
G00 X38.26 Y100.57 F1500.0
M4 S400
G01 Y101.35 F800.0
M5
G00 X38.46 Y101.47 F1500.0
M4 S400
G01 Y100.91 F800.0
M5
G00 X38.06 Y101.01 F1500.0
M4 S400
G01 Y100.22 F800.0
M5
G00 X37.66 Y100.32 F1500.0
M4 S400
G01 Y99.53 F800.0
M5
G00 X37.26 Y99.63 F1500.0
M4 S400
G01 Y98.83 F800.0
M5
M5
;END infill

; START infill strategy
G01 F800.0
G00 X37.33 Y98.26 F1500.0
M4 S400
G01 Y97.86 F800.0
M5
G00 X37.53 Y97.91 F1500.0
M4 S400
G01 Y98.38 F800.0
M5
G00 X37.73 Y98.5 F1500.0
M4 S400
G01 Y98.02 F800.0
M5
G00 X37.93 Y98.13 F1500.0
M4 S400
G01 Y98.62 F800.0
M5
G00 X38.13 Y98.73 F1500.0
M4 S400
G01 Y98.24 F800.0
M5
G00 X38.33 Y98.35 F1500.0
M4 S400
G01 Y98.84 F800.0
M5
G00 X38.53 Y98.95 F1500.0
M4 S400
G01 Y98.47 F800.0
M5
G00 X38.73 Y98.59 F1500.0
M4 S400
G01 Y99.05 F800.0
M5
G00 X38.93 Y99.09 F1500.0
M4 S400
G01 Y98.71 F800.0
M5
M5
;END infill

; START infill strategy
G01 F800.0
G00 X37.37 Y96.87 F1500.0
M4 S400
G01 Y96.46 F800.0
M5
G00 X37.57 Y96.34 F1500.0
M4 S400
G01 Y96.81 F800.0
M5
G00 X37.77 Y96.7 F1500.0
M4 S400
G01 Y96.23 F800.0
M5
G00 X37.97 Y96.11 F1500.0
M4 S400
G01 Y96.59 F800.0
M5
G00 X38.17 Y96.47 F1500.0
M4 S400
G01 Y96.0 F800.0
M5
G00 X38.37 Y95.88 F1500.0
M4 S400
G01 Y96.36 F800.0
M5
G00 X38.57 Y96.25 F1500.0
M4 S400
G01 Y95.76 F800.0
M5
G00 X38.77 Y95.65 F1500.0
M4 S400
G01 Y96.14 F800.0
M5
G00 X38.97 Y96.02 F1500.0
M4 S400
G01 Y95.53 F800.0
M5
G00 X39.17 Y95.42 F1500.0
M4 S400
G01 Y95.9 F800.0
M5
G00 X39.37 Y95.78 F1500.0
M4 S400
G01 Y95.3 F800.0
M5
G00 X39.57 Y95.18 F1500.0
M4 S400
G01 Y95.66 F800.0
M5
G00 X39.77 Y95.54 F1500.0
M4 S400
G01 Y95.07 F800.0
M5
G00 X39.97 Y94.95 F1500.0
M4 S400
G01 Y95.42 F800.0
M5
G00 X40.17 Y95.3 F1500.0
M4 S400
G01 Y94.97 F800.0
M5
M5
;END infill

; START infill strategy
G01 F800.0
G00 X35.76 Y97.8 F1500.0
M4 S400
G01 Y96.95 F800.0
M5
G00 X35.96 Y96.77 F1500.0
M4 S400
G01 Y97.97 F800.0
M5
G00 X36.16 Y97.97 F1500.0
M4 S400
G01 Y96.77 F800.0
M5
G00 X36.36 Y96.77 F1500.0
M4 S400
G01 Y97.97 F800.0
M5
G00 X36.56 Y97.87 F1500.0
M4 S400
G01 Y96.87 F800.0
M5
G00 X36.76 Y97.06 F1500.0
M4 S400
G01 Y97.68 F800.0
M5
G00 X36.96 Y97.59 F1500.0
M4 S400
G01 Y97.16 F800.0
M5
G00 X37.16 Y97.16 F1500.0
M4 S400
G01 Y97.59 F800.0
M5
G00 X37.36 Y97.59 F1500.0
M4 S400
G01 Y97.16 F800.0
M5
G00 X37.56 Y97.16 F1500.0
M4 S400
G01 Y97.59 F800.0
M5
G00 X37.76 Y97.59 F1500.0
M4 S400
G01 Y97.16 F800.0
M5
G00 X37.96 Y97.16 F1500.0
M4 S400
G01 Y97.59 F800.0
M5
G00 X38.16 Y97.59 F1500.0
M4 S400
G01 Y97.16 F800.0
M5
G00 X38.36 Y97.16 F1500.0
M4 S400
G01 Y97.59 F800.0
M5
G00 X38.56 Y97.59 F1500.0
M4 S400
G01 Y97.16 F800.0
M5
G00 X38.76 Y97.16 F1500.0
M4 S400
G01 Y97.59 F800.0
M5
G00 X38.96 Y97.59 F1500.0
M4 S400
G01 Y97.16 F800.0
M5
G00 X39.16 Y97.16 F1500.0
M4 S400
G01 Y97.59 F800.0
M5
G00 X39.36 Y97.59 F1500.0
M4 S400
G01 Y97.16 F800.0
M5
G00 X39.56 Y97.16 F1500.0
M4 S400
G01 Y97.59 F800.0
M5
G00 X39.76 Y97.59 F1500.0
M4 S400
G01 Y97.16 F800.0
M5
G00 X39.96 Y97.16 F1500.0
M4 S400
G01 Y97.59 F800.0
M5
G00 X40.16 Y97.59 F1500.0
M4 S400
G01 Y97.16 F800.0
M5
G00 X40.36 Y97.16 F1500.0
M4 S400
G01 Y97.59 F800.0
M5
G00 X40.56 Y97.59 F1500.0
M4 S400
G01 Y97.16 F800.0
M5
G00 X40.76 Y97.16 F1500.0
M4 S400
G01 Y97.59 F800.0
M5
G00 X40.96 Y97.59 F1500.0
M4 S400
G01 Y97.16 F800.0
M5
G00 X41.16 Y97.16 F1500.0
M4 S400
G01 Y97.59 F800.0
M5
G00 X41.36 Y97.59 F1500.0
M4 S400
G01 Y97.16 F800.0
M5
G00 X41.56 Y97.16 F1500.0
M4 S400
G01 Y97.59 F800.0
M5
G00 X41.76 Y97.59 F1500.0
M4 S400
G01 Y97.16 F800.0
M5
G00 X41.96 Y97.16 F1500.0
M4 S400
G01 Y97.59 F800.0
M5
G00 X42.16 Y97.59 F1500.0
M4 S400
G01 Y97.16 F800.0
M5
G00 X42.36 Y97.16 F1500.0
M4 S400
G01 Y97.59 F800.0
M5
G00 X42.56 Y97.59 F1500.0
M4 S400
G01 Y97.16 F800.0
M5
G00 X42.76 Y97.16 F1500.0
M4 S400
G01 Y97.59 F800.0
M5
M5
;END infill

; START perimeter strategy
G01 F800.0
M5
G00 X16.41 Y3.06 F1500.0
M4 S600 F1500.0
G01 Y2.01 F800.0
G01 F800.0
G01 X16.24 F800.0
G01 Y2.06 F800.0
G01 Y3.1 F800.0
G01 X15.87 Y3.09 F800.0
G01 Y3.05 F800.0
G01 Y2.01 F800.0
G01 X15.7 F800.0
G01 Y2.06 F800.0
G01 Y3.1 F800.0
G01 X15.33 Y3.09 F800.0
G01 Y3.05 F800.0
G01 Y2.01 F800.0
G01 X15.16 F800.0
G01 Y2.13 F800.0
G01 Y3.25 F800.0
G01 X15.33 F800.0
G01 Y3.22 F800.0
G01 X15.53 Y3.25 F800.0
G01 X15.73 Y3.26 F800.0
G01 X15.85 Y3.22 F800.0
G01 X16.06 Y3.25 F800.0
G01 X16.27 Y3.26 F800.0
G01 X16.41 Y3.12 F800.0
G01 Y3.06 F800.0
M5
G00 X14.88 Y3.06 F1500.0
M4 S600 F1500.0
G01 Y2.01 F800.0
G01 F800.0
G01 X14.71 F800.0
G01 Y2.06 F800.0
G01 Y3.1 F800.0
G01 X14.34 Y3.09 F800.0
G01 Y3.05 F800.0
G01 Y2.01 F800.0
G01 X14.17 F800.0
G01 Y2.13 F800.0
G01 Y3.26 F800.0
G01 X14.34 F800.0
G01 Y3.22 F800.0
G01 X14.54 Y3.25 F800.0
G01 X14.74 Y3.26 F800.0
G01 X14.88 Y3.12 F800.0
G01 Y3.06 F800.0
M5
G00 X13.35 Y3.51 F1500.0
M4 S600 F1500.0
G01 Y2.15 F800.0
G01 F800.0
G01 X13.31 Y2.05 F800.0
G01 X13.21 Y2.01 F800.0
G01 X12.68 F800.0
G01 X12.57 Y2.05 F800.0
G01 X12.53 Y2.15 F800.0
G01 Y2.51 F800.0
G01 Y3.87 F800.0
G01 X12.57 Y3.97 F800.0
G01 X12.68 Y4.02 F800.0
G01 X13.21 F800.0
G01 X13.31 Y3.97 F800.0
G01 X13.35 Y3.87 F800.0
G01 Y3.51 F800.0
M5
G00 X13.18 Y2.17 F1500.0
M4 S600 F1500.0
G01 F800.0
G01 Y2.51 F800.0
G01 Y3.86 F800.0
G01 X12.71 F800.0
G01 Y3.51 F800.0
G01 Y2.17 F800.0
G01 X13.18 F800.0
M5
G00 X12.26 Y2.01 F1500.0
M4 S600 F1500.0
G01 F800.0
G01 X11.46 F800.0
G01 Y2.1 F800.0
G01 X11.55 Y2.29 F800.0
G01 X12.07 Y3.38 F800.0
G01 Y3.86 F800.0
G01 X11.66 F800.0
G01 Y3.41 F800.0
G01 X11.48 F800.0
G01 Y3.87 F800.0
G01 X11.52 Y3.97 F800.0
G01 X11.63 Y4.02 F800.0
G01 X12.11 F800.0
G01 X12.21 Y3.97 F800.0
G01 X12.25 Y3.87 F800.0
G01 Y3.45 F800.0
G01 X12.21 Y3.27 F800.0
G01 X12.16 Y3.17 F800.0
G01 X11.67 Y2.17 F800.0
G01 X12.26 F800.0
G01 Y2.01 F800.0
M5
G00 X11.2 Y2.15 F1500.0
M4 S600 F1500.0
G01 F800.0
G01 X11.16 Y2.05 F800.0
G01 X11.06 Y2.01 F800.0
G01 X10.56 F800.0
G01 X10.46 Y2.05 F800.0
G01 X10.42 Y2.15 F800.0
G01 Y2.66 F800.0
G01 X10.6 F800.0
G01 Y2.17 F800.0
G01 X11.02 F800.0
G01 Y3.11 F800.0
G01 X10.43 F800.0
G01 X10.45 Y4.02 F800.0
G01 X11.19 F800.0
G01 Y3.86 F800.0
G01 X10.63 F800.0
G01 X10.6 Y3.27 F800.0
G01 X11.06 F800.0
G01 X11.16 Y3.23 F800.0
G01 X11.2 Y3.13 F800.0
G01 Y2.15 F800.0
M5
G00 X10.14 Y2.69 F1500.0
M4 S600 F1500.0
G01 F800.0
G01 X9.62 F800.0
G01 Y2.85 F800.0
G01 X10.14 F800.0
G01 Y2.69 F800.0
M5
G00 X9.15 Y2.17 F1500.0
M4 S600 F1500.0
G01 F800.0
G01 Y2.51 F800.0
G01 Y3.86 F800.0
G01 X8.69 F800.0
G01 Y3.51 F800.0
G01 Y2.17 F800.0
G01 X9.15 F800.0
M5
G00 X8.21 Y2.15 F1500.0
M4 S600 F1500.0
G01 F800.0
G01 X8.16 Y2.05 F800.0
G01 X8.06 Y2.01 F800.0
G01 X7.57 F800.0
G01 X7.47 Y2.05 F800.0
G01 X7.43 Y2.15 F800.0
G01 Y2.66 F800.0
G01 X7.61 F800.0
G01 Y2.17 F800.0
G01 X8.03 F800.0
G01 Y3.11 F800.0
G01 X7.43 F800.0
G01 X7.46 Y4.02 F800.0
G01 X8.19 F800.0
G01 Y3.86 F800.0
G01 X7.63 F800.0
G01 X7.61 Y3.27 F800.0
G01 X8.06 F800.0
G01 X8.16 Y3.23 F800.0
G01 X8.21 Y3.13 F800.0
G01 Y2.15 F800.0
M5
G00 X7.15 Y2.01 F1500.0
M4 S600 F1500.0
G01 F800.0
G01 X6.36 F800.0
G01 Y2.1 F800.0
G01 X6.45 Y2.29 F800.0
G01 X6.97 Y3.38 F800.0
G01 Y3.86 F800.0
G01 X6.56 F800.0
G01 Y3.41 F800.0
G01 X6.38 F800.0
G01 Y3.87 F800.0
G01 X6.42 Y3.97 F800.0
G01 X6.53 Y4.02 F800.0
G01 X7.01 F800.0
G01 X7.11 Y3.97 F800.0
G01 X7.15 Y3.87 F800.0
G01 Y3.45 F800.0
G01 X7.1 Y3.27 F800.0
G01 X7.05 Y3.17 F800.0
G01 X6.57 Y2.17 F800.0
G01 X7.15 F800.0
G01 Y2.01 F800.0
M5
G00 X5.61 Y2.01 F1500.0
M4 S600 F1500.0
G01 F800.0
G01 X5.42 F800.0
G01 Y2.23 F800.0
G01 X5.61 F800.0
G01 Y2.01 F800.0
M5
G00 X5.15 Y2.15 F1500.0
M4 S600 F1500.0
G01 F800.0
G01 X5.01 Y2.01 F800.0
G01 X4.6 F800.0
G01 X4.46 Y2.15 F800.0
G01 Y3.11 F800.0
G01 X4.6 Y3.26 F800.0
G01 X5.01 F800.0
G01 X5.15 Y3.11 F800.0
G01 Y2.66 F800.0
G01 X5.1 Y2.6 F800.0
G01 X4.62 F800.0
G01 Y2.15 F800.0
G01 X4.99 F800.0
G01 Y2.38 F800.0
G01 X5.15 F800.0
G01 Y2.15 F800.0
M5
G00 X4.99 Y2.74 F1500.0
M4 S600 F1500.0
G01 F800.0
G01 Y3.11 F800.0
G01 X4.62 F800.0
G01 Y2.74 F800.0
G01 X4.99 F800.0
M5
G00 X5.61 Y2.88 F1500.0
M4 S600 F1500.0
G01 F800.0
G01 X5.42 F800.0
G01 Y3.1 F800.0
G01 X5.61 F800.0
G01 Y2.88 F800.0
M5
G00 X4.18 Y3.13 F1500.0
M4 S600 F1500.0
G01 Y2.01 F800.0
G01 F800.0
G01 X4.01 F800.0
G01 Y2.04 F800.0
G01 X3.81 Y2.02 F800.0
G01 X3.6 Y2.0 F800.0
G01 X3.46 Y2.14 F800.0
G01 Y2.2 F800.0
G01 Y3.26 F800.0
G01 X3.63 F800.0
G01 Y3.21 F800.0
G01 Y2.16 F800.0
G01 X4.01 Y2.17 F800.0
G01 Y2.21 F800.0
G01 Y3.26 F800.0
G01 X4.18 F800.0
G01 Y3.13 F800.0
M5
G00 X3.17 Y4.01 F1500.0
M4 S600 F1500.0
G01 Y3.01 F800.0
G01 Y2.01 F800.0
G01 F800.0
G01 X3.01 F800.0
G01 F800.0
G01 Y3.01 F800.0
G01 Y4.02 F800.0
G01 X3.17 F800.0
G01 Y4.01 F800.0
M5
G00 X2.72 Y2.28 F1500.0
M4 S600 F1500.0
G01 F800.0
G01 X2.64 Y2.08 F800.0
G01 X2.45 Y2.01 F800.0
G01 X2.0 F800.0
G01 F800.0
G01 Y3.01 F800.0
G01 Y4.02 F800.0
G01 X2.17 F800.0
G01 Y3.22 F800.0
G01 X2.37 Y3.25 F800.0
G01 X2.58 Y3.26 F800.0
G01 X2.72 Y3.12 F800.0
G01 Y2.28 F800.0
M5
G00 X2.55 Y2.3 F1500.0
M4 S600 F1500.0
G01 F800.0
G01 Y3.1 F800.0
G01 X2.17 Y3.09 F800.0
G01 Y2.16 F800.0
G01 X2.41 F800.0
G01 X2.55 Y2.3 F800.0
G01 F800.0
M5
G00 X9.33 Y3.51 F1500.0
M4 S600 F1500.0
G01 Y2.15 F800.0
G01 F800.0
G01 X9.29 Y2.05 F800.0
G01 X9.19 Y2.01 F800.0
G01 X8.65 F800.0
G01 X8.55 Y2.05 F800.0
G01 X8.51 Y2.15 F800.0
G01 Y2.51 F800.0
G01 Y3.87 F800.0
G01 X8.55 Y3.97 F800.0
G01 X8.65 Y4.02 F800.0
G01 X9.19 F800.0
G01 X9.29 Y3.97 F800.0
G01 X9.33 Y3.87 F800.0
G01 Y3.51 F800.0
M5
G00 X55.84 Y2.92 F1500.0
M4 S600 F1500.0
G01 F800.0
G01 Y3.22 F800.0
G01 Y4.51 F800.0
G01 X55.82 Y4.57 F800.0
G01 X55.75 Y4.6 F800.0
G01 Y4.65 F800.0
G01 X56.75 F800.0
G01 X57.27 Y4.56 F800.0
G01 X57.62 Y4.2 F800.0
G01 X57.72 Y3.72 F800.0
G01 X57.58 Y3.17 F800.0
G01 X57.26 Y2.87 F800.0
G01 X56.75 Y2.78 F800.0
G01 X55.75 F800.0
G01 Y2.83 F800.0
G01 X55.82 Y2.86 F800.0
G01 X55.84 Y2.92 F800.0
G01 F800.0
M5
G00 X56.06 Y4.22 F1500.0
M4 S600 F1500.0
G01 Y2.96 F800.0
G01 F800.0
G01 X56.74 F800.0
G01 X57.19 Y3.05 F800.0
G01 X57.44 Y3.39 F800.0
G01 X57.5 Y3.72 F800.0
G01 X57.33 Y4.25 F800.0
G01 X57.1 Y4.42 F800.0
G01 X56.74 Y4.47 F800.0
G01 X56.06 F800.0
G01 Y4.22 F800.0
M5
G00 X55.94 Y5.51 F1500.0
M4 S600 F1500.0
G01 F800.0
G01 Y5.73 F800.0
G01 Y7.73 F800.0
G01 Y8.95 F800.0
G01 X55.9 Y9.09 F800.0
G01 X55.75 Y9.17 F800.0
G01 Y9.27 F800.0
G01 X55.88 F800.0
G01 X56.88 F800.0
G01 X58.02 F800.0
G01 X58.09 Y9.25 F800.0
G01 X59.16 Y9.1 F800.0
G01 X59.66 Y8.77 F800.0
G01 X60.0 Y8.28 F800.0
G01 X60.01 Y8.25 F800.0
G01 X60.22 Y7.23 F800.0
G01 X60.06 Y6.31 F800.0
G01 X59.58 Y5.63 F800.0
G01 X58.94 Y5.3 F800.0
G01 X58.02 Y5.2 F800.0
G01 X57.88 F800.0
G01 X56.88 F800.0
G01 X55.75 F800.0
G01 Y5.29 F800.0
G01 X55.9 Y5.37 F800.0
G01 X55.94 Y5.51 F800.0
G01 F800.0
M5
G00 X56.83 Y8.23 F1500.0
M4 S600 F1500.0
G01 Y7.23 F800.0
G01 Y5.87 F800.0
G01 F800.0
G01 X56.88 F800.0
G01 X57.94 F800.0
G01 X58.74 Y6.01 F800.0
G01 X59.17 Y6.47 F800.0
G01 X59.32 Y7.23 F800.0
G01 X59.24 Y7.81 F800.0
G01 X59.01 Y8.24 F800.0
G01 X58.59 Y8.51 F800.0
G01 X57.94 Y8.59 F800.0
G01 X57.88 F800.0
G01 X56.83 F800.0
G01 Y8.23 F800.0
M5
G00 X56.02 Y9.71 F1500.0
M4 S600 F1500.0
G01 F800.0
G01 X56.21 F800.0
G01 X68.21 F800.0
G01 X69.39 F800.0
G01 X69.92 Y9.47 F800.0
G01 X70.14 Y8.91 F800.0
G01 Y8.48 F800.0
G01 Y4.48 F800.0
G01 Y3.05 F800.0
G01 X69.92 Y2.49 F800.0
G01 X69.39 Y2.25 F800.0
G01 X69.21 F800.0
G01 X57.21 F800.0
G01 X56.02 F800.0
G01 X55.49 Y2.49 F800.0
G01 X55.27 Y3.05 F800.0
G01 Y3.48 F800.0
G01 Y7.48 F800.0
G01 Y8.91 F800.0
G01 X55.49 Y9.47 F800.0
G01 X56.02 Y9.71 F800.0
G01 F800.0
M5
G00 X56.02 Y9.96 F1500.0
M4 S600 F1500.0
G01 F800.0
G01 X55.63 Y9.88 F800.0
G01 X55.31 Y9.65 F800.0
G01 X55.1 Y9.32 F800.0
G01 X55.02 Y8.91 F800.0
G01 Y8.48 F800.0
G01 Y4.48 F800.0
G01 Y3.05 F800.0
G01 X55.1 Y2.64 F800.0
G01 X55.31 Y2.31 F800.0
G01 X55.63 Y2.08 F800.0
G01 X56.02 Y2.0 F800.0
G01 X56.21 F800.0
G01 X68.21 F800.0
G01 X69.39 F800.0
G01 X69.79 Y2.08 F800.0
G01 X70.11 Y2.31 F800.0
G01 X70.32 Y2.64 F800.0
G01 X70.4 Y3.05 F800.0
G01 Y3.48 F800.0
G01 Y7.48 F800.0
G01 Y8.91 F800.0
G01 X70.32 Y9.32 F800.0
G01 X70.11 Y9.65 F800.0
G01 X69.79 Y9.88 F800.0
G01 X69.39 Y9.96 F800.0
G01 X69.21 F800.0
G01 X57.21 F800.0
G01 X56.02 F800.0
G01 F800.0
M5
G00 X61.94 Y8.91 F1500.0
M4 S600 F1500.0
G01 Y6.91 F800.0
G01 Y5.87 F800.0
G01 F800.0
G01 X62.19 F800.0
G01 X63.19 F800.0
G01 X64.43 F800.0
G01 X64.57 Y5.91 F800.0
G01 X64.65 Y6.06 F800.0
G01 X64.75 F800.0
G01 Y6.03 F800.0
G01 Y5.01 F800.0
G01 X64.65 F800.0
G01 X64.57 Y5.16 F800.0
G01 X64.43 Y5.2 F800.0
G01 X64.15 F800.0
G01 X62.15 F800.0
G01 X60.86 F800.0
G01 Y5.29 F800.0
G01 X61.01 Y5.37 F800.0
G01 X61.05 Y5.51 F800.0
G01 Y5.73 F800.0
G01 Y7.73 F800.0
G01 Y8.95 F800.0
G01 X61.01 Y9.09 F800.0
G01 X60.86 Y9.17 F800.0
G01 Y9.27 F800.0
G01 X60.99 F800.0
G01 X62.13 F800.0
G01 Y9.17 F800.0
G01 X61.98 Y9.09 F800.0
G01 X61.94 Y8.95 F800.0
G01 Y8.91 F800.0
M5
G00 X61.92 Y4.53 F1500.0
M4 S600 F1500.0
G01 F800.0
G01 X61.72 Y4.18 F800.0
G01 X61.68 Y4.2 F800.0
G01 X61.7 Y4.28 F800.0
G01 X61.6 Y4.37 F800.0
G01 X61.01 Y4.5 F800.0
G01 X60.56 Y4.4 F800.0
G01 X60.42 Y4.28 F800.0
G01 X60.37 Y4.12 F800.0
G01 X60.41 Y4.0 F800.0
G01 X60.52 Y3.91 F800.0
G01 X60.69 Y3.86 F800.0
G01 X61.03 Y3.84 F800.0
G01 X61.48 Y3.81 F800.0
G01 X61.71 Y3.74 F800.0
G01 X61.95 Y3.34 F800.0
G01 X61.73 Y2.93 F800.0
G01 X61.08 Y2.75 F800.0
G01 X60.66 Y2.8 F800.0
G01 X60.23 Y2.97 F800.0
G01 X60.15 Y3.01 F800.0
G01 X60.08 Y2.96 F800.0
G01 X60.05 Y2.98 F800.0
G01 X60.25 Y3.32 F800.0
G01 X60.29 Y3.3 F800.0
G01 X60.27 Y3.23 F800.0
G01 X60.44 Y3.09 F800.0
G01 X60.75 Y2.97 F800.0
G01 X61.07 Y2.94 F800.0
G01 X61.61 Y3.09 F800.0
G01 X61.73 Y3.33 F800.0
G01 X61.52 Y3.58 F800.0
G01 X61.38 Y3.61 F800.0
G01 X60.98 Y3.63 F800.0
G01 X60.6 Y3.67 F800.0
G01 X60.36 Y3.75 F800.0
G01 X60.2 Y3.9 F800.0
G01 X60.15 Y4.12 F800.0
G01 X60.3 Y4.46 F800.0
G01 X60.6 Y4.62 F800.0
G01 X61.03 Y4.68 F800.0
G01 X61.39 Y4.64 F800.0
G01 X61.76 Y4.52 F800.0
G01 X61.81 Y4.5 F800.0
G01 X61.88 Y4.55 F800.0
G01 X61.92 Y4.53 F800.0
M5
G00 X62.36 Y2.94 F1500.0
M4 S600 F1500.0
G01 F800.0
G01 Y3.22 F800.0
G01 Y4.49 F800.0
G01 X62.34 Y4.57 F800.0
G01 X62.27 Y4.6 F800.0
G01 Y4.65 F800.0
G01 X62.66 F800.0
G01 Y4.6 F800.0
G01 X62.59 Y4.57 F800.0
G01 X62.58 Y4.49 F800.0
G01 Y4.22 F800.0
G01 Y2.94 F800.0
G01 X62.59 Y2.86 F800.0
G01 X62.66 Y2.83 F800.0
G01 Y2.78 F800.0
G01 X62.27 F800.0
G01 Y2.83 F800.0
G01 X62.34 Y2.86 F800.0
G01 X62.36 Y2.94 F800.0
G01 F800.0
M5
G00 X65.08 Y4.47 F1500.0
M4 S600 F1500.0
G01 F800.0
G01 X64.87 Y4.14 F800.0
G01 X64.83 Y4.16 F800.0
G01 X64.86 Y4.22 F800.0
G01 X64.71 Y4.34 F800.0
G01 X64.12 Y4.5 F800.0
G01 X63.54 Y4.3 F800.0
G01 X63.33 Y4.05 F800.0
G01 X63.26 Y3.71 F800.0
G01 X63.52 Y3.14 F800.0
G01 X64.14 Y2.94 F800.0
G01 X64.51 Y3.0 F800.0
G01 X64.81 Y3.17 F800.0
G01 Y3.51 F800.0
G01 X64.36 F800.0
G01 X64.28 Y3.5 F800.0
G01 X64.25 Y3.42 F800.0
G01 X64.2 F800.0
G01 Y3.78 F800.0
G01 X64.25 F800.0
G01 X64.28 Y3.71 F800.0
G01 X64.36 Y3.69 F800.0
G01 X65.11 F800.0
G01 Y3.65 F800.0
G01 X65.04 Y3.61 F800.0
G01 X65.02 Y3.53 F800.0
G01 Y3.29 F800.0
G01 X65.04 Y3.21 F800.0
G01 X65.11 Y3.17 F800.0
G01 Y3.13 F800.0
G01 X64.81 Y2.92 F800.0
G01 X64.13 Y2.75 F800.0
G01 X63.36 Y3.0 F800.0
G01 X63.13 Y3.3 F800.0
G01 X63.03 Y3.72 F800.0
G01 X63.22 Y4.28 F800.0
G01 X63.69 Y4.61 F800.0
G01 X64.13 Y4.68 F800.0
G01 X64.52 Y4.63 F800.0
G01 X64.9 Y4.47 F800.0
G01 X64.98 Y4.44 F800.0
G01 X65.04 Y4.49 F800.0
G01 X65.08 Y4.47 F800.0
M5
G00 X66.72 Y3.32 F1500.0
M4 S600 F1500.0
G01 X65.76 Y4.41 F800.0
G01 F800.0
G01 Y4.18 F800.0
G01 Y2.94 F800.0
G01 X65.78 Y2.86 F800.0
G01 X65.85 Y2.83 F800.0
G01 Y2.78 F800.0
G01 X65.47 F800.0
G01 Y2.83 F800.0
G01 X65.54 Y2.86 F800.0
G01 X65.56 Y2.94 F800.0
G01 Y3.22 F800.0
G01 Y4.49 F800.0
G01 X65.54 Y4.57 F800.0
G01 X65.47 Y4.6 F800.0
G01 Y4.65 F800.0
G01 X66.02 F800.0
G01 Y4.6 F800.0
G01 X65.95 Y4.54 F800.0
G01 X66.02 Y4.44 F800.0
G01 X66.26 Y4.16 F800.0
G01 X67.16 Y3.13 F800.0
G01 Y3.31 F800.0
G01 Y4.49 F800.0
G01 X67.14 Y4.57 F800.0
G01 X67.07 Y4.6 F800.0
G01 Y4.65 F800.0
G01 X67.44 F800.0
G01 Y4.6 F800.0
G01 X67.37 Y4.57 F800.0
G01 X67.36 Y4.49 F800.0
G01 Y4.22 F800.0
G01 Y2.94 F800.0
G01 X67.37 Y2.86 F800.0
G01 X67.44 Y2.83 F800.0
G01 Y2.78 F800.0
G01 X67.01 F800.0
G01 Y2.83 F800.0
G01 X67.07 Y2.88 F800.0
G01 X67.01 Y2.98 F800.0
G01 X66.72 Y3.32 F800.0
M5
G00 X68.59 Y5.74 F1500.0
M4 S600 F1500.0
G01 Y6.97 F800.0
G01 F800.0
G01 X68.42 F800.0
G01 X67.42 F800.0
G01 X66.25 F800.0
G01 Y6.74 F800.0
G01 Y5.51 F800.0
G01 X66.29 Y5.37 F800.0
G01 X66.44 Y5.29 F800.0
G01 Y5.2 F800.0
G01 X66.31 F800.0
G01 X65.17 F800.0
G01 Y5.29 F800.0
G01 X65.32 Y5.37 F800.0
G01 X65.36 Y5.51 F800.0
G01 Y5.73 F800.0
G01 Y7.73 F800.0
G01 Y8.96 F800.0
G01 X65.32 Y9.09 F800.0
G01 X65.17 Y9.17 F800.0
G01 Y9.27 F800.0
G01 X65.31 F800.0
G01 X66.44 F800.0
G01 Y9.17 F800.0
G01 X66.29 Y9.09 F800.0
G01 X66.25 Y8.96 F800.0
G01 Y8.8 F800.0
G01 Y7.64 F800.0
G01 X66.42 F800.0
G01 X67.42 F800.0
G01 X68.59 F800.0
G01 Y7.8 F800.0
G01 Y8.96 F800.0
G01 X68.55 Y9.09 F800.0
G01 X68.4 Y9.17 F800.0
G01 Y9.27 F800.0
G01 X68.53 F800.0
G01 X69.67 F800.0
G01 Y9.17 F800.0
G01 X69.52 Y9.09 F800.0
G01 X69.48 Y8.96 F800.0
G01 Y8.73 F800.0
G01 Y6.73 F800.0
G01 Y5.51 F800.0
G01 X69.52 Y5.37 F800.0
G01 X69.67 Y5.29 F800.0
G01 Y5.2 F800.0
G01 X69.53 F800.0
G01 X68.4 F800.0
G01 Y5.29 F800.0
G01 X68.55 Y5.37 F800.0
G01 X68.59 Y5.51 F800.0
G01 Y5.74 F800.0
M5
G00 X69.64 Y4.53 F1500.0
M4 S600 F1500.0
G01 F800.0
G01 X69.44 Y4.18 F800.0
G01 X69.4 Y4.2 F800.0
G01 X69.43 Y4.28 F800.0
G01 X69.33 Y4.37 F800.0
G01 X68.73 Y4.5 F800.0
G01 X68.29 Y4.4 F800.0
G01 X68.14 Y4.28 F800.0
G01 X68.09 Y4.12 F800.0
G01 X68.13 Y4.0 F800.0
G01 X68.24 Y3.91 F800.0
G01 X68.42 Y3.86 F800.0
G01 X68.75 Y3.84 F800.0
G01 X69.2 Y3.81 F800.0
G01 X69.43 Y3.74 F800.0
G01 X69.67 Y3.34 F800.0
G01 X69.45 Y2.93 F800.0
G01 X68.8 Y2.75 F800.0
G01 X68.38 Y2.8 F800.0
G01 X67.95 Y2.97 F800.0
G01 X67.87 Y3.01 F800.0
G01 X67.81 Y2.96 F800.0
G01 X67.77 Y2.98 F800.0
G01 X67.98 Y3.32 F800.0
G01 X68.02 Y3.3 F800.0
G01 X67.99 Y3.23 F800.0
G01 X68.17 Y3.09 F800.0
G01 X68.47 Y2.97 F800.0
G01 X68.8 Y2.94 F800.0
G01 X69.33 Y3.09 F800.0
G01 X69.45 Y3.33 F800.0
G01 X69.24 Y3.58 F800.0
G01 X69.1 Y3.61 F800.0
G01 X68.7 Y3.63 F800.0
G01 X68.32 Y3.67 F800.0
G01 X68.08 Y3.75 F800.0
G01 X67.93 Y3.9 F800.0
G01 X67.87 Y4.12 F800.0
G01 X68.02 Y4.46 F800.0
G01 X68.33 Y4.62 F800.0
G01 X68.75 Y4.68 F800.0
G01 X69.11 Y4.64 F800.0
G01 X69.48 Y4.52 F800.0
G01 X69.53 Y4.5 F800.0
G01 X69.6 Y4.55 F800.0
G01 X69.64 Y4.53 F800.0
M5
G00 X58.4 Y3.65 F1500.0
M4 S600 F1500.0
G01 F800.0
G01 Y2.96 F800.0
G01 X58.51 F800.0
G01 X59.62 F800.0
G01 X59.7 Y2.98 F800.0
G01 X59.73 Y3.05 F800.0
G01 X59.78 F800.0
G01 Y2.7 F800.0
G01 X59.74 F800.0
G01 X59.7 Y2.77 F800.0
G01 X59.62 Y2.78 F800.0
G01 X59.35 F800.0
G01 X58.09 F800.0
G01 Y2.83 F800.0
G01 X58.16 Y2.86 F800.0
G01 X58.18 Y2.94 F800.0
G01 Y3.22 F800.0
G01 Y4.49 F800.0
G01 X58.16 Y4.57 F800.0
G01 X58.09 Y4.6 F800.0
G01 Y4.65 F800.0
G01 X58.34 F800.0
G01 X59.6 F800.0
G01 X59.68 Y4.67 F800.0
G01 X59.72 Y4.74 F800.0
G01 X59.76 F800.0
G01 Y4.38 F800.0
G01 X59.72 F800.0
G01 X59.68 Y4.45 F800.0
G01 X59.6 Y4.47 F800.0
G01 X59.5 F800.0
G01 X58.4 F800.0
G01 Y3.83 F800.0
G01 X59.18 F800.0
G01 X59.27 Y3.85 F800.0
G01 X59.3 Y3.92 F800.0
G01 X59.35 F800.0
G01 Y3.57 F800.0
G01 X59.3 F800.0
G01 X59.27 Y3.64 F800.0
G01 X59.18 Y3.65 F800.0
G01 X58.4 F800.0
M5
G00 X49.66 Y77.65 F1500.0
M4 S600 F1500.0
G01 Y79.65 F800.0
G01 Y81.05 F800.0
G01 F800.0
G01 X49.87 F800.0
G01 X50.87 F800.0
G01 X52.08 F800.0
G01 Y80.55 F800.0
G01 X51.72 F800.0
G01 X50.36 F800.0
G01 Y80.5 F800.0
G01 Y79.46 F800.0
G01 X50.53 F800.0
G01 X51.71 F800.0
G01 Y78.95 F800.0
G01 X51.53 F800.0
G01 X50.36 F800.0
G01 Y78.86 F800.0
G01 Y77.76 F800.0
G01 X50.73 F800.0
G01 X52.11 F800.0
G01 Y77.25 F800.0
G01 X51.88 F800.0
G01 X50.88 F800.0
G01 X49.66 F800.0
G01 Y77.65 F800.0
M5
G00 X48.93 Y80.2 F1500.0
M4 S600 F1500.0
G01 F800.0
G01 X48.34 Y80.01 F800.0
G01 X48.06 Y80.46 F800.0
G01 X47.59 Y80.6 F800.0
G01 X47.16 Y80.45 F800.0
G01 X47.01 Y80.12 F800.0
G01 X47.18 Y79.78 F800.0
G01 X47.86 Y79.49 F800.0
G01 X48.52 Y79.21 F800.0
G01 X48.89 Y78.85 F800.0
G01 X49.04 Y78.33 F800.0
G01 X48.94 Y77.88 F800.0
G01 X48.66 Y77.51 F800.0
G01 X48.21 Y77.26 F800.0
G01 X47.61 Y77.17 F800.0
G01 X47.08 Y77.24 F800.0
G01 X46.66 Y77.44 F800.0
G01 X46.35 Y77.77 F800.0
G01 X46.16 Y78.24 F800.0
G01 X46.78 Y78.4 F800.0
G01 X47.08 Y77.87 F800.0
G01 X47.64 Y77.7 F800.0
G01 X48.15 Y77.85 F800.0
G01 X48.33 Y78.24 F800.0
G01 X48.21 Y78.56 F800.0
G01 X47.6 Y78.87 F800.0
G01 X46.87 Y79.16 F800.0
G01 X46.49 Y79.51 F800.0
G01 X46.33 Y80.05 F800.0
G01 X46.42 Y80.47 F800.0
G01 X46.68 Y80.81 F800.0
G01 X47.09 Y81.04 F800.0
G01 X47.62 Y81.12 F800.0
G01 X48.46 Y80.89 F800.0
G01 X48.93 Y80.2 F800.0
G01 F800.0
M5
G00 X46.14 Y81.79 F1500.0
M4 S600 F1500.0
G01 F800.0
G01 X45.35 Y81.96 F800.0
G01 X44.76 Y82.46 F800.0
G01 X44.4 Y83.2 F800.0
G01 X44.28 Y84.08 F800.0
G01 X44.4 Y84.96 F800.0
G01 X44.77 Y85.69 F800.0
G01 X45.37 Y86.17 F800.0
G01 X46.18 Y86.33 F800.0
G01 X46.99 Y86.16 F800.0
G01 X47.57 Y85.64 F800.0
G01 X47.92 Y84.9 F800.0
G01 X48.04 Y84.07 F800.0
G01 X47.92 Y83.18 F800.0
G01 X47.56 Y82.45 F800.0
G01 X46.96 Y81.95 F800.0
G01 X46.14 Y81.79 F800.0
G01 F800.0
M5
G00 X46.17 Y85.49 F1500.0
M4 S600 F1500.0
G01 F800.0
G01 X45.82 Y85.4 F800.0
G01 X45.56 Y85.13 F800.0
G01 X45.55 Y85.09 F800.0
G01 X45.36 Y84.06 F800.0
G01 X45.37 Y84.02 F800.0
G01 X45.56 Y82.99 F800.0
G01 X45.82 Y82.72 F800.0
G01 X46.17 Y82.63 F800.0
G01 X46.52 Y82.72 F800.0
G01 X46.76 Y82.99 F800.0
G01 X46.77 Y83.03 F800.0
G01 X46.96 Y84.06 F800.0
G01 X46.95 Y84.1 F800.0
G01 X46.76 Y85.13 F800.0
G01 X46.52 Y85.4 F800.0
G01 X46.17 Y85.49 F800.0
G01 F800.0
M5
G00 X42.59 Y86.27 F1500.0
M4 S600 F1500.0
G01 X43.6 F800.0
G01 F800.0
G01 Y86.06 F800.0
G01 Y83.06 F800.0
G01 Y81.86 F800.0
G01 X43.59 F800.0
G01 X42.57 F800.0
G01 Y82.06 F800.0
G01 Y85.06 F800.0
G01 Y86.27 F800.0
G01 X42.59 F800.0
M5
G00 X39.01 Y86.27 F1500.0
M4 S600 F1500.0
G01 X41.01 F800.0
G01 X42.13 F800.0
G01 F800.0
G01 Y85.39 F800.0
G01 X42.08 F800.0
G01 X41.04 F800.0
G01 Y85.12 F800.0
G01 Y83.12 F800.0
G01 Y81.86 F800.0
G01 X41.02 F800.0
G01 X39.99 F800.0
G01 Y82.12 F800.0
G01 Y84.12 F800.0
G01 Y85.39 F800.0
G01 X39.94 F800.0
G01 X38.9 F800.0
G01 Y86.27 F800.0
G01 X39.01 F800.0
M5
G00 X38.52 Y86.27 F1500.0
M4 S600 F1500.0
G01 F800.0
G01 Y85.89 F800.0
G01 Y84.89 F800.0
G01 Y83.52 F800.0
G01 F800.0
G01 X38.37 Y82.53 F800.0
G01 X37.8 Y82.0 F800.0
G01 X37.77 Y81.99 F800.0
G01 X36.76 Y81.79 F800.0
G01 X36.75 F800.0
G01 X35.75 Y81.98 F800.0
G01 X35.19 Y82.51 F800.0
G01 X35.18 Y82.52 F800.0
G01 X35.0 Y83.52 F800.0
G01 Y83.89 F800.0
G01 Y84.89 F800.0
G01 Y86.27 F800.0
G01 X35.06 F800.0
G01 X36.12 F800.0
G01 Y85.89 F800.0
G01 Y84.89 F800.0
G01 Y83.52 F800.0
G01 X36.18 Y83.0 F800.0
G01 X36.42 Y82.73 F800.0
G01 X36.86 Y82.63 F800.0
G01 X37.33 Y82.73 F800.0
G01 X37.57 Y82.98 F800.0
G01 X37.63 Y83.52 F800.0
G01 Y83.89 F800.0
G01 Y84.89 F800.0
G01 Y86.27 F800.0
G01 X38.52 F800.0
M5
G00 X32.51 Y84.83 F1500.0
M4 S600 F1500.0
G01 X32.13 Y83.58 F800.0
G01 F800.0
G01 X33.07 F800.0
G01 X32.98 Y83.87 F800.0
G01 X32.6 Y85.12 F800.0
G01 X32.51 Y84.83 F800.0
M5
G00 X32.21 Y86.27 F1500.0
M4 S600 F1500.0
G01 X33.31 F800.0
G01 F800.0
G01 X33.4 Y85.97 F800.0
G01 X33.7 Y85.02 F800.0
G01 X34.0 Y84.06 F800.0
G01 X34.3 Y83.11 F800.0
G01 X34.69 Y81.86 F800.0
G01 X34.63 F800.0
G01 X33.58 F800.0
G01 X33.31 Y82.77 F800.0
G01 X33.1 F800.0
G01 X31.88 F800.0
G01 X31.61 Y81.86 F800.0
G01 X30.7 F800.0
G01 X30.8 Y82.16 F800.0
G01 X31.1 Y83.11 F800.0
G01 X31.41 Y84.06 F800.0
G01 X31.71 Y85.01 F800.0
G01 X32.11 Y86.27 F800.0
G01 X32.21 F800.0
M5
G00 X30.59 Y84.62 F1500.0
M4 S600 F1500.0
G01 F800.0
G01 X30.55 F800.0
G01 X29.51 Y84.56 F800.0
G01 X29.32 Y85.26 F800.0
G01 X28.79 Y85.49 F800.0
G01 X28.43 Y85.4 F800.0
G01 X28.18 Y85.13 F800.0
G01 X28.17 Y85.08 F800.0
G01 X27.98 Y84.05 F800.0
G01 X28.04 Y83.36 F800.0
G01 X28.2 Y82.93 F800.0
G01 X28.46 Y82.71 F800.0
G01 X28.81 Y82.63 F800.0
G01 X29.33 Y82.84 F800.0
G01 X29.59 Y83.47 F800.0
G01 F800.0
G01 X30.59 Y83.4 F800.0
G01 X30.4 Y82.71 F800.0
G01 X30.0 Y82.2 F800.0
G01 X29.46 Y81.89 F800.0
G01 X28.8 Y81.79 F800.0
G01 X28.01 Y81.94 F800.0
G01 X27.38 Y82.39 F800.0
G01 X26.97 Y83.11 F800.0
G01 X26.83 Y84.06 F800.0
G01 X26.96 Y84.97 F800.0
G01 X27.36 Y85.7 F800.0
G01 X27.99 Y86.17 F800.0
G01 X28.81 Y86.33 F800.0
G01 X29.51 Y86.23 F800.0
G01 X30.05 Y85.91 F800.0
G01 X30.41 Y85.37 F800.0
G01 X30.59 Y84.62 F800.0
G01 F800.0
M5
G00 X32.88 Y80.56 F1500.0
M4 S600 F1500.0
G01 F800.0
G01 Y80.44 F800.0
G01 Y79.32 F800.0
G01 X33.41 F800.0
G01 X33.94 Y79.5 F800.0
G01 X34.11 Y79.97 F800.0
G01 X33.94 Y80.41 F800.0
G01 X33.42 Y80.56 F800.0
G01 X32.88 F800.0
M5
G00 X32.18 Y77.65 F1500.0
M4 S600 F1500.0
G01 Y79.65 F800.0
G01 Y81.05 F800.0
G01 F800.0
G01 X32.31 F800.0
G01 X33.45 F800.0
G01 X34.05 Y80.98 F800.0
G01 X34.47 Y80.77 F800.0
G01 X34.71 Y80.43 F800.0
G01 X34.8 Y79.96 F800.0
G01 X34.63 Y79.36 F800.0
G01 X34.15 Y78.97 F800.0
G01 X34.34 Y78.56 F800.0
G01 X34.95 Y77.25 F800.0
G01 X34.19 F800.0
G01 X34.05 Y77.58 F800.0
G01 X33.53 Y78.83 F800.0
G01 X32.88 F800.0
G01 Y78.54 F800.0
G01 Y77.25 F800.0
G01 X32.18 F800.0
G01 Y77.65 F800.0
M5
G00 X29.26 Y77.65 F1500.0
M4 S600 F1500.0
G01 Y79.65 F800.0
G01 Y81.05 F800.0
G01 F800.0
G01 X29.47 F800.0
G01 X30.47 F800.0
G01 X31.68 F800.0
G01 Y80.55 F800.0
G01 X31.32 F800.0
G01 X29.96 F800.0
G01 Y80.5 F800.0
G01 Y79.46 F800.0
G01 X30.13 F800.0
G01 X31.31 F800.0
G01 Y78.95 F800.0
G01 X31.13 F800.0
G01 X29.96 F800.0
G01 Y78.86 F800.0
G01 Y77.76 F800.0
G01 X30.33 F800.0
G01 X31.71 F800.0
G01 Y77.25 F800.0
G01 X31.48 F800.0
G01 X30.48 F800.0
G01 X29.26 F800.0
G01 Y77.65 F800.0
M5
G00 X28.54 Y80.2 F1500.0
M4 S600 F1500.0
G01 F800.0
G01 X27.94 Y80.01 F800.0
G01 X27.66 Y80.46 F800.0
G01 X27.19 Y80.6 F800.0
G01 X26.76 Y80.45 F800.0
G01 X26.62 Y80.12 F800.0
G01 X26.78 Y79.78 F800.0
G01 X27.46 Y79.49 F800.0
G01 X28.12 Y79.21 F800.0
G01 X28.5 Y78.85 F800.0
G01 X28.64 Y78.33 F800.0
G01 X28.55 Y77.88 F800.0
G01 X28.26 Y77.51 F800.0
G01 X27.81 Y77.26 F800.0
G01 X27.21 Y77.17 F800.0
G01 X26.68 Y77.24 F800.0
G01 X26.26 Y77.44 F800.0
G01 X25.96 Y77.77 F800.0
G01 X25.76 Y78.24 F800.0
G01 X26.39 Y78.4 F800.0
G01 X26.68 Y77.87 F800.0
G01 X27.24 Y77.7 F800.0
G01 X27.75 Y77.85 F800.0
G01 X27.93 Y78.24 F800.0
G01 X27.81 Y78.56 F800.0
G01 X27.21 Y78.87 F800.0
G01 X26.47 Y79.16 F800.0
G01 X26.09 Y79.51 F800.0
G01 X25.93 Y80.05 F800.0
G01 X26.02 Y80.47 F800.0
G01 X26.28 Y80.81 F800.0
G01 X26.7 Y81.04 F800.0
G01 X27.22 Y81.12 F800.0
G01 X28.06 Y80.89 F800.0
G01 X28.54 Y80.2 F800.0
G01 F800.0
M5
G00 X25.67 Y82.22 F1500.0
M4 S600 F1500.0
G01 F800.0
G01 X25.51 Y82.51 F800.0
G01 X24.01 Y85.11 F800.0
G01 X23.34 Y86.26 F800.0
G01 X23.05 Y86.43 F800.0
G01 X22.75 Y86.26 F800.0
G01 X22.58 Y85.96 F800.0
G01 X21.08 Y83.37 F800.0
G01 X20.41 Y82.2 F800.0
G01 Y81.86 F800.0
G01 X20.7 Y81.69 F800.0
G01 X21.05 F800.0
G01 X24.05 F800.0
G01 X25.39 F800.0
G01 X25.63 Y81.79 F800.0
G01 X25.73 Y82.03 F800.0
G01 X25.67 Y82.22 F800.0
G01 F800.0
M5
G00 X25.39 Y81.89 F1500.0
M4 S600 F1500.0
G01 F800.0
G01 X25.05 F800.0
G01 X22.05 F800.0
G01 X20.7 F800.0
G01 X20.58 Y81.96 F800.0
G01 Y82.11 F800.0
G01 X20.75 Y82.4 F800.0
G01 X22.25 Y85.0 F800.0
G01 X22.92 Y86.16 F800.0
G01 X23.05 Y86.23 F800.0
G01 X23.17 Y86.16 F800.0
G01 X23.34 Y85.87 F800.0
G01 X24.34 Y84.14 F800.0
G01 X24.84 Y83.27 F800.0
G01 X25.5 Y82.12 F800.0
G01 X25.53 Y82.03 F800.0
G01 X25.39 Y81.89 F800.0
G01 F800.0
M5
G00 X23. Y82.74 F1500.0
M4 S600 F1500.0
G01 F800.0
G01 X23.18 Y82.55 F800.0
G01 X23.0 Y82.37 F800.0
G01 X22.83 Y82.55 F800.0
G01 X23.0 Y82.74 F800.0
G01 F800.0
M5
G00 X23. Y82.81 F1500.0
M4 S600 F1500.0
G01 F800.0
G01 X22.83 Y82.74 F800.0
G01 X22.76 Y82.55 F800.0
G01 X22.83 Y82.37 F800.0
G01 X23.0 Y82.3 F800.0
G01 X23.18 Y82.37 F800.0
G01 X23.25 Y82.55 F800.0
G01 X23.18 Y82.74 F800.0
G01 X23.0 Y82.81 F800.0
G01 F800.0
M5
G00 X23. Y82.88 F1500.0
M4 S600 F1500.0
G01 F800.0
G01 X22.79 Y82.78 F800.0
G01 X22.7 Y82.55 F800.0
G01 X22.79 Y82.33 F800.0
G01 X23.0 Y82.23 F800.0
G01 X23.23 Y82.33 F800.0
G01 X23.32 Y82.55 F800.0
G01 X23.23 Y82.78 F800.0
G01 X23.0 Y82.88 F800.0
G01 F800.0
M5
G00 X22.82 Y84.49 F1500.0
M4 S600 F1500.0
G01 X22.86 Y83.07 F800.0
G01 F800.0
G01 X23.15 F800.0
G01 X23.16 Y83.49 F800.0
G01 X23.21 Y84.91 F800.0
G01 X22.8 F800.0
G01 X22.82 Y84.49 F800.0
M5
G00 X22.87 Y84.85 F1500.0
M4 S600 F1500.0
G01 F800.0
G01 X23.14 F800.0
G01 X23.13 Y84.49 F800.0
G01 X23.09 Y83.14 F800.0
G01 X22.92 F800.0
G01 X22.91 Y83.49 F800.0
G01 X22.87 Y84.85 F800.0
G01 F800.0
M5
G00 X22.73 Y84.98 F1500.0
M4 S600 F1500.0
G01 F800.0
G01 X22.75 Y84.49 F800.0
G01 X22.79 Y83.0 F800.0
G01 X22.86 F800.0
G01 X23.22 F800.0
G01 X23.23 Y83.49 F800.0
G01 X23.28 Y84.98 F800.0
G01 X22.73 F800.0
G01 F800.0
M5
G00 X23.05 Y86.16 F1500.0
M4 S600 F1500.0
G01 F800.0
G01 X23.11 Y86.13 F800.0
G01 X23.28 Y85.84 F800.0
G01 X24.78 Y83.24 F800.0
G01 X25.45 Y82.08 F800.0
G01 F800.0
G01 X25.46 Y82.03 F800.0
G01 X25.39 Y81.96 F800.0
G01 X25.05 F800.0
G01 X22.05 F800.0
G01 X20.7 F800.0
G01 X20.64 Y82.0 F800.0
G01 F800.0
G01 F800.0
G01 Y82.07 F800.0
G01 F800.0
G01 X20.81 Y82.37 F800.0
G01 X21.31 Y83.23 F800.0
G01 X21.81 Y84.1 F800.0
G01 X22.31 Y84.97 F800.0
G01 X22.98 Y86.13 F800.0
G01 X23.05 Y86.16 F800.0
G01 F800.0
M5
G00 X23.05 Y86.3 F1500.0
M4 S600 F1500.0
G01 F800.0
G01 X22.86 Y86.19 F800.0
G01 F800.0
G01 X22.69 Y85.9 F800.0
G01 X22.19 Y85.03 F800.0
G01 X21.19 Y83.3 F800.0
G01 X20.52 Y82.14 F800.0
G01 F800.0
G01 Y81.93 F800.0
G01 X20.7 Y81.82 F800.0
G01 X21.05 F800.0
G01 X24.05 F800.0
G01 X25.39 F800.0
G01 X25.6 Y82.03 F800.0
G01 X25.56 Y82.16 F800.0
G01 Y82.15 F800.0
G01 X25.4 Y82.44 F800.0
G01 X23.9 Y85.04 F800.0
G01 X23.23 Y86.19 F800.0
G01 F800.0
G01 X23.05 Y86.3 F800.0
G01 F800.0
M5
G00 X23.05 Y86.36 F1500.0
M4 S600 F1500.0
G01 F800.0
G01 X23.28 Y86.23 F800.0
G01 Y86.22 F800.0
G01 X23.45 Y85.94 F800.0
G01 X24.95 Y83.34 F800.0
G01 X25.61 Y82.19 F800.0
G01 X25.62 Y82.18 F800.0
G01 X25.66 Y82.03 F800.0
G01 X25.58 Y81.84 F800.0
G01 X25.39 Y81.76 F800.0
G01 X25.05 F800.0
G01 X22.05 F800.0
G01 X20.7 F800.0
G01 X20.47 Y81.9 F800.0
G01 F800.0
G01 Y82.17 F800.0
G01 X20.64 Y82.47 F800.0
G01 X22.14 Y85.06 F800.0
G01 X22.81 Y86.23 F800.0
G01 F800.0
G01 X23.05 Y86.36 F800.0
G01 F800.0
M5
G00 X23.05 Y86.5 F1500.0
M4 S600 F1500.0
G01 F800.0
G01 X22.69 Y86.29 F800.0
G01 X22.52 Y86.0 F800.0
G01 X21.02 Y83.4 F800.0
G01 X20.35 Y82.24 F800.0
G01 F800.0
G01 Y81.83 F800.0
G01 X20.7 Y81.62 F800.0
G01 X21.05 F800.0
G01 X24.05 F800.0
G01 X25.39 F800.0
G01 X25.68 Y81.74 F800.0
G01 X25.8 Y82.03 F800.0
G01 X25.73 Y82.26 F800.0
G01 F800.0
G01 X25.57 Y82.54 F800.0
G01 X24.07 Y85.14 F800.0
G01 X23.4 Y86.29 F800.0
G01 F800.0
G01 X23.05 Y86.5 F800.0
G01 F800.0
M5
G00 X24.48 Y78.69 F1500.0
M4 S600 F1500.0
G01 F800.0
G01 X24.37 Y79.08 F800.0
G01 X24.0 Y80.44 F800.0
G01 X23.89 Y80.05 F800.0
G01 X23.52 Y78.69 F800.0
G01 X24.48 F800.0
M5
G00 X22.61 Y77.72 F1500.0
M4 S600 F1500.0
G01 X22.91 Y78.67 F800.0
G01 X23.22 Y79.62 F800.0
G01 X23.68 Y81.05 F800.0
G01 F800.0
G01 X24.46 F800.0
G01 X24.6 Y80.59 F800.0
G01 X24.89 Y79.63 F800.0
G01 X25.17 Y78.67 F800.0
G01 X25.59 Y77.25 F800.0
G01 X24.89 F800.0
G01 X24.62 Y78.2 F800.0
G01 X24.5 F800.0
G01 X23.38 F800.0
G01 X23.12 Y77.25 F800.0
G01 X22.45 F800.0
G01 X22.61 Y77.72 F800.0
M5
G00 X20.29 Y77.65 F1500.0
M4 S600 F1500.0
G01 Y79.65 F800.0
G01 Y81.05 F800.0
G01 F800.0
G01 X20.99 F800.0
G01 Y80.91 F800.0
G01 Y78.91 F800.0
G01 Y77.78 F800.0
G01 X21.24 F800.0
G01 X22.49 F800.0
G01 Y77.25 F800.0
G01 X22.39 F800.0
G01 X21.39 F800.0
G01 X20.29 F800.0
G01 Y77.65 F800.0
M5
G00 X36.7 Y77.65 F1500.0
M4 S600 F1500.0
G01 Y79.65 F800.0
G01 Y81.05 F800.0
G01 F800.0
G01 X37.4 F800.0
G01 Y80.65 F800.0
G01 Y78.65 F800.0
G01 Y77.25 F800.0
G01 X36.7 F800.0
G01 Y77.65 F800.0
M5
G00 X38.19 Y77.65 F1500.0
M4 S600 F1500.0
G01 Y79.65 F800.0
G01 Y81.05 F800.0
G01 F800.0
G01 X39.02 F800.0
G01 X39.03 Y81.02 F800.0
G01 X39.94 Y79.23 F800.0
G01 X40.41 Y78.31 F800.0
G01 Y78.68 F800.0
G01 Y79.68 F800.0
G01 Y81.05 F800.0
G01 X40.99 F800.0
G01 Y80.65 F800.0
G01 Y78.65 F800.0
G01 Y77.25 F800.0
G01 X40.34 F800.0
G01 X40.24 Y77.43 F800.0
G01 X39.33 Y79.21 F800.0
G01 X38.78 Y80.29 F800.0
G01 Y80.27 F800.0
G01 Y78.27 F800.0
G01 Y77.25 F800.0
G01 X38.19 F800.0
G01 Y77.65 F800.0
M5
G00 X42.93 Y78.87 F1500.0
M4 S600 F1500.0
G01 Y79.87 F800.0
G01 Y81.05 F800.0
G01 X43.61 F800.0
G01 Y80.87 F800.0
G01 Y79.87 F800.0
G01 Y78.69 F800.0
G01 X43.66 Y78.1 F800.0
G01 X43.87 Y77.81 F800.0
G01 X44.32 Y77.7 F800.0
G01 X44.73 Y77.79 F800.0
G01 X44.95 Y78.04 F800.0
G01 X45.01 Y78.7 F800.0
G01 Y78.88 F800.0
G01 Y79.88 F800.0
G01 Y81.05 F800.0
G01 X45.64 F800.0
G01 Y80.89 F800.0
G01 Y79.89 F800.0
G01 Y78.73 F800.0
G01 X45.55 Y77.87 F800.0
G01 X45.14 Y77.37 F800.0
G01 X44.28 Y77.17 F800.0
G01 X43.55 Y77.3 F800.0
G01 X43.09 Y77.7 F800.0
G01 F800.0
G01 X42.93 Y78.69 F800.0
G01 Y78.87 F800.0
M5
G00 X52.11 Y86.27 F1500.0
M4 S600 F1500.0
G01 F800.0
G01 Y86.06 F800.0
G01 Y83.06 F800.0
G01 Y81.86 F800.0
G01 X51.23 F800.0
G01 X51.11 Y82.05 F800.0
G01 X50.11 Y83.78 F800.0
G01 X49.5 Y84.83 F800.0
G01 Y84.69 F800.0
G01 X49.52 Y84.5 F800.0
G01 Y84.18 F800.0
G01 Y83.18 F800.0
G01 Y81.86 F800.0
G01 X48.71 F800.0
G01 Y82.06 F800.0
G01 Y85.06 F800.0
G01 Y86.27 F800.0
G01 X48.77 F800.0
G01 X49.83 F800.0
G01 Y86.26 F800.0
G01 X50.83 Y84.53 F800.0
G01 X51.33 Y83.67 F800.0
G01 X51.31 Y83.96 F800.0
G01 Y84.11 F800.0
G01 Y85.11 F800.0
G01 Y86.27 F800.0
G01 X52.11 F800.0
M5
G00 X42.96 Y97.45 F1500.0
M4 S600 F1500.0
G01 F800.0
G01 X42.88 Y97.54 F800.0
G01 X42.82 Y97.59 F800.0
G01 F800.0
G01 X40.82 F800.0
G01 X39.82 F800.0
G01 F800.0
G01 X37.82 F800.0
G01 X36.81 F800.0
G01 X36.78 Y97.65 F800.0
G01 X36.46 Y97.97 F800.0
G01 X35.94 F800.0
G01 X35.61 Y97.66 F800.0
G01 X35.55 Y97.37 F800.0
G01 X35.61 Y97.08 F800.0
G01 X35.94 Y96.77 F800.0
G01 X36.46 F800.0
G01 X36.78 Y97.09 F800.0
G01 X36.81 Y97.16 F800.0
G01 X36.82 F800.0
G01 X38.82 F800.0
G01 X39.82 F800.0
G01 F800.0
G01 X41.82 F800.0
G01 X42.83 F800.0
G01 X42.89 Y97.22 F800.0
G01 X42.96 Y97.45 F800.0
G01 F800.0
M5
G00 X40.24 Y95.27 F1500.0
M4 S600 F1500.0
G01 F800.0
G01 X39.94 Y95.44 F800.0
G01 X38.78 Y96.13 F800.0
G01 X38.57 Y96.25 F800.0
G01 X37.48 Y96.86 F800.0
G01 X37.2 Y96.89 F800.0
G01 X37.17 Y96.58 F800.0
G01 X37.3 Y96.51 F800.0
G01 X39.02 Y95.5 F800.0
G01 X40.01 Y94.93 F800.0
G01 X40.25 Y94.98 F800.0
G01 X40.24 Y95.27 F800.0
G01 F800.0
M5
G00 X37.77 Y95.09 F1500.0
M4 S600 F1500.0
G01 F800.0
G01 X37.3 Y95.9 F800.0
G01 X36.95 Y96.42 F800.0
G01 X36.74 F800.0
G01 X36.65 Y96.23 F800.0
G01 X37.11 Y95.36 F800.0
G01 X37.62 Y94.52 F800.0
G01 X37.83 Y94.5 F800.0
G01 X37.95 Y94.67 F800.0
G01 X37.77 Y95.09 F800.0
G01 F800.0
M5
G00 X36.39 Y96.15 F1500.0
M4 S600 F1500.0
G01 F800.0
G01 X36.18 Y96.27 F800.0
G01 X35.99 Y96.11 F800.0
G01 Y96.08 F800.0
G01 X35.98 Y95.08 F800.0
G01 Y94.05 F800.0
G01 Y94.02 F800.0
G01 X36.0 Y93.02 F800.0
G01 X36.03 Y92.0 F800.0
G01 X36.2 Y91.91 F800.0
G01 X36.36 Y92.0 F800.0
G01 X36.37 Y92.03 F800.0
G01 X36.39 Y93.03 F800.0
G01 X36.41 Y94.07 F800.0
G01 Y94.11 F800.0
G01 X36.4 Y95.11 F800.0
G01 X36.39 Y96.15 F800.0
G01 F800.0
M5
G00 X35.74 Y96.31 F1500.0
M4 S600 F1500.0
G01 F800.0
G01 X35.6 Y96.43 F800.0
G01 X35.41 Y96.4 F800.0
G01 X35.24 Y96.11 F800.0
G01 X34.55 Y94.96 F800.0
G01 X34.38 Y94.65 F800.0
G01 X33.74 Y93.47 F800.0
G01 X33.94 Y93.27 F800.0
G01 X34.09 Y93.33 F800.0
G01 X34.17 Y93.46 F800.0
G01 X34.67 Y94.33 F800.0
G01 X35.17 Y95.2 F800.0
G01 X35.74 Y96.2 F800.0
G01 Y96.31 F800.0
G01 F800.0
M5
G00 X35.2 Y96.87 F1500.0
M4 S600 F1500.0
G01 F800.0
G01 X34.97 Y96.9 F800.0
G01 X34.2 Y96.47 F800.0
G01 X33.37 Y95.98 F800.0
