(1001)
(Machine)
(  vendor: Autodesk)
(  model: Sainsmart 3018pro)
(  description: 3018)
G90 G94
G17
G21
(When using Fusion 360 for Personal Use, the feedrate of)
(rapid moves is reduced to match the feedrate of cutting)
(moves, which can increase machining time. Unrestricted rapid)
(moves are available with a Fusion 360 Subscription.)

(2D Contour4)
G54
G0 Z5 F1500
G0 X14.323 Y-0.8
S5000 M3
G1 Z2 F600
G19 G3 Y0.7 Z0.5 J1.5 K0
G1 Y2.2
G17 G2 X15.823 Y3.7 I1.5 J0
G1 X37.3 Z-0.25 F333.3
X69.5 F600
G3 X71.1 Y5.3 I0 J1.6
G1 Y7.8
G3 X69.5 Y9.4 I-1.6 J0
G1 X66.5
Y45.2
X71.4
G3 X73 Y46.8 I0 J1.6
G1 Y50.8
G3 X71.4 Y52.4 I-1.6 J0
G1 X70.4
G3 X68.8 Y50.8 I0 J-1.6
G1 Y49.4
X66.5
Y51.8
G3 X65.9 Y52.4 I-0.6 J0
G1 X8.7
G3 X8.1 Y51.8 I0 J-0.6
G1 Y49.4
X5.8
Y50.8
G3 X4.2 Y52.4 I-1.6 J0
G1 X3.2
G3 X1.6 Y50.8 I0 J-1.6
G1 Y46.8
G3 X3.2 Y45.2 I1.6 J0
G1 X8.1
Y9.4
X5.1
G3 X3.5 Y7.8 I0 J-1.6
G1 Y5.3
G3 X5.1 Y3.7 I1.6 J0
G1 X37.3
G2 X38.8 Y2.2 I0 J-1.5
G1 Y0.7
G19 G2 Y-0.8 Z1.25 J0 K1.5
G1 Z3
X14.323 Y-0.7
Z2
G3 Y0.8 Z0.5 J1.5 K0
G1 Y2.3
G17 G2 X15.823 Y3.8 I1.5 J0
G1 X37.3 Z-0.25 F333.3
X69.5 F600
G3 X71 Y5.3 I0 J1.5
G1 Y7.8
G3 X69.5 Y9.3 I-1.5 J0
G1 X66.4
Y45.3
X71.4
G3 X72.9 Y46.8 I0 J1.5
G1 Y50.8
G3 X71.4 Y52.3 I-1.5 J0
G1 X70.4
G3 X68.9 Y50.8 I0 J-1.5
G1 Y49.3
X66.4
Y51.8
G3 X65.9 Y52.3 I-0.5 J0
G1 X8.7
G3 X8.2 Y51.8 I0 J-0.5
G1 Y49.3
X5.7
Y50.8
G3 X4.2 Y52.3 I-1.5 J0
G1 X3.2
G3 X1.7 Y50.8 I0 J-1.5
G1 Y46.8
G3 X3.2 Y45.3 I1.5 J0
G1 X8.2
Y9.3
X5.1
G3 X3.6 Y7.8 I0 J-1.5
G1 Y5.3
G3 X5.1 Y3.8 I1.5 J0
G1 X37.3
X38.3
G2 X39.8 Y2.3 I0 J-1.5
G1 Y0.8
G19 G2 Y-0.7 Z1.25 J0 K1.5
G1 Z3
X60.277 Y56.9
Z2
Z1.75 F200
G2 Y55.4 Z0.25 J-1.5 K0 F600
G1 Y53.9
G17 G2 X58.777 Y52.4 I-1.5 J0
G1 X37.3 Z-0.5 F333.3
X8.7 F600
G3 X8.1 Y51.8 I0 J-0.6
G1 Y49.4
X5.8
Y50.8
G3 X4.2 Y52.4 I-1.6 J0
G1 X3.2
G3 X1.6 Y50.8 I0 J-1.6
G1 Y46.8
G3 X3.2 Y45.2 I1.6 J0
G1 X8.1
Y9.4
X5.1
G3 X3.5 Y7.8 I0 J-1.6
G1 Y5.3
G3 X5.1 Y3.7 I1.6 J0
G1 X69.5
G3 X71.1 Y5.3 I0 J1.6
G1 Y7.8
G3 X69.5 Y9.4 I-1.6 J0
G1 X66.5
Y45.2
X71.4
G3 X73 Y46.8 I0 J1.6
G1 Y50.8
G3 X71.4 Y52.4 I-1.6 J0
G1 X70.4
G3 X68.8 Y50.8 I0 J-1.6
G1 Y49.4
X66.5
Y51.8
G3 X65.9 Y52.4 I-0.6 J0
G1 X37.3
G2 X35.8 Y53.9 I0 J1.5
G1 Y55.4
G19 G3 Y56.9 Z1 J0 K1.5
G1 Z3
X60.277 Y56.8
Z2
Z1.75 F200
G2 Y55.3 Z0.25 J-1.5 K0 F600
G1 Y53.8
G17 G2 X58.777 Y52.3 I-1.5 J0
G1 X37.3 Z-0.5 F333.3
X8.7 F600
G3 X8.2 Y51.8 I0 J-0.5
G1 Y49.3
X5.7
Y50.8
G3 X4.2 Y52.3 I-1.5 J0
G1 X3.2
G3 X1.7 Y50.8 I0 J-1.5
G1 Y46.8
G3 X3.2 Y45.3 I1.5 J0
G1 X8.2
Y9.3
X5.1
G3 X3.6 Y7.8 I0 J-1.5
G1 Y5.3
G3 X5.1 Y3.8 I1.5 J0
G1 X69.5
G3 X71 Y5.3 I0 J1.5
G1 Y7.8
G3 X69.5 Y9.3 I-1.5 J0
G1 X66.4
Y45.3
X71.4
G3 X72.9 Y46.8 I0 J1.5
G1 Y50.8
G3 X71.4 Y52.3 I-1.5 J0
G1 X70.4
G3 X68.9 Y50.8 I0 J-1.5
G1 Y49.3
X66.4
Y51.8
G3 X65.9 Y52.3 I-0.5 J0
G1 X37.3
X36.3
G2 X34.8 Y53.8 I0 J1.5
G1 Y55.3
G19 G3 Y56.8 Z1 J0 K1.5
G1 Z3
X60.277 Y56.9
Z2
Z1.5 F200
G2 Y55.4 Z0 J-1.5 K0 F600
G1 Y53.9
G17 G2 X58.777 Y52.4 I-1.5 J0
G1 X37.3 Z-0.75 F333.3
X8.7 F600
G3 X8.1 Y51.8 I0 J-0.6
G1 Y49.4
X5.8
Y50.8
G3 X4.2 Y52.4 I-1.6 J0
G1 X3.2
G3 X1.6 Y50.8 I0 J-1.6
G1 Y46.8
G3 X3.2 Y45.2 I1.6 J0
G1 X8.1
Y9.4
X5.1
G3 X3.5 Y7.8 I0 J-1.6
G1 Y5.3
G3 X5.1 Y3.7 I1.6 J0
G1 X69.5
G3 X71.1 Y5.3 I0 J1.6
G1 Y7.8
G3 X69.5 Y9.4 I-1.6 J0
G1 X66.5
Y45.2
X71.4
G3 X73 Y46.8 I0 J1.6
G1 Y50.8
G3 X71.4 Y52.4 I-1.6 J0
G1 X70.4
G3 X68.8 Y50.8 I0 J-1.6
G1 Y49.4
X66.5
Y51.8
G3 X65.9 Y52.4 I-0.6 J0
G1 X37.3
G2 X35.8 Y53.9 I0 J1.5
G1 Y55.4
G19 G3 Y56.9 Z0.75 J0 K1.5
G1 Z3
X60.277 Y56.8
Z2
Z1.5 F200
G2 Y55.3 Z0 J-1.5 K0 F600
G1 Y53.8
G17 G2 X58.777 Y52.3 I-1.5 J0
G1 X37.3 Z-0.75 F333.3
X8.7 F600
G3 X8.2 Y51.8 I0 J-0.5
G1 Y49.3
X5.7
Y50.8
G3 X4.2 Y52.3 I-1.5 J0
G1 X3.2
G3 X1.7 Y50.8 I0 J-1.5
G1 Y46.8
G3 X3.2 Y45.3 I1.5 J0
G1 X8.2
Y9.3
X5.1
G3 X3.6 Y7.8 I0 J-1.5
G1 Y5.3
G3 X5.1 Y3.8 I1.5 J0
G1 X69.5
G3 X71 Y5.3 I0 J1.5
G1 Y7.8
G3 X69.5 Y9.3 I-1.5 J0
G1 X66.4
Y45.3
X71.4
G3 X72.9 Y46.8 I0 J1.5
G1 Y50.8
G3 X71.4 Y52.3 I-1.5 J0
G1 X70.4
G3 X68.9 Y50.8 I0 J-1.5
G1 Y49.3
X66.4
Y51.8
G3 X65.9 Y52.3 I-0.5 J0
G1 X37.3
X36.3
G2 X34.8 Y53.8 I0 J1.5
G1 Y55.3
G19 G3 Y56.8 Z0.75 J0 K1.5
G1 Z3
X60.277 Y56.9
Z2
Z1.25 F200
G2 Y55.4 Z-0.25 J-1.5 K0 F600
G1 Y53.9
G17 G2 X58.777 Y52.4 I-1.5 J0
G1 X37.3 Z-1 F333.3
X8.7 F600
G3 X8.1 Y51.8 I0 J-0.6
G1 Y49.4
X5.8
Y50.8
G3 X4.2 Y52.4 I-1.6 J0
G1 X3.2
G3 X1.6 Y50.8 I0 J-1.6
G1 Y46.8
G3 X3.2 Y45.2 I1.6 J0
G1 X8.1
Y9.4
X5.1
G3 X3.5 Y7.8 I0 J-1.6
G1 Y5.3
G3 X5.1 Y3.7 I1.6 J0
G1 X69.5
G3 X71.1 Y5.3 I0 J1.6
G1 Y7.8
G3 X69.5 Y9.4 I-1.6 J0
G1 X66.5
Y45.2
X71.4
G3 X73 Y46.8 I0 J1.6
G1 Y50.8
G3 X71.4 Y52.4 I-1.6 J0
G1 X70.4
G3 X68.8 Y50.8 I0 J-1.6
G1 Y49.4
X66.5
Y51.8
G3 X65.9 Y52.4 I-0.6 J0
G1 X37.3
G2 X35.8 Y53.9 I0 J1.5
G1 Y55.4
G19 G3 Y56.9 Z0.5 J0 K1.5
G1 Z3
X60.277 Y56.8
Z2
Z1.25 F200
G2 Y55.3 Z-0.25 J-1.5 K0 F600
G1 Y53.8
G17 G2 X58.777 Y52.3 I-1.5 J0
G1 X37.3 Z-1 F333.3
X8.7 F600
G3 X8.2 Y51.8 I0 J-0.5
G1 Y49.3
X5.7
Y50.8
G3 X4.2 Y52.3 I-1.5 J0
G1 X3.2
G3 X1.7 Y50.8 I0 J-1.5
G1 Y46.8
G3 X3.2 Y45.3 I1.5 J0
G1 X8.2
Y9.3
X5.1
G3 X3.6 Y7.8 I0 J-1.5
G1 Y5.3
G3 X5.1 Y3.8 I1.5 J0
G1 X69.5
G3 X71 Y5.3 I0 J1.5
G1 Y7.8
G3 X69.5 Y9.3 I-1.5 J0
G1 X66.4
Y45.3
X71.4
G3 X72.9 Y46.8 I0 J1.5
G1 Y50.8
G3 X71.4 Y52.3 I-1.5 J0
G1 X70.4
G3 X68.9 Y50.8 I0 J-1.5
G1 Y49.3
X66.4
Y51.8
G3 X65.9 Y52.3 I-0.5 J0
G1 X37.3
X36.3
G2 X34.8 Y53.8 I0 J1.5
G1 Y55.3
G19 G3 Y56.8 Z0.5 J0 K1.5
G1 Z3
X60.277 Y56.9
Z2
Z1 F200
G2 Y55.4 Z-0.5 J-1.5 K0 F600
G1 Y53.9
G17 G2 X58.777 Y52.4 I-1.5 J0
G1 X37.3 Z-1.25 F333.3
X8.7 F600
G3 X8.1 Y51.8 I0 J-0.6
G1 Y49.4
X5.8
Y50.8
G3 X4.2 Y52.4 I-1.6 J0
G1 X3.2
G3 X1.6 Y50.8 I0 J-1.6
G1 Y46.8
G3 X3.2 Y45.2 I1.6 J0
G1 X8.1
Y9.4
X5.1
G3 X3.5 Y7.8 I0 J-1.6
G1 Y5.3
G3 X5.1 Y3.7 I1.6 J0
G1 X69.5
G3 X71.1 Y5.3 I0 J1.6
G1 Y7.8
G3 X69.5 Y9.4 I-1.6 J0
G1 X66.5
Y45.2
X71.4
G3 X73 Y46.8 I0 J1.6
G1 Y50.8
G3 X71.4 Y52.4 I-1.6 J0
G1 X70.4
G3 X68.8 Y50.8 I0 J-1.6
G1 Y49.4
X66.5
Y51.8
G3 X65.9 Y52.4 I-0.6 J0
G1 X37.3
G2 X35.8 Y53.9 I0 J1.5
G1 Y55.4
G19 G3 Y56.9 Z0.25 J0 K1.5
G1 Z3
X60.277 Y56.8
Z2
Z1 F200
G2 Y55.3 Z-0.5 J-1.5 K0 F600
G1 Y53.8
G17 G2 X58.777 Y52.3 I-1.5 J0
G1 X37.3 Z-1.25 F333.3
X8.7 F600
G3 X8.2 Y51.8 I0 J-0.5
G1 Y49.3
X5.7
Y50.8
G3 X4.2 Y52.3 I-1.5 J0
G1 X3.2
G3 X1.7 Y50.8 I0 J-1.5
G1 Y46.8
G3 X3.2 Y45.3 I1.5 J0
G1 X8.2
Y9.3
X5.1
G3 X3.6 Y7.8 I0 J-1.5
G1 Y5.3
G3 X5.1 Y3.8 I1.5 J0
G1 X69.5
G3 X71 Y5.3 I0 J1.5
G1 Y7.8
G3 X69.5 Y9.3 I-1.5 J0
G1 X66.4
Y45.3
X71.4
G3 X72.9 Y46.8 I0 J1.5
G1 Y50.8
G3 X71.4 Y52.3 I-1.5 J0
G1 X70.4
G3 X68.9 Y50.8 I0 J-1.5
G1 Y49.3
X66.4
Y51.8
G3 X65.9 Y52.3 I-0.5 J0
G1 X37.3
X36.3
G2 X34.8 Y53.8 I0 J1.5
G1 Y55.3
G19 G3 Y56.8 Z0.25 J0 K1.5
G1 Z3
X60.277 Y56.9
Z2
Z0.75 F200
G2 Y55.4 Z-0.75 J-1.5 K0 F600
G1 Y53.9
G17 G2 X58.777 Y52.4 I-1.5 J0
G1 X37.3 Z-1.5 F333.3
X8.7 F600
G3 X8.1 Y51.8 I0 J-0.6
G1 Y49.4
X5.8
Y50.8
G3 X4.2 Y52.4 I-1.6 J0
G1 X3.2
G3 X1.6 Y50.8 I0 J-1.6
G1 Y46.8
G3 X3.2 Y45.2 I1.6 J0
G1 X8.1
Y9.4
X5.1
G3 X3.5 Y7.8 I0 J-1.6
G1 Y5.3
G3 X5.1 Y3.7 I1.6 J0
G1 X69.5
G3 X71.1 Y5.3 I0 J1.6
G1 Y7.8
G3 X69.5 Y9.4 I-1.6 J0
G1 X66.5
Y45.2
X71.4
G3 X73 Y46.8 I0 J1.6
G1 Y50.8
G3 X71.4 Y52.4 I-1.6 J0
G1 X70.4
G3 X68.8 Y50.8 I0 J-1.6
G1 Y49.4
X66.5
Y51.8
G3 X65.9 Y52.4 I-0.6 J0
G1 X37.3
G2 X35.8 Y53.9 I0 J1.5
G1 Y55.4
G19 G3 Y56.9 Z0 J0 K1.5
G1 Z3
X60.277 Y56.8
Z2
Z0.75 F200
G2 Y55.3 Z-0.75 J-1.5 K0 F600
G1 Y53.8
G17 G2 X58.777 Y52.3 I-1.5 J0
G1 X37.3 Z-1.5 F333.3
X8.7 F600
G3 X8.2 Y51.8 I0 J-0.5
G1 Y49.3
X5.7
Y50.8
G3 X4.2 Y52.3 I-1.5 J0
G1 X3.2
G3 X1.7 Y50.8 I0 J-1.5
G1 Y46.8
G3 X3.2 Y45.3 I1.5 J0
G1 X8.2
Y9.3
X5.1
G3 X3.6 Y7.8 I0 J-1.5
G1 Y5.3
G3 X5.1 Y3.8 I1.5 J0
G1 X69.5
G3 X71 Y5.3 I0 J1.5
G1 Y7.8
G3 X69.5 Y9.3 I-1.5 J0
G1 X66.4
Y45.3
X71.4
G3 X72.9 Y46.8 I0 J1.5
G1 Y50.8
G3 X71.4 Y52.3 I-1.5 J0
G1 X70.4
G3 X68.9 Y50.8 I0 J-1.5
G1 Y49.3
X66.4
Y51.8
G3 X65.9 Y52.3 I-0.5 J0
G1 X37.3
X36.3
G2 X34.8 Y53.8 I0 J1.5
G1 Y55.3
G19 G3 Y56.8 Z0 J0 K1.5
G1 Z3
X60.277 Y56.9
Z2
Z0.5 F200
G2 Y55.4 Z-1 J-1.5 K0 F600
G1 Y53.9
G17 G2 X58.777 Y52.4 I-1.5 J0
G1 X37.3 Z-1.75 F333.3
X8.7 F600
G3 X8.1 Y51.8 I0 J-0.6
G1 Y49.4
X5.8
Y50.8
G3 X4.2 Y52.4 I-1.6 J0
G1 X3.2
G3 X1.6 Y50.8 I0 J-1.6
G1 Y46.8
G3 X3.2 Y45.2 I1.6 J0
G1 X8.1
Y9.4
X5.1
G3 X3.5 Y7.8 I0 J-1.6
G1 Y5.3
G3 X5.1 Y3.7 I1.6 J0
G1 X69.5
G3 X71.1 Y5.3 I0 J1.6
G1 Y7.8
G3 X69.5 Y9.4 I-1.6 J0
G1 X66.5
Y45.2
X71.4
G3 X73 Y46.8 I0 J1.6
G1 Y50.8
G3 X71.4 Y52.4 I-1.6 J0
G1 X70.4
G3 X68.8 Y50.8 I0 J-1.6
G1 Y49.4
X66.5
Y51.8
G3 X65.9 Y52.4 I-0.6 J0
G1 X37.3
G2 X35.8 Y53.9 I0 J1.5
G1 Y55.4
G19 G3 Y56.9 Z-0.25 J0 K1.5
G1 Z3
X60.277 Y56.8
Z2
Z0.5 F200
G2 Y55.3 Z-1 J-1.5 K0 F600
G1 Y53.8
G17 G2 X58.777 Y52.3 I-1.5 J0
G1 X37.3 Z-1.75 F333.3
X8.7 F600
G3 X8.2 Y51.8 I0 J-0.5
G1 Y49.3
X5.7
Y50.8
G3 X4.2 Y52.3 I-1.5 J0
G1 X3.2
G3 X1.7 Y50.8 I0 J-1.5
G1 Y46.8
G3 X3.2 Y45.3 I1.5 J0
G1 X8.2
Y9.3
X5.1
G3 X3.6 Y7.8 I0 J-1.5
G1 Y5.3
G3 X5.1 Y3.8 I1.5 J0
G1 X69.5
G3 X71 Y5.3 I0 J1.5
G1 Y7.8
G3 X69.5 Y9.3 I-1.5 J0
G1 X66.4
Y45.3
X71.4
G3 X72.9 Y46.8 I0 J1.5
G1 Y50.8
G3 X71.4 Y52.3 I-1.5 J0
G1 X70.4
G3 X68.9 Y50.8 I0 J-1.5
G1 Y49.3
X66.4
Y51.8
G3 X65.9 Y52.3 I-0.5 J0
G1 X37.3
X36.3
G2 X34.8 Y53.8 I0 J1.5
G1 Y55.3
G19 G3 Y56.8 Z-0.25 J0 K1.5
G1 Z3
X60.277 Y56.9
Z2
Z0.25 F200
G2 Y55.4 Z-1.25 J-1.5 K0 F600
G1 Y53.9
G17 G2 X58.777 Y52.4 I-1.5 J0
G1 X37.3 Z-2 F333.3
X8.7 F600
G3 X8.1 Y51.8 I0 J-0.6
G1 Y49.4
X5.8
Y50.8
G3 X4.2 Y52.4 I-1.6 J0
G1 X3.2
G3 X1.6 Y50.8 I0 J-1.6
G1 Y46.8
G3 X3.2 Y45.2 I1.6 J0
G1 X8.1
Y9.4
X5.1
G3 X3.5 Y7.8 I0 J-1.6
G1 Y5.3
G3 X5.1 Y3.7 I1.6 J0
G1 X69.5
G3 X71.1 Y5.3 I0 J1.6
G1 Y7.8
G3 X69.5 Y9.4 I-1.6 J0
G1 X66.5
Y45.2
X71.4
G3 X73 Y46.8 I0 J1.6
G1 Y50.8
G3 X71.4 Y52.4 I-1.6 J0
G1 X70.4
G3 X68.8 Y50.8 I0 J-1.6
G1 Y49.4
X66.5
Y51.8
G3 X65.9 Y52.4 I-0.6 J0
G1 X37.3
G2 X35.8 Y53.9 I0 J1.5
G1 Y55.4
G19 G3 Y56.9 Z-0.5 J0 K1.5
G1 Z3
X60.277 Y56.8
Z2
Z0.25 F200
G2 Y55.3 Z-1.25 J-1.5 K0 F600
G1 Y53.8
G17 G2 X58.777 Y52.3 I-1.5 J0
G1 X37.3 Z-2 F333.3
X8.7 F600
G3 X8.2 Y51.8 I0 J-0.5
G1 Y49.3
X5.7
Y50.8
G3 X4.2 Y52.3 I-1.5 J0
G1 X3.2
G3 X1.7 Y50.8 I0 J-1.5
G1 Y46.8
G3 X3.2 Y45.3 I1.5 J0
G1 X8.2
Y9.3
X5.1
G3 X3.6 Y7.8 I0 J-1.5
G1 Y5.3
G3 X5.1 Y3.8 I1.5 J0
G1 X69.5
G3 X71 Y5.3 I0 J1.5
G1 Y7.8
G3 X69.5 Y9.3 I-1.5 J0
G1 X66.4
Y45.3
X71.4
G3 X72.9 Y46.8 I0 J1.5
G1 Y50.8
G3 X71.4 Y52.3 I-1.5 J0
G1 X70.4
G3 X68.9 Y50.8 I0 J-1.5
G1 Y49.3
X66.4
Y51.8
G3 X65.9 Y52.3 I-0.5 J0
G1 X37.3
X36.3
G2 X34.8 Y53.8 I0 J1.5
G1 Y55.3
G19 G3 Y56.8 Z-0.5 J0 K1.5
G1 Z3
X60.277 Y56.9
Z2
Z0 F200
G2 Y55.4 Z-1.5 J-1.5 K0 F600
G1 Y53.9
G17 G2 X58.777 Y52.4 I-1.5 J0
G1 X37.3 Z-2.25 F333.3
X8.7 F600
G3 X8.1 Y51.8 I0 J-0.6
G1 Y49.4
X5.8
Y50.8
G3 X4.2 Y52.4 I-1.6 J0
G1 X3.2
G3 X1.6 Y50.8 I0 J-1.6
G1 Y46.8
G3 X3.2 Y45.2 I1.6 J0
G1 X8.1
Y9.4
X5.1
G3 X3.5 Y7.8 I0 J-1.6
G1 Y5.3
G3 X5.1 Y3.7 I1.6 J0
G1 X69.5
G3 X71.1 Y5.3 I0 J1.6
G1 Y7.8
G3 X69.5 Y9.4 I-1.6 J0
G1 X66.5
Y45.2
X71.4
G3 X73 Y46.8 I0 J1.6
G1 Y50.8
G3 X71.4 Y52.4 I-1.6 J0
G1 X70.4
G3 X68.8 Y50.8 I0 J-1.6
G1 Y49.4
X66.5
Y51.8
G3 X65.9 Y52.4 I-0.6 J0
G1 X37.3
G2 X35.8 Y53.9 I0 J1.5
G1 Y55.4
G19 G3 Y56.9 Z-0.75 J0 K1.5
G1 Z3
X60.277 Y56.8
Z2
Z0 F200
G2 Y55.3 Z-1.5 J-1.5 K0 F600
G1 Y53.8
G17 G2 X58.777 Y52.3 I-1.5 J0
G1 X37.3 Z-2.25 F333.3
X8.7 F600
G3 X8.2 Y51.8 I0 J-0.5
G1 Y49.3
X5.7
Y50.8
G3 X4.2 Y52.3 I-1.5 J0
G1 X3.2
G3 X1.7 Y50.8 I0 J-1.5
G1 Y46.8
G3 X3.2 Y45.3 I1.5 J0
G1 X8.2
Y9.3
X5.1
G3 X3.6 Y7.8 I0 J-1.5
G1 Y5.3
G3 X5.1 Y3.8 I1.5 J0
G1 X69.5
G3 X71 Y5.3 I0 J1.5
G1 Y7.8
G3 X69.5 Y9.3 I-1.5 J0
G1 X66.4
Y45.3
X71.4
G3 X72.9 Y46.8 I0 J1.5
G1 Y50.8
G3 X71.4 Y52.3 I-1.5 J0
G1 X70.4
G3 X68.9 Y50.8 I0 J-1.5
G1 Y49.3
X66.4
Y51.8
G3 X65.9 Y52.3 I-0.5 J0
G1 X37.3
X36.3
G2 X34.8 Y53.8 I0 J1.5
G1 Y55.3
G19 G3 Y56.8 Z-0.75 J0 K1.5
G1 Z3
X60.277 Y56.9
Z2
Z-0.25 F200
G2 Y55.4 Z-1.75 J-1.5 K0 F600
G1 Y53.9
G17 G2 X58.777 Y52.4 I-1.5 J0
G1 X37.3 Z-2.5 F333.3
X8.7 F600
G3 X8.1 Y51.8 I0 J-0.6
G1 Y49.4
X5.8
Y50.8
G3 X4.2 Y52.4 I-1.6 J0
G1 X3.2
G3 X1.6 Y50.8 I0 J-1.6
G1 Y46.8
G3 X3.2 Y45.2 I1.6 J0
G1 X8.1
Y9.4
X5.1
G3 X3.5 Y7.8 I0 J-1.6
G1 Y5.3
G3 X5.1 Y3.7 I1.6 J0
G1 X69.5
G3 X71.1 Y5.3 I0 J1.6
G1 Y7.8
G3 X69.5 Y9.4 I-1.6 J0
G1 X66.5
Y45.2
X71.4
G3 X73 Y46.8 I0 J1.6
G1 Y50.8
G3 X71.4 Y52.4 I-1.6 J0
G1 X70.4
G3 X68.8 Y50.8 I0 J-1.6
G1 Y49.4
X66.5
Y51.8
G3 X65.9 Y52.4 I-0.6 J0
G1 X37.3
G2 X35.8 Y53.9 I0 J1.5
G1 Y55.4
G19 G3 Y56.9 Z-1 J0 K1.5
G1 Z3
X60.277 Y56.8
Z2
Z-0.25 F200
G2 Y55.3 Z-1.75 J-1.5 K0 F600
G1 Y53.8
G17 G2 X58.777 Y52.3 I-1.5 J0
G1 X37.3 Z-2.5 F333.3
X8.7 F600
G3 X8.2 Y51.8 I0 J-0.5
G1 Y49.3
X5.7
Y50.8
G3 X4.2 Y52.3 I-1.5 J0
G1 X3.2
G3 X1.7 Y50.8 I0 J-1.5
G1 Y46.8
G3 X3.2 Y45.3 I1.5 J0
G1 X8.2
Y9.3
X5.1
G3 X3.6 Y7.8 I0 J-1.5
G1 Y5.3
G3 X5.1 Y3.8 I1.5 J0
G1 X69.5
G3 X71 Y5.3 I0 J1.5
G1 Y7.8
G3 X69.5 Y9.3 I-1.5 J0
G1 X66.4
Y45.3
X71.4
G3 X72.9 Y46.8 I0 J1.5
G1 Y50.8
G3 X71.4 Y52.3 I-1.5 J0
G1 X70.4
G3 X68.9 Y50.8 I0 J-1.5
G1 Y49.3
X66.4
Y51.8
G3 X65.9 Y52.3 I-0.5 J0
G1 X37.3
X36.3
G2 X34.8 Y53.8 I0 J1.5
G1 Y55.3
G19 G3 Y56.8 Z-1 J0 K1.5
G1 Z3
X60.277 Y56.9
Z2
Z-0.5 F200
G2 Y55.4 Z-2 J-1.5 K0 F600
G1 Y53.9
G17 G2 X58.777 Y52.4 I-1.5 J0
G1 X37.3 Z-2.75 F333.3
X8.7 F600
G3 X8.1 Y51.8 I0 J-0.6
G1 Y49.4
X5.8
Y50.8
G3 X4.2 Y52.4 I-1.6 J0
G1 X3.2
G3 X1.6 Y50.8 I0 J-1.6
G1 Y46.8
G3 X3.2 Y45.2 I1.6 J0
G1 X8.1
Y9.4
X5.1
G3 X3.5 Y7.8 I0 J-1.6
G1 Y5.3
G3 X5.1 Y3.7 I1.6 J0
G1 X69.5
G3 X71.1 Y5.3 I0 J1.6
G1 Y7.8
G3 X69.5 Y9.4 I-1.6 J0
G1 X66.5
Y45.2
X71.4
G3 X73 Y46.8 I0 J1.6
G1 Y50.8
G3 X71.4 Y52.4 I-1.6 J0
G1 X70.4
G3 X68.8 Y50.8 I0 J-1.6
G1 Y49.4
X66.5
Y51.8
G3 X65.9 Y52.4 I-0.6 J0
G1 X37.3
G2 X35.8 Y53.9 I0 J1.5
G1 Y55.4
G19 G3 Y56.9 Z-1.25 J0 K1.5
G1 Z3
X60.277 Y56.8
Z2
Z-0.5 F200
G2 Y55.3 Z-2 J-1.5 K0 F600
G1 Y53.8
G17 G2 X58.777 Y52.3 I-1.5 J0
G1 X37.3 Z-2.75 F333.3
X8.7 F600
G3 X8.2 Y51.8 I0 J-0.5
G1 Y49.3
X5.7
Y50.8
G3 X4.2 Y52.3 I-1.5 J0
G1 X3.2
G3 X1.7 Y50.8 I0 J-1.5
G1 Y46.8
G3 X3.2 Y45.3 I1.5 J0
G1 X8.2
Y9.3
X5.1
G3 X3.6 Y7.8 I0 J-1.5
G1 Y5.3
G3 X5.1 Y3.8 I1.5 J0
G1 X69.5
G3 X71 Y5.3 I0 J1.5
G1 Y7.8
G3 X69.5 Y9.3 I-1.5 J0
G1 X66.4
Y45.3
X71.4
G3 X72.9 Y46.8 I0 J1.5
G1 Y50.8
G3 X71.4 Y52.3 I-1.5 J0
G1 X70.4
G3 X68.9 Y50.8 I0 J-1.5
G1 Y49.3
X66.4
Y51.8
G3 X65.9 Y52.3 I-0.5 J0
G1 X37.3
X36.3
G2 X34.8 Y53.8 I0 J1.5
G1 Y55.3
G19 G3 Y56.8 Z-1.25 J0 K1.5
G1 Z3
X60.277 Y56.9
Z2
Z-0.75 F200
G2 Y55.4 Z-2.25 J-1.5 K0 F600
G1 Y53.9
G17 G2 X58.777 Y52.4 I-1.5 J0
G1 X37.3 Z-3 F333.3
X8.7 F600
G3 X8.1 Y51.8 I0 J-0.6
G1 Y49.4
X5.8
Y50.8
G3 X4.2 Y52.4 I-1.6 J0
G1 X3.2
G3 X1.6 Y50.8 I0 J-1.6
G1 Y46.8
G3 X3.2 Y45.2 I1.6 J0
G1 X8.1
Y9.4
X5.1
G3 X3.5 Y7.8 I0 J-1.6
G1 Y5.3
G3 X5.1 Y3.7 I1.6 J0
G1 X69.5
G3 X71.1 Y5.3 I0 J1.6
G1 Y7.8
G3 X69.5 Y9.4 I-1.6 J0
G1 X66.5
Y45.2
X71.4
G3 X73 Y46.8 I0 J1.6
G1 Y50.8
G3 X71.4 Y52.4 I-1.6 J0
G1 X70.4
G3 X68.8 Y50.8 I0 J-1.6
G1 Y49.4
X66.5
Y51.8
G3 X65.9 Y52.4 I-0.6 J0
G1 X37.3
G2 X35.8 Y53.9 I0 J1.5
G1 Y55.4
G19 G3 Y56.9 Z-1.5 J0 K1.5
G1 Z3
X60.277 Y56.8
Z2
Z-0.75 F200
G2 Y55.3 Z-2.25 J-1.5 K0 F600
G1 Y53.8
G17 G2 X58.777 Y52.3 I-1.5 J0
G1 X37.3 Z-3 F333.3
X8.7 F600
G3 X8.2 Y51.8 I0 J-0.5
G1 Y49.3
X5.7
Y50.8
G3 X4.2 Y52.3 I-1.5 J0
G1 X3.2
G3 X1.7 Y50.8 I0 J-1.5
G1 Y46.8
G3 X3.2 Y45.3 I1.5 J0
G1 X8.2
Y9.3
X5.1
G3 X3.6 Y7.8 I0 J-1.5
G1 Y5.3
G3 X5.1 Y3.8 I1.5 J0
G1 X69.5
G3 X71 Y5.3 I0 J1.5
G1 Y7.8
G3 X69.5 Y9.3 I-1.5 J0
G1 X66.4
Y45.3
X71.4
G3 X72.9 Y46.8 I0 J1.5
G1 Y50.8
G3 X71.4 Y52.3 I-1.5 J0
G1 X70.4
G3 X68.9 Y50.8 I0 J-1.5
G1 Y49.3
X66.4
Y51.8
G3 X65.9 Y52.3 I-0.5 J0
G1 X37.3
X36.3
G2 X34.8 Y53.8 I0 J1.5
G1 Y55.3
G19 G3 Y56.8 Z-1.5 J0 K1.5
G1 Z3
X55.982 Y56.9
Z2
Z-1 F200
G2 Y55.4 Z-2.5 J-1.5 K0 F600
G1 Y53.9
G17 G2 X54.482 Y52.4 I-1.5 J0
G1 X37.3 Z-3.1 F333.3
X8.7 F600
G3 X8.1 Y51.8 I0 J-0.6
G1 Y49.4
X5.8
Y50.8
G3 X4.2 Y52.4 I-1.6 J0
G1 X3.2
G3 X1.6 Y50.8 I0 J-1.6
G1 Y46.8
G3 X3.2 Y45.2 I1.6 J0
G1 X8.1
Y9.4
X5.1
G3 X3.5 Y7.8 I0 J-1.6
G1 Y5.3
G3 X5.1 Y3.7 I1.6 J0
G1 X69.5
G3 X71.1 Y5.3 I0 J1.6
G1 Y7.8
G3 X69.5 Y9.4 I-1.6 J0
G1 X66.5
Y45.2
X71.4
G3 X73 Y46.8 I0 J1.6
G1 Y50.8
G3 X71.4 Y52.4 I-1.6 J0
G1 X70.4
G3 X68.8 Y50.8 I0 J-1.6
G1 Y49.4
X66.5
Y51.8
G3 X65.9 Y52.4 I-0.6 J0
G1 X37.3
G2 X35.8 Y53.9 I0 J1.5
G1 Y55.4
G19 G3 Y56.9 Z-1.6 J0 K1.5
G1 Z3
X55.982 Y56.8
Z2
Z-1 F200
G2 Y55.3 Z-2.5 J-1.5 K0 F600
G1 Y53.8
G17 G2 X54.482 Y52.3 I-1.5 J0
G1 X37.3 Z-3.1 F333.3
X8.7 F600
G3 X8.2 Y51.8 I0 J-0.5
G1 Y49.3
X5.7
Y50.8
G3 X4.2 Y52.3 I-1.5 J0
G1 X3.2
G3 X1.7 Y50.8 I0 J-1.5
G1 Y46.8
G3 X3.2 Y45.3 I1.5 J0
G1 X8.2
Y9.3
X5.1
G3 X3.6 Y7.8 I0 J-1.5
G1 Y5.3
G3 X5.1 Y3.8 I1.5 J0
G1 X69.5
G3 X71 Y5.3 I0 J1.5
G1 Y7.8
G3 X69.5 Y9.3 I-1.5 J0
G1 X66.4
Y45.3
X71.4
G3 X72.9 Y46.8 I0 J1.5
G1 Y50.8
G3 X71.4 Y52.3 I-1.5 J0
G1 X70.4
G3 X68.9 Y50.8 I0 J-1.5
G1 Y49.3
X66.4
Y51.8
G3 X65.9 Y52.3 I-0.5 J0
G1 X37.3
X36.3
G2 X34.8 Y53.8 I0 J1.5
G1 Y55.3
G19 G3 Y56.8 Z-1.6 J0 K1.5
G1 Z5
G17
M5
M30
