(1001)
(Machine)
(  vendor: Autodesk)
(  model: Sainsmart 3018pro)
(  description: 3018)
G90 G94
G17
G21
(When using Fusion 360 for Personal Use, the feedrate of)
(rapid moves is reduced to match the feedrate of cutting)
(moves, which can increase machining time. Unrestricted rapid)
(moves are available with a Fusion 360 Subscription.)

(2D Contour Rear 2)
G54
G0 Z5 F1500
G0 X43.1 Y72.923
G1 Z2 F600
S5000 M3
Z1 F200
Z0.5
Y74.35 Z0.45 F333.3
X51.4 Z0.16
Y72.05 Z0.08
X43.1 Z-0.21
Y73.2 Z-0.25
Y74.35 F600
X51.4
Y72.05
X43.1
Y73.2
X43.108 Y73.238
X43.129 Y73.271
X43.162 Y73.292
X43.2 Y73.3
X43.3
X43.338 Z-0.242
X43.371 Z-0.221
X43.392 Z-0.188
X43.4 Z-0.15
Z3
X49.727 Y71.95
Z2
Z1 F200
Z0.5
X43 Z0.265 F333.3
Y74.45 Z0.178
X51.5 Z-0.119
Y71.95 Z-0.206
X50.25 Z-0.25
X43 F600
Y74.45
X51.5
Y71.95
X50.25
X49.25
X49.212 Y71.958
X49.179 Y71.979
X49.158 Y72.012
X49.15 Y72.05
Y72.15
Y72.188 Z-0.242
Y72.221 Z-0.221
Y72.242 Z-0.188
Y72.25 Z-0.15
Z3
X43.1 Y72.923
Z2
Z0.75 F200
Z0.25
Y74.35 Z0.2 F333.3
X51.4 Z-0.09
Y72.05 Z-0.17
X43.1 Z-0.46
Y73.2 Z-0.5
Y74.35 F600
X51.4
Y72.05
X43.1
Y73.2
X43.108 Y73.238
X43.129 Y73.271
X43.162 Y73.292
X43.2 Y73.3
X43.3
X43.338 Z-0.492
X43.371 Z-0.471
X43.392 Z-0.438
X43.4 Z-0.4
Z3
X49.727 Y71.95
Z2
Z0.75 F200
Z0.25
X43 Z0.015 F333.3
Y74.45 Z-0.072
X51.5 Z-0.369
Y71.95 Z-0.456
X50.25 Z-0.5
X43 F600
Y74.45
X51.5
Y71.95
X50.25
X49.25
X49.212 Y71.958
X49.179 Y71.979
X49.158 Y72.012
X49.15 Y72.05
Y72.15
Y72.188 Z-0.492
Y72.221 Z-0.471
Y72.242 Z-0.438
Y72.25 Z-0.4
Z3
X43.1 Y72.923
Z2
Z0.5 F200
Z0
Y74.35 Z-0.05 F333.3
X51.4 Z-0.34
Y72.05 Z-0.42
X43.1 Z-0.71
Y73.2 Z-0.75
Y74.35 F600
X51.4
Y72.05
X43.1
Y73.2
X43.108 Y73.238
X43.129 Y73.271
X43.162 Y73.292
X43.2 Y73.3
X43.3
X43.338 Z-0.742
X43.371 Z-0.721
X43.392 Z-0.688
X43.4 Z-0.65
Z3
X49.727 Y71.95
Z2
Z0.5 F200
Z0
X43 Z-0.235 F333.3
Y74.45 Z-0.322
X51.5 Z-0.619
Y71.95 Z-0.706
X50.25 Z-0.75
X43 F600
Y74.45
X51.5
Y71.95
X50.25
X49.25
X49.212 Y71.958
X49.179 Y71.979
X49.158 Y72.012
X49.15 Y72.05
Y72.15
Y72.188 Z-0.742
Y72.221 Z-0.721
Y72.242 Z-0.688
Y72.25 Z-0.65
Z3
X43.1 Y72.923
Z2
Z0.25 F200
Z-0.25
Y74.35 Z-0.3 F333.3
X51.4 Z-0.59
Y72.05 Z-0.67
X43.1 Z-0.96
Y73.2 Z-1
Y74.35 F600
X51.4
Y72.05
X43.1
Y73.2
X43.108 Y73.238
X43.129 Y73.271
X43.162 Y73.292
X43.2 Y73.3
X43.3
X43.338 Z-0.992
X43.371 Z-0.971
X43.392 Z-0.938
X43.4 Z-0.9
Z3
X49.727 Y71.95
Z2
Z0.25 F200
Z-0.25
X43 Z-0.485 F333.3
Y74.45 Z-0.572
X51.5 Z-0.869
Y71.95 Z-0.956
X50.25 Z-1
X43 F600
Y74.45
X51.5
Y71.95
X50.25
X49.25
X49.212 Y71.958
X49.179 Y71.979
X49.158 Y72.012
X49.15 Y72.05
Y72.15
Y72.188 Z-0.992
Y72.221 Z-0.971
Y72.242 Z-0.938
Y72.25 Z-0.9
Z3
X43.1 Y72.923
Z2
Z0 F200
Z-0.5
Y74.35 Z-0.55 F333.3
X51.4 Z-0.84
Y72.05 Z-0.92
X43.1 Z-1.21
Y73.2 Z-1.25
Y74.35 F600
X51.4
Y72.05
X43.1
Y73.2
X43.108 Y73.238
X43.129 Y73.271
X43.162 Y73.292
X43.2 Y73.3
X43.3
X43.338 Z-1.242
X43.371 Z-1.221
X43.392 Z-1.188
X43.4 Z-1.15
Z3
X49.727 Y71.95
Z2
Z0 F200
Z-0.5
X43 Z-0.735 F333.3
Y74.45 Z-0.822
X51.5 Z-1.119
Y71.95 Z-1.206
X50.25 Z-1.25
X43 F600
Y74.45
X51.5
Y71.95
X50.25
X49.25
X49.212 Y71.958
X49.179 Y71.979
X49.158 Y72.012
X49.15 Y72.05
Y72.15
Y72.188 Z-1.242
Y72.221 Z-1.221
Y72.242 Z-1.188
Y72.25 Z-1.15
Z3
X43.1 Y72.923
Z2
Z-0.25 F200
Z-0.75
Y74.35 Z-0.8 F333.3
X51.4 Z-1.09
Y72.05 Z-1.17
X43.1 Z-1.46
Y73.2 Z-1.5
Y74.35 F600
X51.4
Y72.05
X43.1
Y73.2
X43.108 Y73.238
X43.129 Y73.271
X43.162 Y73.292
X43.2 Y73.3
X43.3
X43.338 Z-1.492
X43.371 Z-1.471
X43.392 Z-1.438
X43.4 Z-1.4
Z3
X49.727 Y71.95
Z2
Z-0.25 F200
Z-0.75
X43 Z-0.985 F333.3
Y74.45 Z-1.072
X51.5 Z-1.369
Y71.95 Z-1.456
X50.25 Z-1.5
X43 F600
Y74.45
X51.5
Y71.95
X50.25
X49.25
X49.212 Y71.958
X49.179 Y71.979
X49.158 Y72.012
X49.15 Y72.05
Y72.15
Y72.188 Z-1.492
Y72.221 Z-1.471
Y72.242 Z-1.438
Y72.25 Z-1.4
Z3
X43.1 Y72.923
Z2
Z-0.5 F200
Z-1
Y74.35 Z-1.05 F333.3
X51.4 Z-1.34
Y72.05 Z-1.42
X43.1 Z-1.71
Y73.2 Z-1.75
Y74.35 F600
X51.4
Y72.05
X43.1
Y73.2
X43.108 Y73.238
X43.129 Y73.271
X43.162 Y73.292
X43.2 Y73.3
X43.3
X43.338 Z-1.742
X43.371 Z-1.721
X43.392 Z-1.688
X43.4 Z-1.65
Z3
X49.727 Y71.95
Z2
Z-0.5 F200
Z-1
X43 Z-1.235 F333.3
Y74.45 Z-1.322
X51.5 Z-1.619
Y71.95 Z-1.706
X50.25 Z-1.75
X43 F600
Y74.45
X51.5
Y71.95
X50.25
X49.25
X49.212 Y71.958
X49.179 Y71.979
X49.158 Y72.012
X49.15 Y72.05
Y72.15
Y72.188 Z-1.742
Y72.221 Z-1.721
Y72.242 Z-1.688
Y72.25 Z-1.65
Z3
X43.1 Y72.923
Z2
Z-0.75 F200
Z-1.25
Y74.35 Z-1.3 F333.3
X51.4 Z-1.59
Y72.05 Z-1.67
X43.1 Z-1.96
Y73.2 Z-2
Y74.35 F600
X51.4
Y72.05
X43.1
Y73.2
X43.108 Y73.238
X43.129 Y73.271
X43.162 Y73.292
X43.2 Y73.3
X43.3
X43.338 Z-1.992
X43.371 Z-1.971
X43.392 Z-1.938
X43.4 Z-1.9
Z3
X49.727 Y71.95
Z2
Z-0.75 F200
Z-1.25
X43 Z-1.485 F333.3
Y74.45 Z-1.572
X51.5 Z-1.869
Y71.95 Z-1.956
X50.25 Z-2
X43 F600
Y74.45
X51.5
Y71.95
X50.25
X49.25
X49.212 Y71.958
X49.179 Y71.979
X49.158 Y72.012
X49.15 Y72.05
Y72.15
Y72.188 Z-1.992
Y72.221 Z-1.971
Y72.242 Z-1.938
Y72.25 Z-1.9
Z3
X43.1 Y72.923
Z2
Z-1 F200
Z-1.5
Y74.35 Z-1.55 F333.3
X51.4 Z-1.84
Y72.05 Z-1.92
X43.1 Z-2.21
Y73.2 Z-2.25
Y74.35 F600
X51.4
Y72.05
X43.1
Y73.2
X43.108 Y73.238
X43.129 Y73.271
X43.162 Y73.292
X43.2 Y73.3
X43.3
X43.338 Z-2.242
X43.371 Z-2.221
X43.392 Z-2.188
X43.4 Z-2.15
Z3
X49.727 Y71.95
Z2
Z-1 F200
Z-1.5
X43 Z-1.735 F333.3
Y74.45 Z-1.822
X51.5 Z-2.119
Y71.95 Z-2.206
X50.25 Z-2.25
X43 F600
Y74.45
X51.5
Y71.95
X50.25
X49.25
X49.212 Y71.958
X49.179 Y71.979
X49.158 Y72.012
X49.15 Y72.05
Y72.15
Y72.188 Z-2.242
Y72.221 Z-2.221
Y72.242 Z-2.188
Y72.25 Z-2.15
Z3
X43.1 Y72.923
Z2
Z-1.25 F200
Z-1.75
Y74.35 Z-1.8 F333.3
X51.4 Z-2.09
Y72.05 Z-2.17
X43.1 Z-2.46
Y73.2 Z-2.5
Y74.35 F600
X51.4
Y72.05
X43.1
Y73.2
X43.108 Y73.238
X43.129 Y73.271
X43.162 Y73.292
X43.2 Y73.3
X43.3
X43.338 Z-2.492
X43.371 Z-2.471
X43.392 Z-2.438
X43.4 Z-2.4
Z3
X49.727 Y71.95
Z2
Z-1.25 F200
Z-1.75
X43 Z-1.985 F333.3
Y74.45 Z-2.072
X51.5 Z-2.369
Y71.95 Z-2.456
X50.25 Z-2.5
X43 F600
Y74.45
X51.5
Y71.95
X50.25
X49.25
X49.212 Y71.958
X49.179 Y71.979
X49.158 Y72.012
X49.15 Y72.05
Y72.15
Y72.188 Z-2.492
Y72.221 Z-2.471
Y72.242 Z-2.438
Y72.25 Z-2.4
Z3
X43.1 Y72.923
Z2
Z-1.5 F200
Z-2
Y74.35 Z-2.05 F333.3
X51.4 Z-2.34
Y72.05 Z-2.42
X43.1 Z-2.71
Y73.2 Z-2.75
Y74.35 F600
X51.4
Y72.05
X43.1
Y73.2
X43.108 Y73.238
X43.129 Y73.271
X43.162 Y73.292
X43.2 Y73.3
X43.3
X43.338 Z-2.742
X43.371 Z-2.721
X43.392 Z-2.688
X43.4 Z-2.65
Z3
X49.727 Y71.95
Z2
Z-1.5 F200
Z-2
X43 Z-2.235 F333.3
Y74.45 Z-2.322
X51.5 Z-2.619
Y71.95 Z-2.706
X50.25 Z-2.75
X43 F600
Y74.45
X51.5
Y71.95
X50.25
X49.25
X49.212 Y71.958
X49.179 Y71.979
X49.158 Y72.012
X49.15 Y72.05
Y72.15
Y72.188 Z-2.742
Y72.221 Z-2.721
Y72.242 Z-2.688
Y72.25 Z-2.65
Z3
X43.1 Y72.923
Z2
Z-1.75 F200
Z-2.25
Y74.35 Z-2.3 F333.3
X51.4 Z-2.59
Y72.05 Z-2.67
X43.1 Z-2.96
Y73.2 Z-3
Y74.35 F600
X51.4
Y72.05
X43.1
Y73.2
X43.108 Y73.238
X43.129 Y73.271
X43.162 Y73.292
X43.2 Y73.3
X43.3
X43.338 Z-2.992
X43.371 Z-2.971
X43.392 Z-2.938
X43.4 Z-2.9
Z3
X49.727 Y71.95
Z2
Z-1.75 F200
Z-2.25
X43 Z-2.485 F333.3
Y74.45 Z-2.572
X51.5 Z-2.869
Y71.95 Z-2.956
X50.25 Z-3
X43 F600
Y74.45
X51.5
Y71.95
X50.25
X49.25
X49.212 Y71.958
X49.179 Y71.979
X49.158 Y72.012
X49.15 Y72.05
Y72.15
Y72.188 Z-2.992
Y72.221 Z-2.971
Y72.242 Z-2.938
Y72.25 Z-2.9
Z3
X45.968 Y74.35
Z2
Z-2 F200
Z-2.5
X51.4 Z-2.69 F333.3
Y72.05 Z-2.77
X43.1 Z-3.06
Y73.2 Z-3.1
Y74.35 F600
X51.4
Y72.05
X43.1
Y73.2
X43.108 Y73.238
X43.129 Y73.271
X43.162 Y73.292
X43.2 Y73.3
X43.3
X43.338 Z-3.092
X43.371 Z-3.071
X43.392 Z-3.038
X43.4 Z-3
Z3
X45.432 Y71.95
Z2
Z-2 F200
Z-2.5
X43 Z-2.585 F333.3
Y74.45 Z-2.672
X51.5 Z-2.969
Y71.95 Z-3.056
X50.25 Z-3.1
X43 F600
Y74.45
X51.5
Y71.95
X50.25
X49.25
X49.212 Y71.958
X49.179 Y71.979
X49.158 Y72.012
X49.15 Y72.05
Y72.15
Y72.188 Z-3.092
Y72.221 Z-3.071
Y72.242 Z-3.038
Y72.25 Z-3
Z3
X87.227 Y79.8
Z2
Z1 F200
Z0.5
X65.75 Z-0.25 F333.3
X1.75 F600
G3 X0.15 Y78.2 I0 J-1.6
G1 Y7.8
G3 X1.75 Y6.2 I1.6 J0
G1 X129.75
G3 X131.35 Y7.8 I0 J1.6
G1 Y78.2
G3 X129.75 Y79.8 I-1.6 J0
G1 X65.75
X65.712 Y79.808
X65.679 Y79.829
X65.658 Y79.862
X65.65 Y79.9
Y80
Y80.038 Z-0.242
Y80.071 Z-0.221
Y80.092 Z-0.188
Y80.1 Z-0.15
Z3
X44.273 Y6.3
Z2
Z1 F200
Z0.5
X65.75 Z-0.25 F333.3
X129.75 F600
G3 X131.25 Y7.8 I0 J1.5
G1 Y78.2
G3 X129.75 Y79.7 I-1.5 J0
G1 X1.75
G3 X0.25 Y78.2 I0 J-1.5
G1 Y7.8
G3 X1.75 Y6.3 I1.5 J0
G1 X65.75
X66.75
X66.788 Y6.292
X66.821 Y6.271
X66.842 Y6.238
X66.85 Y6.2
Y6.1
Y6.062 Z-0.242
Y6.029 Z-0.221
Y6.008 Z-0.188
Y6 Z-0.15
Z3
X87.227 Y79.8
Z2
Z0.75 F200
Z0.25
X65.75 Z-0.5 F333.3
X1.75 F600
G3 X0.15 Y78.2 I0 J-1.6
G1 Y7.8
G3 X1.75 Y6.2 I1.6 J0
G1 X129.75
G3 X131.35 Y7.8 I0 J1.6
G1 Y78.2
G3 X129.75 Y79.8 I-1.6 J0
G1 X65.75
X65.712 Y79.808
X65.679 Y79.829
X65.658 Y79.862
X65.65 Y79.9
Y80
Y80.038 Z-0.492
Y80.071 Z-0.471
Y80.092 Z-0.438
Y80.1 Z-0.4
Z3
X44.273 Y6.3
Z2
Z0.75 F200
Z0.25
X65.75 Z-0.5 F333.3
X129.75 F600
G3 X131.25 Y7.8 I0 J1.5
G1 Y78.2
G3 X129.75 Y79.7 I-1.5 J0
G1 X1.75
G3 X0.25 Y78.2 I0 J-1.5
G1 Y7.8
G3 X1.75 Y6.3 I1.5 J0
G1 X65.75
X66.75
X66.788 Y6.292
X66.821 Y6.271
X66.842 Y6.238
X66.85 Y6.2
Y6.1
Y6.062 Z-0.492
Y6.029 Z-0.471
Y6.008 Z-0.438
Y6 Z-0.4
Z3
X87.227 Y79.8
Z2
Z0.5 F200
Z0
X65.75 Z-0.75 F333.3
X1.75 F600
G3 X0.15 Y78.2 I0 J-1.6
G1 Y7.8
G3 X1.75 Y6.2 I1.6 J0
G1 X129.75
G3 X131.35 Y7.8 I0 J1.6
G1 Y78.2
G3 X129.75 Y79.8 I-1.6 J0
G1 X65.75
X65.712 Y79.808
X65.679 Y79.829
X65.658 Y79.862
X65.65 Y79.9
Y80
Y80.038 Z-0.742
Y80.071 Z-0.721
Y80.092 Z-0.688
Y80.1 Z-0.65
Z3
X44.273 Y6.3
Z2
Z0.5 F200
Z0
X65.75 Z-0.75 F333.3
X129.75 F600
G3 X131.25 Y7.8 I0 J1.5
G1 Y78.2
G3 X129.75 Y79.7 I-1.5 J0
G1 X1.75
G3 X0.25 Y78.2 I0 J-1.5
G1 Y7.8
G3 X1.75 Y6.3 I1.5 J0
G1 X65.75
X66.75
X66.788 Y6.292
X66.821 Y6.271
X66.842 Y6.238
X66.85 Y6.2
Y6.1
Y6.062 Z-0.742
Y6.029 Z-0.721
Y6.008 Z-0.688
Y6 Z-0.65
Z3
X87.227 Y79.8
Z2
Z0.25 F200
Z-0.25
X65.75 Z-1 F333.3
X1.75 F600
G3 X0.15 Y78.2 I0 J-1.6
G1 Y7.8
G3 X1.75 Y6.2 I1.6 J0
G1 X129.75
G3 X131.35 Y7.8 I0 J1.6
G1 Y78.2
G3 X129.75 Y79.8 I-1.6 J0
G1 X65.75
X65.712 Y79.808
X65.679 Y79.829
X65.658 Y79.862
X65.65 Y79.9
Y80
Y80.038 Z-0.992
Y80.071 Z-0.971
Y80.092 Z-0.938
Y80.1 Z-0.9
Z3
X44.273 Y6.3
Z2
Z0.25 F200
Z-0.25
X65.75 Z-1 F333.3
X129.75 F600
G3 X131.25 Y7.8 I0 J1.5
G1 Y78.2
G3 X129.75 Y79.7 I-1.5 J0
G1 X1.75
G3 X0.25 Y78.2 I0 J-1.5
G1 Y7.8
G3 X1.75 Y6.3 I1.5 J0
G1 X65.75
X66.75
X66.788 Y6.292
X66.821 Y6.271
X66.842 Y6.238
X66.85 Y6.2
Y6.1
Y6.062 Z-0.992
Y6.029 Z-0.971
Y6.008 Z-0.938
Y6 Z-0.9
Z3
X87.227 Y79.8
Z2
Z0 F200
Z-0.5
X65.75 Z-1.25 F333.3
X1.75 F600
G3 X0.15 Y78.2 I0 J-1.6
G1 Y7.8
G3 X1.75 Y6.2 I1.6 J0
G1 X129.75
G3 X131.35 Y7.8 I0 J1.6
G1 Y78.2
G3 X129.75 Y79.8 I-1.6 J0
G1 X65.75
X65.712 Y79.808
X65.679 Y79.829
X65.658 Y79.862
X65.65 Y79.9
Y80
Y80.038 Z-1.242
Y80.071 Z-1.221
Y80.092 Z-1.188
Y80.1 Z-1.15
Z3
X44.273 Y6.3
Z2
Z0 F200
Z-0.5
X65.75 Z-1.25 F333.3
X129.75 F600
G3 X131.25 Y7.8 I0 J1.5
G1 Y78.2
G3 X129.75 Y79.7 I-1.5 J0
G1 X1.75
G3 X0.25 Y78.2 I0 J-1.5
G1 Y7.8
G3 X1.75 Y6.3 I1.5 J0
G1 X65.75
X66.75
X66.788 Y6.292
X66.821 Y6.271
X66.842 Y6.238
X66.85 Y6.2
Y6.1
Y6.062 Z-1.242
Y6.029 Z-1.221
Y6.008 Z-1.188
Y6 Z-1.15
Z3
X87.227 Y79.8
Z2
Z-0.25 F200
Z-0.75
X65.75 Z-1.5 F333.3
X1.75 F600
G3 X0.15 Y78.2 I0 J-1.6
G1 Y7.8
G3 X1.75 Y6.2 I1.6 J0
G1 X129.75
G3 X131.35 Y7.8 I0 J1.6
G1 Y78.2
G3 X129.75 Y79.8 I-1.6 J0
G1 X65.75
X65.712 Y79.808
X65.679 Y79.829
X65.658 Y79.862
X65.65 Y79.9
Y80
Y80.038 Z-1.492
Y80.071 Z-1.471
Y80.092 Z-1.438
Y80.1 Z-1.4
Z3
X44.273 Y6.3
Z2
Z-0.25 F200
Z-0.75
X65.75 Z-1.5 F333.3
X129.75 F600
G3 X131.25 Y7.8 I0 J1.5
G1 Y78.2
G3 X129.75 Y79.7 I-1.5 J0
G1 X1.75
G3 X0.25 Y78.2 I0 J-1.5
G1 Y7.8
G3 X1.75 Y6.3 I1.5 J0
G1 X65.75
X66.75
X66.788 Y6.292
X66.821 Y6.271
X66.842 Y6.238
X66.85 Y6.2
Y6.1
Y6.062 Z-1.492
Y6.029 Z-1.471
Y6.008 Z-1.438
Y6 Z-1.4
Z3
X87.227 Y79.8
Z2
Z-0.5 F200
Z-1
X65.75 Z-1.75 F333.3
X1.75 F600
G3 X0.15 Y78.2 I0 J-1.6
G1 Y7.8
G3 X1.75 Y6.2 I1.6 J0
G1 X129.75
G3 X131.35 Y7.8 I0 J1.6
G1 Y78.2
G3 X129.75 Y79.8 I-1.6 J0
G1 X65.75
X65.712 Y79.808
X65.679 Y79.829
X65.658 Y79.862
X65.65 Y79.9
Y80
Y80.038 Z-1.742
Y80.071 Z-1.721
Y80.092 Z-1.688
Y80.1 Z-1.65
Z3
X44.273 Y6.3
Z2
Z-0.5 F200
Z-1
X65.75 Z-1.75 F333.3
X129.75 F600
G3 X131.25 Y7.8 I0 J1.5
G1 Y78.2
G3 X129.75 Y79.7 I-1.5 J0
G1 X1.75
G3 X0.25 Y78.2 I0 J-1.5
G1 Y7.8
G3 X1.75 Y6.3 I1.5 J0
G1 X65.75
X66.75
X66.788 Y6.292
X66.821 Y6.271
X66.842 Y6.238
X66.85 Y6.2
Y6.1
Y6.062 Z-1.742
Y6.029 Z-1.721
Y6.008 Z-1.688
Y6 Z-1.65
Z3
X87.227 Y79.8
Z2
Z-0.75 F200
Z-1.25
X65.75 Z-2 F333.3
X1.75 F600
G3 X0.15 Y78.2 I0 J-1.6
G1 Y7.8
G3 X1.75 Y6.2 I1.6 J0
G1 X129.75
G3 X131.35 Y7.8 I0 J1.6
G1 Y78.2
G3 X129.75 Y79.8 I-1.6 J0
G1 X65.75
X65.712 Y79.808
X65.679 Y79.829
X65.658 Y79.862
X65.65 Y79.9
Y80
Y80.038 Z-1.992
Y80.071 Z-1.971
Y80.092 Z-1.938
Y80.1 Z-1.9
Z3
X44.273 Y6.3
Z2
Z-0.75 F200
Z-1.25
X65.75 Z-2 F333.3
X129.75 F600
G3 X131.25 Y7.8 I0 J1.5
G1 Y78.2
G3 X129.75 Y79.7 I-1.5 J0
G1 X1.75
G3 X0.25 Y78.2 I0 J-1.5
G1 Y7.8
G3 X1.75 Y6.3 I1.5 J0
G1 X65.75
X66.75
X66.788 Y6.292
X66.821 Y6.271
X66.842 Y6.238
X66.85 Y6.2
Y6.1
Y6.062 Z-1.992
Y6.029 Z-1.971
Y6.008 Z-1.938
Y6 Z-1.9
Z3
X87.227 Y79.8
Z2
Z-1 F200
Z-1.5
X65.75 Z-2.25 F333.3
X1.75 F600
G3 X0.15 Y78.2 I0 J-1.6
G1 Y7.8
G3 X1.75 Y6.2 I1.6 J0
G1 X129.75
G3 X131.35 Y7.8 I0 J1.6
G1 Y78.2
G3 X129.75 Y79.8 I-1.6 J0
G1 X65.75
X65.712 Y79.808
X65.679 Y79.829
X65.658 Y79.862
X65.65 Y79.9
Y80
Y80.038 Z-2.242
Y80.071 Z-2.221
Y80.092 Z-2.188
Y80.1 Z-2.15
Z3
X44.273 Y6.3
Z2
Z-1 F200
Z-1.5
X65.75 Z-2.25 F333.3
X129.75 F600
G3 X131.25 Y7.8 I0 J1.5
G1 Y78.2
G3 X129.75 Y79.7 I-1.5 J0
G1 X1.75
G3 X0.25 Y78.2 I0 J-1.5
G1 Y7.8
G3 X1.75 Y6.3 I1.5 J0
G1 X65.75
X66.75
X66.788 Y6.292
X66.821 Y6.271
X66.842 Y6.238
X66.85 Y6.2
Y6.1
Y6.062 Z-2.242
Y6.029 Z-2.221
Y6.008 Z-2.188
Y6 Z-2.15
Z3
X87.227 Y79.8
Z2
Z-1.25 F200
Z-1.75
X65.75 Z-2.5 F333.3
X1.75 F600
G3 X0.15 Y78.2 I0 J-1.6
G1 Y7.8
G3 X1.75 Y6.2 I1.6 J0
G1 X129.75
G3 X131.35 Y7.8 I0 J1.6
G1 Y78.2
G3 X129.75 Y79.8 I-1.6 J0
G1 X65.75
X65.712 Y79.808
X65.679 Y79.829
X65.658 Y79.862
X65.65 Y79.9
Y80
Y80.038 Z-2.492
Y80.071 Z-2.471
Y80.092 Z-2.438
Y80.1 Z-2.4
Z3
X44.273 Y6.3
Z2
Z-1.25 F200
Z-1.75
X65.75 Z-2.5 F333.3
X129.75 F600
G3 X131.25 Y7.8 I0 J1.5
G1 Y78.2
G3 X129.75 Y79.7 I-1.5 J0
G1 X1.75
G3 X0.25 Y78.2 I0 J-1.5
G1 Y7.8
G3 X1.75 Y6.3 I1.5 J0
G1 X65.75
X66.75
X66.788 Y6.292
X66.821 Y6.271
X66.842 Y6.238
X66.85 Y6.2
Y6.1
Y6.062 Z-2.492
Y6.029 Z-2.471
Y6.008 Z-2.438
Y6 Z-2.4
Z3
X87.227 Y79.8
Z2
Z-1.5 F200
Z-2
X65.75 Z-2.75 F333.3
X1.75 F600
G3 X0.15 Y78.2 I0 J-1.6
G1 Y7.8
G3 X1.75 Y6.2 I1.6 J0
G1 X129.75
G3 X131.35 Y7.8 I0 J1.6
G1 Y78.2
G3 X129.75 Y79.8 I-1.6 J0
G1 X65.75
X65.712 Y79.808
X65.679 Y79.829
X65.658 Y79.862
X65.65 Y79.9
Y80
Y80.038 Z-2.742
Y80.071 Z-2.721
Y80.092 Z-2.688
Y80.1 Z-2.65
Z3
X44.273 Y6.3
Z2
Z-1.5 F200
Z-2
X65.75 Z-2.75 F333.3
X129.75 F600
G3 X131.25 Y7.8 I0 J1.5
G1 Y78.2
G3 X129.75 Y79.7 I-1.5 J0
G1 X1.75
G3 X0.25 Y78.2 I0 J-1.5
G1 Y7.8
G3 X1.75 Y6.3 I1.5 J0
G1 X65.75
X66.75
X66.788 Y6.292
X66.821 Y6.271
X66.842 Y6.238
X66.85 Y6.2
Y6.1
Y6.062 Z-2.742
Y6.029 Z-2.721
Y6.008 Z-2.688
Y6 Z-2.65
Z3
X87.227 Y79.8
Z2
Z-1.75 F200
Z-2.25
X65.75 Z-3 F333.3
X1.75 F600
G3 X0.15 Y78.2 I0 J-1.6
G1 Y7.8
G3 X1.75 Y6.2 I1.6 J0
G1 X129.75
G3 X131.35 Y7.8 I0 J1.6
G1 Y78.2
G3 X129.75 Y79.8 I-1.6 J0
G1 X65.75
X65.712 Y79.808
X65.679 Y79.829
X65.658 Y79.862
X65.65 Y79.9
Y80
Y80.038 Z-2.992
Y80.071 Z-2.971
Y80.092 Z-2.938
Y80.1 Z-2.9
Z3
X44.273 Y6.3
Z2
Z-1.75 F200
Z-2.25
X65.75 Z-3 F333.3
X129.75 F600
G3 X131.25 Y7.8 I0 J1.5
G1 Y78.2
G3 X129.75 Y79.7 I-1.5 J0
G1 X1.75
G3 X0.25 Y78.2 I0 J-1.5
G1 Y7.8
G3 X1.75 Y6.3 I1.5 J0
G1 X65.75
X66.75
X66.788 Y6.292
X66.821 Y6.271
X66.842 Y6.238
X66.85 Y6.2
Y6.1
Y6.062 Z-2.992
Y6.029 Z-2.971
Y6.008 Z-2.938
Y6 Z-2.9
Z3
X82.932 Y79.8
Z2
Z-2 F200
Z-2.5
X65.75 Z-3.1 F333.3
X1.75 F600
G3 X0.15 Y78.2 I0 J-1.6
G1 Y7.8
G3 X1.75 Y6.2 I1.6 J0
G1 X129.75
G3 X131.35 Y7.8 I0 J1.6
G1 Y78.2
G3 X129.75 Y79.8 I-1.6 J0
G1 X65.75
X65.712 Y79.808
X65.679 Y79.829
X65.658 Y79.862
X65.65 Y79.9
Y80
Y80.038 Z-3.092
Y80.071 Z-3.071
Y80.092 Z-3.038
Y80.1 Z-3
Z3
X48.568 Y6.3
Z2
Z-2 F200
Z-2.5
X65.75 Z-3.1 F333.3
X129.75 F600
G3 X131.25 Y7.8 I0 J1.5
G1 Y78.2
G3 X129.75 Y79.7 I-1.5 J0
G1 X1.75
G3 X0.25 Y78.2 I0 J-1.5
G1 Y7.8
G3 X1.75 Y6.3 I1.5 J0
G1 X65.75
X66.75
X66.788 Y6.292
X66.821 Y6.271
X66.842 Y6.238
X66.85 Y6.2
Y6.1
Y6.062 Z-3.092
Y6.029 Z-3.071
Y6.008 Z-3.038
Y6 Z-3
Z3
X43.1 Y12.523
Z2
Z1 F200
Z0.5
Y13.95 Z0.45 F333.3
X51.4 Z0.16
Y11.65 Z0.08
X43.1 Z-0.21
Y12.8 Z-0.25
Y13.95 F600
X51.4
Y11.65
X43.1
Y12.8
X43.108 Y12.838
X43.129 Y12.871
X43.162 Y12.892
X43.2 Y12.9
X43.3
X43.338 Z-0.242
X43.371 Z-0.221
X43.392 Z-0.188
X43.4 Z-0.15
Z3
X43 Y13.323
Z2
Z1 F200
Z0.5
Y14.05 Z0.475 F333.3
X51.5 Z0.178
Y11.55 Z0.09
X43 Z-0.206
Y12.8 Z-0.25
Y14.05 F600
X51.5
Y11.55
X43
Y12.8
Y13.8
X43.008 Y13.838
X43.029 Y13.871
X43.062 Y13.892
X43.1 Y13.9
X43.2
X43.238 Z-0.242
X43.271 Z-0.221
X43.292 Z-0.188
X43.3 Z-0.15
Z3
X43.1 Y12.523
Z2
Z0.75 F200
Z0.25
Y13.95 Z0.2 F333.3
X51.4 Z-0.09
Y11.65 Z-0.17
X43.1 Z-0.46
Y12.8 Z-0.5
Y13.95 F600
X51.4
Y11.65
X43.1
Y12.8
X43.108 Y12.838
X43.129 Y12.871
X43.162 Y12.892
X43.2 Y12.9
X43.3
X43.338 Z-0.492
X43.371 Z-0.471
X43.392 Z-0.438
X43.4 Z-0.4
Z3
X43 Y13.323
Z2
Z0.75 F200
Z0.25
Y14.05 Z0.225 F333.3
X51.5 Z-0.072
Y11.55 Z-0.16
X43 Z-0.456
Y12.8 Z-0.5
Y14.05 F600
X51.5
Y11.55
X43
Y12.8
Y13.8
X43.008 Y13.838
X43.029 Y13.871
X43.062 Y13.892
X43.1 Y13.9
X43.2
X43.238 Z-0.492
X43.271 Z-0.471
X43.292 Z-0.438
X43.3 Z-0.4
Z3
X43.1 Y12.523
Z2
Z0.5 F200
Z0
Y13.95 Z-0.05 F333.3
X51.4 Z-0.34
Y11.65 Z-0.42
X43.1 Z-0.71
Y12.8 Z-0.75
Y13.95 F600
X51.4
Y11.65
X43.1
Y12.8
X43.108 Y12.838
X43.129 Y12.871
X43.162 Y12.892
X43.2 Y12.9
X43.3
X43.338 Z-0.742
X43.371 Z-0.721
X43.392 Z-0.688
X43.4 Z-0.65
Z3
X43 Y13.323
Z2
Z0.5 F200
Z0
Y14.05 Z-0.025 F333.3
X51.5 Z-0.322
Y11.55 Z-0.41
X43 Z-0.706
Y12.8 Z-0.75
Y14.05 F600
X51.5
Y11.55
X43
Y12.8
Y13.8
X43.008 Y13.838
X43.029 Y13.871
X43.062 Y13.892
X43.1 Y13.9
X43.2
X43.238 Z-0.742
X43.271 Z-0.721
X43.292 Z-0.688
X43.3 Z-0.65
Z3
X43.1 Y12.523
Z2
Z0.25 F200
Z-0.25
Y13.95 Z-0.3 F333.3
X51.4 Z-0.59
Y11.65 Z-0.67
X43.1 Z-0.96
Y12.8 Z-1
Y13.95 F600
X51.4
Y11.65
X43.1
Y12.8
X43.108 Y12.838
X43.129 Y12.871
X43.162 Y12.892
X43.2 Y12.9
X43.3
X43.338 Z-0.992
X43.371 Z-0.971
X43.392 Z-0.938
X43.4 Z-0.9
Z3
X43 Y13.323
Z2
Z0.25 F200
Z-0.25
Y14.05 Z-0.275 F333.3
X51.5 Z-0.572
Y11.55 Z-0.66
X43 Z-0.956
Y12.8 Z-1
Y14.05 F600
X51.5
Y11.55
X43
Y12.8
Y13.8
X43.008 Y13.838
X43.029 Y13.871
X43.062 Y13.892
X43.1 Y13.9
X43.2
X43.238 Z-0.992
X43.271 Z-0.971
X43.292 Z-0.938
X43.3 Z-0.9
Z3
X43.1 Y12.523
Z2
Z0 F200
Z-0.5
Y13.95 Z-0.55 F333.3
X51.4 Z-0.84
Y11.65 Z-0.92
X43.1 Z-1.21
Y12.8 Z-1.25
Y13.95 F600
X51.4
Y11.65
X43.1
Y12.8
X43.108 Y12.838
X43.129 Y12.871
X43.162 Y12.892
X43.2 Y12.9
X43.3
X43.338 Z-1.242
X43.371 Z-1.221
X43.392 Z-1.188
X43.4 Z-1.15
Z3
X43 Y13.323
Z2
Z0 F200
Z-0.5
Y14.05 Z-0.525 F333.3
X51.5 Z-0.822
Y11.55 Z-0.91
X43 Z-1.206
Y12.8 Z-1.25
Y14.05 F600
X51.5
Y11.55
X43
Y12.8
Y13.8
X43.008 Y13.838
X43.029 Y13.871
X43.062 Y13.892
X43.1 Y13.9
X43.2
X43.238 Z-1.242
X43.271 Z-1.221
X43.292 Z-1.188
X43.3 Z-1.15
Z3
X43.1 Y12.523
Z2
Z-0.25 F200
Z-0.75
Y13.95 Z-0.8 F333.3
X51.4 Z-1.09
Y11.65 Z-1.17
X43.1 Z-1.46
Y12.8 Z-1.5
Y13.95 F600
X51.4
Y11.65
X43.1
Y12.8
X43.108 Y12.838
X43.129 Y12.871
X43.162 Y12.892
X43.2 Y12.9
X43.3
X43.338 Z-1.492
X43.371 Z-1.471
X43.392 Z-1.438
X43.4 Z-1.4
Z3
X43 Y13.323
Z2
Z-0.25 F200
Z-0.75
Y14.05 Z-0.775 F333.3
X51.5 Z-1.072
Y11.55 Z-1.16
X43 Z-1.456
Y12.8 Z-1.5
Y14.05 F600
X51.5
Y11.55
X43
Y12.8
Y13.8
X43.008 Y13.838
X43.029 Y13.871
X43.062 Y13.892
X43.1 Y13.9
X43.2
X43.238 Z-1.492
X43.271 Z-1.471
X43.292 Z-1.438
X43.3 Z-1.4
Z3
X43.1 Y12.523
Z2
Z-0.5 F200
Z-1
Y13.95 Z-1.05 F333.3
X51.4 Z-1.34
Y11.65 Z-1.42
X43.1 Z-1.71
Y12.8 Z-1.75
Y13.95 F600
X51.4
Y11.65
X43.1
Y12.8
X43.108 Y12.838
X43.129 Y12.871
X43.162 Y12.892
X43.2 Y12.9
X43.3
X43.338 Z-1.742
X43.371 Z-1.721
X43.392 Z-1.688
X43.4 Z-1.65
Z3
X43 Y13.323
Z2
Z-0.5 F200
Z-1
Y14.05 Z-1.025 F333.3
X51.5 Z-1.322
Y11.55 Z-1.41
X43 Z-1.706
Y12.8 Z-1.75
Y14.05 F600
X51.5
Y11.55
X43
Y12.8
Y13.8
X43.008 Y13.838
X43.029 Y13.871
X43.062 Y13.892
X43.1 Y13.9
X43.2
X43.238 Z-1.742
X43.271 Z-1.721
X43.292 Z-1.688
X43.3 Z-1.65
Z3
X43.1 Y12.523
Z2
Z-0.75 F200
Z-1.25
Y13.95 Z-1.3 F333.3
X51.4 Z-1.59
Y11.65 Z-1.67
X43.1 Z-1.96
Y12.8 Z-2
Y13.95 F600
X51.4
Y11.65
X43.1
Y12.8
X43.108 Y12.838
X43.129 Y12.871
X43.162 Y12.892
X43.2 Y12.9
X43.3
X43.338 Z-1.992
X43.371 Z-1.971
X43.392 Z-1.938
X43.4 Z-1.9
Z3
X43 Y13.323
Z2
Z-0.75 F200
Z-1.25
Y14.05 Z-1.275 F333.3
X51.5 Z-1.572
Y11.55 Z-1.66
X43 Z-1.956
Y12.8 Z-2
Y14.05 F600
X51.5
Y11.55
X43
Y12.8
Y13.8
X43.008 Y13.838
X43.029 Y13.871
X43.062 Y13.892
X43.1 Y13.9
X43.2
X43.238 Z-1.992
X43.271 Z-1.971
X43.292 Z-1.938
X43.3 Z-1.9
Z3
X43.1 Y12.523
Z2
Z-1 F200
Z-1.5
Y13.95 Z-1.55 F333.3
X51.4 Z-1.84
Y11.65 Z-1.92
X43.1 Z-2.21
Y12.8 Z-2.25
Y13.95 F600
X51.4
Y11.65
X43.1
Y12.8
X43.108 Y12.838
X43.129 Y12.871
X43.162 Y12.892
X43.2 Y12.9
X43.3
X43.338 Z-2.242
X43.371 Z-2.221
X43.392 Z-2.188
X43.4 Z-2.15
Z3
X43 Y13.323
Z2
Z-1 F200
Z-1.5
Y14.05 Z-1.525 F333.3
X51.5 Z-1.822
Y11.55 Z-1.91
X43 Z-2.206
Y12.8 Z-2.25
Y14.05 F600
X51.5
Y11.55
X43
Y12.8
Y13.8
X43.008 Y13.838
X43.029 Y13.871
X43.062 Y13.892
X43.1 Y13.9
X43.2
X43.238 Z-2.242
X43.271 Z-2.221
X43.292 Z-2.188
X43.3 Z-2.15
Z3
X43.1 Y12.523
Z2
Z-1.25 F200
Z-1.75
Y13.95 Z-1.8 F333.3
X51.4 Z-2.09
Y11.65 Z-2.17
X43.1 Z-2.46
Y12.8 Z-2.5
Y13.95 F600
X51.4
Y11.65
X43.1
Y12.8
X43.108 Y12.838
X43.129 Y12.871
X43.162 Y12.892
X43.2 Y12.9
X43.3
X43.338 Z-2.492
X43.371 Z-2.471
X43.392 Z-2.438
X43.4 Z-2.4
Z3
X43 Y13.323
Z2
Z-1.25 F200
Z-1.75
Y14.05 Z-1.775 F333.3
X51.5 Z-2.072
Y11.55 Z-2.16
X43 Z-2.456
Y12.8 Z-2.5
Y14.05 F600
X51.5
Y11.55
X43
Y12.8
Y13.8
X43.008 Y13.838
X43.029 Y13.871
X43.062 Y13.892
X43.1 Y13.9
X43.2
X43.238 Z-2.492
X43.271 Z-2.471
X43.292 Z-2.438
X43.3 Z-2.4
Z3
X43.1 Y12.523
Z2
Z-1.5 F200
Z-2
Y13.95 Z-2.05 F333.3
X51.4 Z-2.34
Y11.65 Z-2.42
X43.1 Z-2.71
Y12.8 Z-2.75
Y13.95 F600
X51.4
Y11.65
X43.1
Y12.8
X43.108 Y12.838
X43.129 Y12.871
X43.162 Y12.892
X43.2 Y12.9
X43.3
X43.338 Z-2.742
X43.371 Z-2.721
X43.392 Z-2.688
X43.4 Z-2.65
Z3
X43 Y13.323
Z2
Z-1.5 F200
Z-2
Y14.05 Z-2.025 F333.3
X51.5 Z-2.322
Y11.55 Z-2.41
X43 Z-2.706
Y12.8 Z-2.75
Y14.05 F600
X51.5
Y11.55
X43
Y12.8
Y13.8
X43.008 Y13.838
X43.029 Y13.871
X43.062 Y13.892
X43.1 Y13.9
X43.2
X43.238 Z-2.742
X43.271 Z-2.721
X43.292 Z-2.688
X43.3 Z-2.65
Z3
X43.1 Y12.523
Z2
Z-1.75 F200
Z-2.25
Y13.95 Z-2.3 F333.3
X51.4 Z-2.59
Y11.65 Z-2.67
X43.1 Z-2.96
Y12.8 Z-3
Y13.95 F600
X51.4
Y11.65
X43.1
Y12.8
X43.108 Y12.838
X43.129 Y12.871
X43.162 Y12.892
X43.2 Y12.9
X43.3
X43.338 Z-2.992
X43.371 Z-2.971
X43.392 Z-2.938
X43.4 Z-2.9
Z3
X43 Y13.323
Z2
Z-1.75 F200
Z-2.25
Y14.05 Z-2.275 F333.3
X51.5 Z-2.572
Y11.55 Z-2.66
X43 Z-2.956
Y12.8 Z-3
Y14.05 F600
X51.5
Y11.55
X43
Y12.8
Y13.8
X43.008 Y13.838
X43.029 Y13.871
X43.062 Y13.892
X43.1 Y13.9
X43.2
X43.238 Z-2.992
X43.271 Z-2.971
X43.292 Z-2.938
X43.3 Z-2.9
Z3
X45.968 Y13.95
Z2
Z-2 F200
Z-2.5
X51.4 Z-2.69 F333.3
Y11.65 Z-2.77
X43.1 Z-3.06
Y12.8 Z-3.1
Y13.95 F600
X51.4
Y11.65
X43.1
Y12.8
X43.108 Y12.838
X43.129 Y12.871
X43.162 Y12.892
X43.2 Y12.9
X43.3
X43.338 Z-3.092
X43.371 Z-3.071
X43.392 Z-3.038
X43.4 Z-3
Z3
X46.568 Y14.05
Z2
Z-2 F200
Z-2.5
X51.5 Z-2.672 F333.3
Y11.55 Z-2.76
X43 Z-3.056
Y12.8 Z-3.1
Y14.05 F600
X51.5
Y11.55
X43
Y12.8
Y13.8
X43.008 Y13.838
X43.029 Y13.871
X43.062 Y13.892
X43.1 Y13.9
X43.2
X43.238 Z-3.092
X43.271 Z-3.071
X43.292 Z-3.038
X43.3 Z-3
Z3
X33.746 Y19.107
Z2
Z1 F200
Z0.5
G2 X32.75 Y18.2 Z0.448 I-0.996 J0.093 F333.3
G1 X12.75 Z-0.25
G2 X12.75 Y20.2 I0 J1 F600
G1 X32.75
G2 X32.75 Y18.2 I0 J-1
G1 X12.75
X12.712 Y18.208
X12.679 Y18.229
X12.658 Y18.262
X12.65 Y18.3
Y18.4
Y18.438 Z-0.242
Y18.471 Z-0.221
Y18.492 Z-0.188
Y18.5 Z-0.15
Z3
X33.822 Y18.951
Z2
Z1 F200
Z0.5
G2 X32.75 Y18.1 Z0.448 I-1.072 J0.249 F333.3
G1 X12.75 Z-0.25
G2 X12.75 Y20.3 I0 J1.1 F600
G1 X32.75
G2 X32.75 Y18.1 I0 J-1.1
G1 X12.75
G2 X11.882 Y18.524 I0 J1.1
G1 X11.865 Y18.559
X11.862 Y18.598
X11.874 Y18.635
X11.9 Y18.664
X11.979 Y18.726
X12.009 Y18.749 Z-0.242
X12.034 Y18.769 Z-0.221
X12.051 Y18.783 Z-0.188
X12.057 Y18.787 Z-0.15
Z3
X33.746 Y19.107
Z2
Z0.75 F200
Z0.25
G2 X32.75 Y18.2 Z0.198 I-0.996 J0.093 F333.3
G1 X12.75 Z-0.5
G2 X12.75 Y20.2 I0 J1 F600
G1 X32.75
G2 X32.75 Y18.2 I0 J-1
G1 X12.75
X12.712 Y18.208
X12.679 Y18.229
X12.658 Y18.262
X12.65 Y18.3
Y18.4
Y18.438 Z-0.492
Y18.471 Z-0.471
Y18.492 Z-0.438
Y18.5 Z-0.4
Z3
X33.822 Y18.951
Z2
Z0.75 F200
Z0.25
G2 X32.75 Y18.1 Z0.198 I-1.072 J0.249 F333.3
G1 X12.75 Z-0.5
G2 X12.75 Y20.3 I0 J1.1 F600
G1 X32.75
G2 X32.75 Y18.1 I0 J-1.1
G1 X12.75
G2 X11.882 Y18.524 I0 J1.1
G1 X11.865 Y18.559
X11.862 Y18.598
X11.874 Y18.635
X11.9 Y18.664
X11.979 Y18.726
X12.009 Y18.749 Z-0.492
X12.034 Y18.769 Z-0.471
X12.051 Y18.783 Z-0.438
X12.057 Y18.787 Z-0.4
Z3
X33.746 Y19.107
Z2
Z0.5 F200
Z0
G2 X32.75 Y18.2 Z-0.052 I-0.996 J0.093 F333.3
G1 X12.75 Z-0.75
G2 X12.75 Y20.2 I0 J1 F600
G1 X32.75
G2 X32.75 Y18.2 I0 J-1
G1 X12.75
X12.712 Y18.208
X12.679 Y18.229
X12.658 Y18.262
X12.65 Y18.3
Y18.4
Y18.438 Z-0.742
Y18.471 Z-0.721
Y18.492 Z-0.688
Y18.5 Z-0.65
Z3
X33.822 Y18.951
Z2
Z0.5 F200
Z0
G2 X32.75 Y18.1 Z-0.052 I-1.072 J0.249 F333.3
G1 X12.75 Z-0.75
G2 X12.75 Y20.3 I0 J1.1 F600
G1 X32.75
G2 X32.75 Y18.1 I0 J-1.1
G1 X12.75
G2 X11.882 Y18.524 I0 J1.1
G1 X11.865 Y18.559
X11.862 Y18.598
X11.874 Y18.635
X11.9 Y18.664
X11.979 Y18.726
X12.009 Y18.749 Z-0.742
X12.034 Y18.769 Z-0.721
X12.051 Y18.783 Z-0.688
X12.057 Y18.787 Z-0.65
Z3
X33.746 Y19.107
Z2
Z0.25 F200
Z-0.25
G2 X32.75 Y18.2 Z-0.302 I-0.996 J0.093 F333.3
G1 X12.75 Z-1
G2 X12.75 Y20.2 I0 J1 F600
G1 X32.75
G2 X32.75 Y18.2 I0 J-1
G1 X12.75
X12.712 Y18.208
X12.679 Y18.229
X12.658 Y18.262
X12.65 Y18.3
Y18.4
Y18.438 Z-0.992
Y18.471 Z-0.971
Y18.492 Z-0.938
Y18.5 Z-0.9
Z3
X33.822 Y18.951
Z2
Z0.25 F200
Z-0.25
G2 X32.75 Y18.1 Z-0.302 I-1.072 J0.249 F333.3
G1 X12.75 Z-1
G2 X12.75 Y20.3 I0 J1.1 F600
G1 X32.75
G2 X32.75 Y18.1 I0 J-1.1
G1 X12.75
G2 X11.882 Y18.524 I0 J1.1
G1 X11.865 Y18.559
X11.862 Y18.598
X11.874 Y18.635
X11.9 Y18.664
X11.979 Y18.726
X12.009 Y18.749 Z-0.992
X12.034 Y18.769 Z-0.971
X12.051 Y18.783 Z-0.938
X12.057 Y18.787 Z-0.9
Z3
X33.746 Y19.107
Z2
Z0 F200
Z-0.5
G2 X32.75 Y18.2 Z-0.552 I-0.996 J0.093 F333.3
G1 X12.75 Z-1.25
G2 X12.75 Y20.2 I0 J1 F600
G1 X32.75
G2 X32.75 Y18.2 I0 J-1
G1 X12.75
X12.712 Y18.208
X12.679 Y18.229
X12.658 Y18.262
X12.65 Y18.3
Y18.4
Y18.438 Z-1.242
Y18.471 Z-1.221
Y18.492 Z-1.188
Y18.5 Z-1.15
Z3
X33.822 Y18.951
Z2
Z0 F200
Z-0.5
G2 X32.75 Y18.1 Z-0.552 I-1.072 J0.249 F333.3
G1 X12.75 Z-1.25
G2 X12.75 Y20.3 I0 J1.1 F600
G1 X32.75
G2 X32.75 Y18.1 I0 J-1.1
G1 X12.75
G2 X11.882 Y18.524 I0 J1.1
G1 X11.865 Y18.559
X11.862 Y18.598
X11.874 Y18.635
X11.9 Y18.664
X11.979 Y18.726
X12.009 Y18.749 Z-1.242
X12.034 Y18.769 Z-1.221
X12.051 Y18.783 Z-1.188
X12.057 Y18.787 Z-1.15
Z3
X33.746 Y19.107
Z2
Z-0.25 F200
Z-0.75
G2 X32.75 Y18.2 Z-0.802 I-0.996 J0.093 F333.3
G1 X12.75 Z-1.5
G2 X12.75 Y20.2 I0 J1 F600
G1 X32.75
G2 X32.75 Y18.2 I0 J-1
G1 X12.75
X12.712 Y18.208
X12.679 Y18.229
X12.658 Y18.262
X12.65 Y18.3
Y18.4
Y18.438 Z-1.492
Y18.471 Z-1.471
Y18.492 Z-1.438
Y18.5 Z-1.4
Z3
X33.822 Y18.951
Z2
Z-0.25 F200
Z-0.75
G2 X32.75 Y18.1 Z-0.802 I-1.072 J0.249 F333.3
G1 X12.75 Z-1.5
G2 X12.75 Y20.3 I0 J1.1 F600
G1 X32.75
G2 X32.75 Y18.1 I0 J-1.1
G1 X12.75
G2 X11.882 Y18.524 I0 J1.1
G1 X11.865 Y18.559
X11.862 Y18.598
X11.874 Y18.635
X11.9 Y18.664
X11.979 Y18.726
X12.009 Y18.749 Z-1.492
X12.034 Y18.769 Z-1.471
X12.051 Y18.783 Z-1.438
X12.057 Y18.787 Z-1.4
Z3
X33.746 Y19.107
Z2
Z-0.5 F200
Z-1
G2 X32.75 Y18.2 Z-1.052 I-0.996 J0.093 F333.3
G1 X12.75 Z-1.75
G2 X12.75 Y20.2 I0 J1 F600
G1 X32.75
G2 X32.75 Y18.2 I0 J-1
G1 X12.75
X12.712 Y18.208
X12.679 Y18.229
X12.658 Y18.262
X12.65 Y18.3
Y18.4
Y18.438 Z-1.742
Y18.471 Z-1.721
Y18.492 Z-1.688
Y18.5 Z-1.65
Z3
X33.822 Y18.951
Z2
Z-0.5 F200
Z-1
G2 X32.75 Y18.1 Z-1.052 I-1.072 J0.249 F333.3
G1 X12.75 Z-1.75
G2 X12.75 Y20.3 I0 J1.1 F600
G1 X32.75
G2 X32.75 Y18.1 I0 J-1.1
G1 X12.75
G2 X11.882 Y18.524 I0 J1.1
G1 X11.865 Y18.559
X11.862 Y18.598
X11.874 Y18.635
X11.9 Y18.664
X11.979 Y18.726
X12.009 Y18.749 Z-1.742
X12.034 Y18.769 Z-1.721
X12.051 Y18.783 Z-1.688
X12.057 Y18.787 Z-1.65
Z3
X33.746 Y19.107
Z2
Z-0.75 F200
Z-1.25
G2 X32.75 Y18.2 Z-1.302 I-0.996 J0.093 F333.3
G1 X12.75 Z-2
G2 X12.75 Y20.2 I0 J1 F600
G1 X32.75
G2 X32.75 Y18.2 I0 J-1
G1 X12.75
X12.712 Y18.208
X12.679 Y18.229
X12.658 Y18.262
X12.65 Y18.3
Y18.4
Y18.438 Z-1.992
Y18.471 Z-1.971
Y18.492 Z-1.938
Y18.5 Z-1.9
Z3
X33.822 Y18.951
Z2
Z-0.75 F200
Z-1.25
G2 X32.75 Y18.1 Z-1.302 I-1.072 J0.249 F333.3
G1 X12.75 Z-2
G2 X12.75 Y20.3 I0 J1.1 F600
G1 X32.75
G2 X32.75 Y18.1 I0 J-1.1
G1 X12.75
G2 X11.882 Y18.524 I0 J1.1
G1 X11.865 Y18.559
X11.862 Y18.598
X11.874 Y18.635
X11.9 Y18.664
X11.979 Y18.726
X12.009 Y18.749 Z-1.992
X12.034 Y18.769 Z-1.971
X12.051 Y18.783 Z-1.938
X12.057 Y18.787 Z-1.9
Z3
X33.746 Y19.107
Z2
Z-1 F200
Z-1.5
G2 X32.75 Y18.2 Z-1.552 I-0.996 J0.093 F333.3
G1 X12.75 Z-2.25
G2 X12.75 Y20.2 I0 J1 F600
G1 X32.75
G2 X32.75 Y18.2 I0 J-1
G1 X12.75
X12.712 Y18.208
X12.679 Y18.229
X12.658 Y18.262
X12.65 Y18.3
Y18.4
Y18.438 Z-2.242
Y18.471 Z-2.221
Y18.492 Z-2.188
Y18.5 Z-2.15
Z3
X33.822 Y18.951
Z2
Z-1 F200
Z-1.5
G2 X32.75 Y18.1 Z-1.552 I-1.072 J0.249 F333.3
G1 X12.75 Z-2.25
G2 X12.75 Y20.3 I0 J1.1 F600
G1 X32.75
G2 X32.75 Y18.1 I0 J-1.1
G1 X12.75
G2 X11.882 Y18.524 I0 J1.1
G1 X11.865 Y18.559
X11.862 Y18.598
X11.874 Y18.635
X11.9 Y18.664
X11.979 Y18.726
X12.009 Y18.749 Z-2.242
X12.034 Y18.769 Z-2.221
X12.051 Y18.783 Z-2.188
X12.057 Y18.787 Z-2.15
Z3
X33.746 Y19.107
Z2
Z-1.25 F200
Z-1.75
G2 X32.75 Y18.2 Z-1.802 I-0.996 J0.093 F333.3
G1 X12.75 Z-2.5
G2 X12.75 Y20.2 I0 J1 F600
G1 X32.75
G2 X32.75 Y18.2 I0 J-1
G1 X12.75
X12.712 Y18.208
X12.679 Y18.229
X12.658 Y18.262
X12.65 Y18.3
Y18.4
Y18.438 Z-2.492
Y18.471 Z-2.471
Y18.492 Z-2.438
Y18.5 Z-2.4
Z3
X33.822 Y18.951
Z2
Z-1.25 F200
Z-1.75
G2 X32.75 Y18.1 Z-1.802 I-1.072 J0.249 F333.3
G1 X12.75 Z-2.5
G2 X12.75 Y20.3 I0 J1.1 F600
G1 X32.75
G2 X32.75 Y18.1 I0 J-1.1
G1 X12.75
G2 X11.882 Y18.524 I0 J1.1
G1 X11.865 Y18.559
X11.862 Y18.598
X11.874 Y18.635
X11.9 Y18.664
X11.979 Y18.726
X12.009 Y18.749 Z-2.492
X12.034 Y18.769 Z-2.471
X12.051 Y18.783 Z-2.438
X12.057 Y18.787 Z-2.4
Z3
X33.746 Y19.107
Z2
Z-1.5 F200
Z-2
G2 X32.75 Y18.2 Z-2.052 I-0.996 J0.093 F333.3
G1 X12.75 Z-2.75
G2 X12.75 Y20.2 I0 J1 F600
G1 X32.75
G2 X32.75 Y18.2 I0 J-1
G1 X12.75
X12.712 Y18.208
X12.679 Y18.229
X12.658 Y18.262
X12.65 Y18.3
Y18.4
Y18.438 Z-2.742
Y18.471 Z-2.721
Y18.492 Z-2.688
Y18.5 Z-2.65
Z3
X33.822 Y18.951
Z2
Z-1.5 F200
Z-2
G2 X32.75 Y18.1 Z-2.052 I-1.072 J0.249 F333.3
G1 X12.75 Z-2.75
G2 X12.75 Y20.3 I0 J1.1 F600
G1 X32.75
G2 X32.75 Y18.1 I0 J-1.1
G1 X12.75
G2 X11.882 Y18.524 I0 J1.1
G1 X11.865 Y18.559
X11.862 Y18.598
X11.874 Y18.635
X11.9 Y18.664
X11.979 Y18.726
X12.009 Y18.749 Z-2.742
X12.034 Y18.769 Z-2.721
X12.051 Y18.783 Z-2.688
X12.057 Y18.787 Z-2.65
Z3
X33.746 Y19.107
Z2
Z-1.75 F200
Z-2.25
G2 X32.75 Y18.2 Z-2.302 I-0.996 J0.093 F333.3
G1 X12.75 Z-3
G2 X12.75 Y20.2 I0 J1 F600
G1 X32.75
G2 X32.75 Y18.2 I0 J-1
G1 X12.75
X12.712 Y18.208
X12.679 Y18.229
X12.658 Y18.262
X12.65 Y18.3
Y18.4
Y18.438 Z-2.992
Y18.471 Z-2.971
Y18.492 Z-2.938
Y18.5 Z-2.9
Z3
X33.822 Y18.951
Z2
Z-1.75 F200
Z-2.25
G2 X32.75 Y18.1 Z-2.302 I-1.072 J0.249 F333.3
G1 X12.75 Z-3
G2 X12.75 Y20.3 I0 J1.1 F600
G1 X32.75
G2 X32.75 Y18.1 I0 J-1.1
G1 X12.75
G2 X11.882 Y18.524 I0 J1.1
G1 X11.865 Y18.559
X11.862 Y18.598
X11.874 Y18.635
X11.9 Y18.664
X11.979 Y18.726
X12.009 Y18.749 Z-2.992
X12.034 Y18.769 Z-2.971
X12.051 Y18.783 Z-2.938
X12.057 Y18.787 Z-2.9
Z3
X29.932 Y18.2
Z2
Z-2 F200
Z-2.5
X12.75 Z-3.1 F333.3
G2 X12.75 Y20.2 I0 J1 F600
G1 X32.75
G2 X32.75 Y18.2 I0 J-1
G1 X12.75
X12.712 Y18.208
X12.679 Y18.229
X12.658 Y18.262
X12.65 Y18.3
Y18.4
Y18.438 Z-3.092
Y18.471 Z-3.071
Y18.492 Z-3.038
Y18.5 Z-3
Z3
X29.932 Y18.1
Z2
Z-2 F200
Z-2.5
X12.75 Z-3.1 F333.3
G2 X12.75 Y20.3 I0 J1.1 F600
G1 X32.75
G2 X32.75 Y18.1 I0 J-1.1
G1 X12.75
G2 X11.882 Y18.524 I0 J1.1
G1 X11.865 Y18.559
X11.862 Y18.598
X11.874 Y18.635
X11.9 Y18.664
X11.979 Y18.726
X12.009 Y18.749 Z-3.092
X12.034 Y18.769 Z-3.071
X12.051 Y18.783 Z-3.038
X12.057 Y18.787 Z-3
Z3
X11.754 Y66.893
Z2
Z1 F200
Z0.5
G2 X12.75 Y67.8 Z0.448 I0.996 J-0.093 F333.3
G1 X32.75 Z-0.25
G2 X32.75 Y65.8 I0 J-1 F600
G1 X12.75
G2 X12.75 Y67.8 I0 J1
G1 X32.75
X32.788 Y67.792
X32.821 Y67.771
X32.842 Y67.738
X32.85 Y67.7
Y67.6
Y67.562 Z-0.242
Y67.529 Z-0.221
Y67.508 Z-0.188
Y67.5 Z-0.15
Z3
X11.678 Y67.049
Z2
Z1 F200
Z0.5
G2 X12.75 Y67.9 Z0.448 I1.072 J-0.249 F333.3
G1 X32.75 Z-0.25
G2 X32.75 Y65.7 I0 J-1.1 F600
G1 X12.75
G2 X12.75 Y67.9 I0 J1.1
G1 X32.75
G2 X33.618 Y67.476 I0 J-1.1
G1 X33.635 Y67.441
X33.638 Y67.402
X33.626 Y67.365
X33.6 Y67.336
X33.521 Y67.274
X33.491 Y67.251 Z-0.242
X33.466 Y67.231 Z-0.221
X33.449 Y67.217 Z-0.188
X33.443 Y67.213 Z-0.15
Z3
X11.754 Y66.893
Z2
Z0.75 F200
Z0.25
G2 X12.75 Y67.8 Z0.198 I0.996 J-0.093 F333.3
G1 X32.75 Z-0.5
G2 X32.75 Y65.8 I0 J-1 F600
G1 X12.75
G2 X12.75 Y67.8 I0 J1
G1 X32.75
X32.788 Y67.792
X32.821 Y67.771
X32.842 Y67.738
X32.85 Y67.7
Y67.6
Y67.562 Z-0.492
Y67.529 Z-0.471
Y67.508 Z-0.438
Y67.5 Z-0.4
Z3
X11.678 Y67.049
Z2
Z0.75 F200
Z0.25
G2 X12.75 Y67.9 Z0.198 I1.072 J-0.249 F333.3
G1 X32.75 Z-0.5
G2 X32.75 Y65.7 I0 J-1.1 F600
G1 X12.75
G2 X12.75 Y67.9 I0 J1.1
G1 X32.75
G2 X33.618 Y67.476 I0 J-1.1
G1 X33.635 Y67.441
X33.638 Y67.402
X33.626 Y67.365
X33.6 Y67.336
X33.521 Y67.274
X33.491 Y67.251 Z-0.492
X33.466 Y67.231 Z-0.471
X33.449 Y67.217 Z-0.438
X33.443 Y67.213 Z-0.4
Z3
X11.754 Y66.893
Z2
Z0.5 F200
Z0
G2 X12.75 Y67.8 Z-0.052 I0.996 J-0.093 F333.3
G1 X32.75 Z-0.75
G2 X32.75 Y65.8 I0 J-1 F600
G1 X12.75
G2 X12.75 Y67.8 I0 J1
G1 X32.75
X32.788 Y67.792
X32.821 Y67.771
X32.842 Y67.738
X32.85 Y67.7
Y67.6
Y67.562 Z-0.742
Y67.529 Z-0.721
Y67.508 Z-0.688
Y67.5 Z-0.65
Z3
X11.678 Y67.049
Z2
Z0.5 F200
Z0
G2 X12.75 Y67.9 Z-0.052 I1.072 J-0.249 F333.3
G1 X32.75 Z-0.75
G2 X32.75 Y65.7 I0 J-1.1 F600
G1 X12.75
G2 X12.75 Y67.9 I0 J1.1
G1 X32.75
G2 X33.618 Y67.476 I0 J-1.1
G1 X33.635 Y67.441
X33.638 Y67.402
X33.626 Y67.365
X33.6 Y67.336
X33.521 Y67.274
X33.491 Y67.251 Z-0.742
X33.466 Y67.231 Z-0.721
X33.449 Y67.217 Z-0.688
X33.443 Y67.213 Z-0.65
Z3
X11.754 Y66.893
Z2
Z0.25 F200
Z-0.25
G2 X12.75 Y67.8 Z-0.302 I0.996 J-0.093 F333.3
G1 X32.75 Z-1
G2 X32.75 Y65.8 I0 J-1 F600
G1 X12.75
G2 X12.75 Y67.8 I0 J1
G1 X32.75
X32.788 Y67.792
X32.821 Y67.771
X32.842 Y67.738
X32.85 Y67.7
Y67.6
Y67.562 Z-0.992
Y67.529 Z-0.971
Y67.508 Z-0.938
Y67.5 Z-0.9
Z3
X11.678 Y67.049
Z2
Z0.25 F200
Z-0.25
G2 X12.75 Y67.9 Z-0.302 I1.072 J-0.249 F333.3
G1 X32.75 Z-1
G2 X32.75 Y65.7 I0 J-1.1 F600
G1 X12.75
G2 X12.75 Y67.9 I0 J1.1
G1 X32.75
G2 X33.618 Y67.476 I0 J-1.1
G1 X33.635 Y67.441
X33.638 Y67.402
X33.626 Y67.365
X33.6 Y67.336
X33.521 Y67.274
X33.491 Y67.251 Z-0.992
X33.466 Y67.231 Z-0.971
X33.449 Y67.217 Z-0.938
X33.443 Y67.213 Z-0.9
Z3
X11.754 Y66.893
Z2
Z0 F200
Z-0.5
G2 X12.75 Y67.8 Z-0.552 I0.996 J-0.093 F333.3
G1 X32.75 Z-1.25
G2 X32.75 Y65.8 I0 J-1 F600
G1 X12.75
G2 X12.75 Y67.8 I0 J1
G1 X32.75
X32.788 Y67.792
X32.821 Y67.771
X32.842 Y67.738
X32.85 Y67.7
Y67.6
Y67.562 Z-1.242
Y67.529 Z-1.221
Y67.508 Z-1.188
Y67.5 Z-1.15
Z3
X11.678 Y67.049
Z2
Z0 F200
Z-0.5
G2 X12.75 Y67.9 Z-0.552 I1.072 J-0.249 F333.3
G1 X32.75 Z-1.25
G2 X32.75 Y65.7 I0 J-1.1 F600
G1 X12.75
G2 X12.75 Y67.9 I0 J1.1
G1 X32.75
G2 X33.618 Y67.476 I0 J-1.1
G1 X33.635 Y67.441
X33.638 Y67.402
X33.626 Y67.365
X33.6 Y67.336
X33.521 Y67.274
X33.491 Y67.251 Z-1.242
X33.466 Y67.231 Z-1.221
X33.449 Y67.217 Z-1.188
X33.443 Y67.213 Z-1.15
Z3
X11.754 Y66.893
Z2
Z-0.25 F200
Z-0.75
G2 X12.75 Y67.8 Z-0.802 I0.996 J-0.093 F333.3
G1 X32.75 Z-1.5
G2 X32.75 Y65.8 I0 J-1 F600
G1 X12.75
G2 X12.75 Y67.8 I0 J1
G1 X32.75
X32.788 Y67.792
X32.821 Y67.771
X32.842 Y67.738
X32.85 Y67.7
Y67.6
Y67.562 Z-1.492
Y67.529 Z-1.471
Y67.508 Z-1.438
Y67.5 Z-1.4
Z3
X11.678 Y67.049
Z2
Z-0.25 F200
Z-0.75
G2 X12.75 Y67.9 Z-0.802 I1.072 J-0.249 F333.3
G1 X32.75 Z-1.5
G2 X32.75 Y65.7 I0 J-1.1 F600
G1 X12.75
G2 X12.75 Y67.9 I0 J1.1
G1 X32.75
G2 X33.618 Y67.476 I0 J-1.1
G1 X33.635 Y67.441
X33.638 Y67.402
X33.626 Y67.365
X33.6 Y67.336
X33.521 Y67.274
X33.491 Y67.251 Z-1.492
X33.466 Y67.231 Z-1.471
X33.449 Y67.217 Z-1.438
X33.443 Y67.213 Z-1.4
Z3
X11.754 Y66.893
Z2
Z-0.5 F200
Z-1
G2 X12.75 Y67.8 Z-1.052 I0.996 J-0.093 F333.3
G1 X32.75 Z-1.75
G2 X32.75 Y65.8 I0 J-1 F600
G1 X12.75
G2 X12.75 Y67.8 I0 J1
G1 X32.75
X32.788 Y67.792
X32.821 Y67.771
X32.842 Y67.738
X32.85 Y67.7
Y67.6
Y67.562 Z-1.742
Y67.529 Z-1.721
Y67.508 Z-1.688
Y67.5 Z-1.65
Z3
X11.678 Y67.049
Z2
Z-0.5 F200
Z-1
G2 X12.75 Y67.9 Z-1.052 I1.072 J-0.249 F333.3
G1 X32.75 Z-1.75
G2 X32.75 Y65.7 I0 J-1.1 F600
G1 X12.75
G2 X12.75 Y67.9 I0 J1.1
G1 X32.75
G2 X33.618 Y67.476 I0 J-1.1
G1 X33.635 Y67.441
X33.638 Y67.402
X33.626 Y67.365
X33.6 Y67.336
X33.521 Y67.274
X33.491 Y67.251 Z-1.742
X33.466 Y67.231 Z-1.721
X33.449 Y67.217 Z-1.688
X33.443 Y67.213 Z-1.65
Z3
X11.754 Y66.893
Z2
Z-0.75 F200
Z-1.25
G2 X12.75 Y67.8 Z-1.302 I0.996 J-0.093 F333.3
G1 X32.75 Z-2
G2 X32.75 Y65.8 I0 J-1 F600
G1 X12.75
G2 X12.75 Y67.8 I0 J1
G1 X32.75
X32.788 Y67.792
X32.821 Y67.771
X32.842 Y67.738
X32.85 Y67.7
Y67.6
Y67.562 Z-1.992
Y67.529 Z-1.971
Y67.508 Z-1.938
Y67.5 Z-1.9
Z3
X11.678 Y67.049
Z2
Z-0.75 F200
Z-1.25
G2 X12.75 Y67.9 Z-1.302 I1.072 J-0.249 F333.3
G1 X32.75 Z-2
G2 X32.75 Y65.7 I0 J-1.1 F600
G1 X12.75
G2 X12.75 Y67.9 I0 J1.1
G1 X32.75
G2 X33.618 Y67.476 I0 J-1.1
G1 X33.635 Y67.441
X33.638 Y67.402
X33.626 Y67.365
X33.6 Y67.336
X33.521 Y67.274
X33.491 Y67.251 Z-1.992
X33.466 Y67.231 Z-1.971
X33.449 Y67.217 Z-1.938
X33.443 Y67.213 Z-1.9
Z3
X11.754 Y66.893
Z2
Z-1 F200
Z-1.5
G2 X12.75 Y67.8 Z-1.552 I0.996 J-0.093 F333.3
G1 X32.75 Z-2.25
G2 X32.75 Y65.8 I0 J-1 F600
G1 X12.75
G2 X12.75 Y67.8 I0 J1
G1 X32.75
X32.788 Y67.792
X32.821 Y67.771
X32.842 Y67.738
X32.85 Y67.7
Y67.6
Y67.562 Z-2.242
Y67.529 Z-2.221
Y67.508 Z-2.188
Y67.5 Z-2.15
Z3
X11.678 Y67.049
Z2
Z-1 F200
Z-1.5
G2 X12.75 Y67.9 Z-1.552 I1.072 J-0.249 F333.3
G1 X32.75 Z-2.25
G2 X32.75 Y65.7 I0 J-1.1 F600
G1 X12.75
G2 X12.75 Y67.9 I0 J1.1
G1 X32.75
G2 X33.618 Y67.476 I0 J-1.1
G1 X33.635 Y67.441
X33.638 Y67.402
X33.626 Y67.365
X33.6 Y67.336
X33.521 Y67.274
X33.491 Y67.251 Z-2.242
X33.466 Y67.231 Z-2.221
X33.449 Y67.217 Z-2.188
X33.443 Y67.213 Z-2.15
Z3
X11.754 Y66.893
Z2
Z-1.25 F200
Z-1.75
G2 X12.75 Y67.8 Z-1.802 I0.996 J-0.093 F333.3
G1 X32.75 Z-2.5
G2 X32.75 Y65.8 I0 J-1 F600
G1 X12.75
G2 X12.75 Y67.8 I0 J1
G1 X32.75
X32.788 Y67.792
X32.821 Y67.771
X32.842 Y67.738
X32.85 Y67.7
Y67.6
Y67.562 Z-2.492
Y67.529 Z-2.471
Y67.508 Z-2.438
Y67.5 Z-2.4
Z3
X11.678 Y67.049
Z2
Z-1.25 F200
Z-1.75
G2 X12.75 Y67.9 Z-1.802 I1.072 J-0.249 F333.3
G1 X32.75 Z-2.5
G2 X32.75 Y65.7 I0 J-1.1 F600
G1 X12.75
G2 X12.75 Y67.9 I0 J1.1
G1 X32.75
G2 X33.618 Y67.476 I0 J-1.1
G1 X33.635 Y67.441
X33.638 Y67.402
X33.626 Y67.365
X33.6 Y67.336
X33.521 Y67.274
X33.491 Y67.251 Z-2.492
X33.466 Y67.231 Z-2.471
X33.449 Y67.217 Z-2.438
X33.443 Y67.213 Z-2.4
Z3
X11.754 Y66.893
Z2
Z-1.5 F200
Z-2
G2 X12.75 Y67.8 Z-2.052 I0.996 J-0.093 F333.3
G1 X32.75 Z-2.75
G2 X32.75 Y65.8 I0 J-1 F600
G1 X12.75
G2 X12.75 Y67.8 I0 J1
G1 X32.75
X32.788 Y67.792
X32.821 Y67.771
X32.842 Y67.738
X32.85 Y67.7
Y67.6
Y67.562 Z-2.742
Y67.529 Z-2.721
Y67.508 Z-2.688
Y67.5 Z-2.65
Z3
X11.678 Y67.049
Z2
Z-1.5 F200
Z-2
G2 X12.75 Y67.9 Z-2.052 I1.072 J-0.249 F333.3
G1 X32.75 Z-2.75
G2 X32.75 Y65.7 I0 J-1.1 F600
G1 X12.75
G2 X12.75 Y67.9 I0 J1.1
G1 X32.75
G2 X33.618 Y67.476 I0 J-1.1
G1 X33.635 Y67.441
X33.638 Y67.402
X33.626 Y67.365
X33.6 Y67.336
X33.521 Y67.274
X33.491 Y67.251 Z-2.742
X33.466 Y67.231 Z-2.721
X33.449 Y67.217 Z-2.688
X33.443 Y67.213 Z-2.65
Z3
X11.754 Y66.893
Z2
Z-1.75 F200
Z-2.25
G2 X12.75 Y67.8 Z-2.302 I0.996 J-0.093 F333.3
G1 X32.75 Z-3
G2 X32.75 Y65.8 I0 J-1 F600
G1 X12.75
G2 X12.75 Y67.8 I0 J1
G1 X32.75
X32.788 Y67.792
X32.821 Y67.771
X32.842 Y67.738
X32.85 Y67.7
Y67.6
Y67.562 Z-2.992
Y67.529 Z-2.971
Y67.508 Z-2.938
Y67.5 Z-2.9
Z3
X11.678 Y67.049
Z2
Z-1.75 F200
Z-2.25
G2 X12.75 Y67.9 Z-2.302 I1.072 J-0.249 F333.3
G1 X32.75 Z-3
G2 X32.75 Y65.7 I0 J-1.1 F600
G1 X12.75
G2 X12.75 Y67.9 I0 J1.1
G1 X32.75
G2 X33.618 Y67.476 I0 J-1.1
G1 X33.635 Y67.441
X33.638 Y67.402
X33.626 Y67.365
X33.6 Y67.336
X33.521 Y67.274
X33.491 Y67.251 Z-2.992
X33.466 Y67.231 Z-2.971
X33.449 Y67.217 Z-2.938
X33.443 Y67.213 Z-2.9
Z3
X15.568 Y67.8
Z2
Z-2 F200
Z-2.5
X32.75 Z-3.1 F333.3
G2 X32.75 Y65.8 I0 J-1 F600
G1 X12.75
G2 X12.75 Y67.8 I0 J1
G1 X32.75
X32.788 Y67.792
X32.821 Y67.771
X32.842 Y67.738
X32.85 Y67.7
Y67.6
Y67.562 Z-3.092
Y67.529 Z-3.071
Y67.508 Z-3.038
Y67.5 Z-3
Z3
X15.568 Y67.9
Z2
Z-2 F200
Z-2.5
X32.75 Z-3.1 F333.3
G2 X32.75 Y65.7 I0 J-1.1 F600
G1 X12.75
G2 X12.75 Y67.9 I0 J1.1
G1 X32.75
G2 X33.618 Y67.476 I0 J-1.1
G1 X33.635 Y67.441
X33.638 Y67.402
X33.626 Y67.365
X33.6 Y67.336
X33.521 Y67.274
X33.491 Y67.251 Z-3.092
X33.466 Y67.231 Z-3.071
X33.449 Y67.217 Z-3.038
X33.443 Y67.213 Z-3
Z5
M5
M30
