(1001)
(Machine)
(  vendor: Autodesk)
(  model: Sainsmart 3018pro)
(  description: 3018)
G90 G94
G17
G21
(When using Fusion 360 for Personal Use, the feedrate of)
(rapid moves is reduced to match the feedrate of cutting)
(moves, which can increase machining time. Unrestricted rapid)
(moves are available with a Fusion 360 Subscription.)

(2D Contour Rear)
G54
G0 Z5 F1500
G0 X15.823 Y3.7
S5000 M3
G1 Z2 F600
Z1 F200
Z0.5
X37.3 Z-0.25 F333.3
X71.4 F600
G3 X73 Y5.3 I0 J1.6
G1 Y7.8
G3 X71.4 Y9.4 I-1.6 J0
G1 X66.5
Y15.2
X71.4
G3 X73 Y16.8 I0 J1.6
G1 Y50.8
G3 X71.4 Y52.4 I-1.6 J0
G1 X70.4
G3 X68.8 Y50.8 I0 J-1.6
G1 Y49.4
X66.5
Y51.8
G3 X65.9 Y52.4 I-0.6 J0
G1 X8.7
G3 X8.1 Y51.8 I0 J-0.6
G1 Y49.4
X5.8
Y50.8
G3 X4.2 Y52.4 I-1.6 J0
G1 X3.2
G3 X1.6 Y50.8 I0 J-1.6
G1 Y16.8
G3 X3.2 Y15.2 I1.6 J0
G1 X8.1
Y9.4
X3.2
G3 X1.6 Y7.8 I0 J-1.6
G1 Y5.3
G3 X3.2 Y3.7 I1.6 J0
G1 X37.3
X37.338 Y3.692
X37.371 Y3.671
X37.392 Y3.638
X37.4 Y3.6
Y3.5
Y3.462 Z-0.242
Y3.429 Z-0.221
Y3.408 Z-0.188
Y3.4 Z-0.15
Z3
X58.777 Y52.3
Z2
Z1 F200
Z0.5
X37.3 Z-0.25 F333.3
X8.7 F600
G3 X8.2 Y51.8 I0 J-0.5
G1 Y49.3
X5.7
Y50.8
G3 X4.2 Y52.3 I-1.5 J0
G1 X3.2
G3 X1.7 Y50.8 I0 J-1.5
G1 Y16.8
G3 X3.2 Y15.3 I1.5 J0
G1 X8.2
Y9.3
X3.2
G3 X1.7 Y7.8 I0 J-1.5
G1 Y5.3
G3 X3.2 Y3.8 I1.5 J0
G1 X71.4
G3 X72.9 Y5.3 I0 J1.5
G1 Y7.8
G3 X71.4 Y9.3 I-1.5 J0
G1 X66.4
Y15.3
X71.4
G3 X72.9 Y16.8 I0 J1.5
G1 Y50.8
G3 X71.4 Y52.3 I-1.5 J0
G1 X70.4
G3 X68.9 Y50.8 I0 J-1.5
G1 Y49.3
X66.4
Y51.8
G3 X65.9 Y52.3 I-0.5 J0
G1 X37.3
X36.3
X36.262 Y52.308
X36.229 Y52.329
X36.208 Y52.362
X36.2 Y52.4
Y52.5
Y52.538 Z-0.242
Y52.571 Z-0.221
Y52.592 Z-0.188
Y52.6 Z-0.15
Z3
X58.777 Y52.4
Z2
Z0.75 F200
Z0.25
X37.3 Z-0.5 F333.3
X8.7 F600
G3 X8.1 Y51.8 I0 J-0.6
G1 Y49.4
X5.8
Y50.8
G3 X4.2 Y52.4 I-1.6 J0
G1 X3.2
G3 X1.6 Y50.8 I0 J-1.6
G1 Y16.8
G3 X3.2 Y15.2 I1.6 J0
G1 X8.1
Y9.4
X3.2
G3 X1.6 Y7.8 I0 J-1.6
G1 Y5.3
G3 X3.2 Y3.7 I1.6 J0
G1 X71.4
G3 X73 Y5.3 I0 J1.6
G1 Y7.8
G3 X71.4 Y9.4 I-1.6 J0
G1 X66.5
Y15.2
X71.4
G3 X73 Y16.8 I0 J1.6
G1 Y50.8
G3 X71.4 Y52.4 I-1.6 J0
G1 X70.4
G3 X68.8 Y50.8 I0 J-1.6
G1 Y49.4
X66.5
Y51.8
G3 X65.9 Y52.4 I-0.6 J0
G1 X37.3
X37.262 Y52.408
X37.229 Y52.429
X37.208 Y52.462
X37.2 Y52.5
Y52.6
Y52.638 Z-0.492
Y52.671 Z-0.471
Y52.692 Z-0.438
Y52.7 Z-0.4
Z3
X58.777 Y52.3
Z2
Z0.75 F200
Z0.25
X37.3 Z-0.5 F333.3
X8.7 F600
G3 X8.2 Y51.8 I0 J-0.5
G1 Y49.3
X5.7
Y50.8
G3 X4.2 Y52.3 I-1.5 J0
G1 X3.2
G3 X1.7 Y50.8 I0 J-1.5
G1 Y16.8
G3 X3.2 Y15.3 I1.5 J0
G1 X8.2
Y9.3
X3.2
G3 X1.7 Y7.8 I0 J-1.5
G1 Y5.3
G3 X3.2 Y3.8 I1.5 J0
G1 X71.4
G3 X72.9 Y5.3 I0 J1.5
G1 Y7.8
G3 X71.4 Y9.3 I-1.5 J0
G1 X66.4
Y15.3
X71.4
G3 X72.9 Y16.8 I0 J1.5
G1 Y50.8
G3 X71.4 Y52.3 I-1.5 J0
G1 X70.4
G3 X68.9 Y50.8 I0 J-1.5
G1 Y49.3
X66.4
Y51.8
G3 X65.9 Y52.3 I-0.5 J0
G1 X37.3
X36.3
X36.262 Y52.308
X36.229 Y52.329
X36.208 Y52.362
X36.2 Y52.4
Y52.5
Y52.538 Z-0.492
Y52.571 Z-0.471
Y52.592 Z-0.438
Y52.6 Z-0.4
Z3
X58.777 Y52.4
Z2
Z0.5 F200
Z0
X37.3 Z-0.75 F333.3
X8.7 F600
G3 X8.1 Y51.8 I0 J-0.6
G1 Y49.4
X5.8
Y50.8
G3 X4.2 Y52.4 I-1.6 J0
G1 X3.2
G3 X1.6 Y50.8 I0 J-1.6
G1 Y16.8
G3 X3.2 Y15.2 I1.6 J0
G1 X8.1
Y9.4
X3.2
G3 X1.6 Y7.8 I0 J-1.6
G1 Y5.3
G3 X3.2 Y3.7 I1.6 J0
G1 X71.4
G3 X73 Y5.3 I0 J1.6
G1 Y7.8
G3 X71.4 Y9.4 I-1.6 J0
G1 X66.5
Y15.2
X71.4
G3 X73 Y16.8 I0 J1.6
G1 Y50.8
G3 X71.4 Y52.4 I-1.6 J0
G1 X70.4
G3 X68.8 Y50.8 I0 J-1.6
G1 Y49.4
X66.5
Y51.8
G3 X65.9 Y52.4 I-0.6 J0
G1 X37.3
X37.262 Y52.408
X37.229 Y52.429
X37.208 Y52.462
X37.2 Y52.5
Y52.6
Y52.638 Z-0.742
Y52.671 Z-0.721
Y52.692 Z-0.688
Y52.7 Z-0.65
Z3
X58.777 Y52.3
Z2
Z0.5 F200
Z0
X37.3 Z-0.75 F333.3
X8.7 F600
G3 X8.2 Y51.8 I0 J-0.5
G1 Y49.3
X5.7
Y50.8
G3 X4.2 Y52.3 I-1.5 J0
G1 X3.2
G3 X1.7 Y50.8 I0 J-1.5
G1 Y16.8
G3 X3.2 Y15.3 I1.5 J0
G1 X8.2
Y9.3
X3.2
G3 X1.7 Y7.8 I0 J-1.5
G1 Y5.3
G3 X3.2 Y3.8 I1.5 J0
G1 X71.4
G3 X72.9 Y5.3 I0 J1.5
G1 Y7.8
G3 X71.4 Y9.3 I-1.5 J0
G1 X66.4
Y15.3
X71.4
G3 X72.9 Y16.8 I0 J1.5
G1 Y50.8
G3 X71.4 Y52.3 I-1.5 J0
G1 X70.4
G3 X68.9 Y50.8 I0 J-1.5
G1 Y49.3
X66.4
Y51.8
G3 X65.9 Y52.3 I-0.5 J0
G1 X37.3
X36.3
X36.262 Y52.308
X36.229 Y52.329
X36.208 Y52.362
X36.2 Y52.4
Y52.5
Y52.538 Z-0.742
Y52.571 Z-0.721
Y52.592 Z-0.688
Y52.6 Z-0.65
Z3
X58.777 Y52.4
Z2
Z0.25 F200
Z-0.25
X37.3 Z-1 F333.3
X8.7 F600
G3 X8.1 Y51.8 I0 J-0.6
G1 Y49.4
X5.8
Y50.8
G3 X4.2 Y52.4 I-1.6 J0
G1 X3.2
G3 X1.6 Y50.8 I0 J-1.6
G1 Y16.8
G3 X3.2 Y15.2 I1.6 J0
G1 X8.1
Y9.4
X3.2
G3 X1.6 Y7.8 I0 J-1.6
G1 Y5.3
G3 X3.2 Y3.7 I1.6 J0
G1 X71.4
G3 X73 Y5.3 I0 J1.6
G1 Y7.8
G3 X71.4 Y9.4 I-1.6 J0
G1 X66.5
Y15.2
X71.4
G3 X73 Y16.8 I0 J1.6
G1 Y50.8
G3 X71.4 Y52.4 I-1.6 J0
G1 X70.4
G3 X68.8 Y50.8 I0 J-1.6
G1 Y49.4
X66.5
Y51.8
G3 X65.9 Y52.4 I-0.6 J0
G1 X37.3
X37.262 Y52.408
X37.229 Y52.429
X37.208 Y52.462
X37.2 Y52.5
Y52.6
Y52.638 Z-0.992
Y52.671 Z-0.971
Y52.692 Z-0.938
Y52.7 Z-0.9
Z3
X58.777 Y52.3
Z2
Z0.25 F200
Z-0.25
X37.3 Z-1 F333.3
X8.7 F600
G3 X8.2 Y51.8 I0 J-0.5
G1 Y49.3
X5.7
Y50.8
G3 X4.2 Y52.3 I-1.5 J0
G1 X3.2
G3 X1.7 Y50.8 I0 J-1.5
G1 Y16.8
G3 X3.2 Y15.3 I1.5 J0
G1 X8.2
Y9.3
X3.2
G3 X1.7 Y7.8 I0 J-1.5
G1 Y5.3
G3 X3.2 Y3.8 I1.5 J0
G1 X71.4
G3 X72.9 Y5.3 I0 J1.5
G1 Y7.8
G3 X71.4 Y9.3 I-1.5 J0
G1 X66.4
Y15.3
X71.4
G3 X72.9 Y16.8 I0 J1.5
G1 Y50.8
G3 X71.4 Y52.3 I-1.5 J0
G1 X70.4
G3 X68.9 Y50.8 I0 J-1.5
G1 Y49.3
X66.4
Y51.8
G3 X65.9 Y52.3 I-0.5 J0
G1 X37.3
X36.3
X36.262 Y52.308
X36.229 Y52.329
X36.208 Y52.362
X36.2 Y52.4
Y52.5
Y52.538 Z-0.992
Y52.571 Z-0.971
Y52.592 Z-0.938
Y52.6 Z-0.9
Z3
X58.777 Y52.4
Z2
Z0 F200
Z-0.5
X37.3 Z-1.25 F333.3
X8.7 F600
G3 X8.1 Y51.8 I0 J-0.6
G1 Y49.4
X5.8
Y50.8
G3 X4.2 Y52.4 I-1.6 J0
G1 X3.2
G3 X1.6 Y50.8 I0 J-1.6
G1 Y16.8
G3 X3.2 Y15.2 I1.6 J0
G1 X8.1
Y9.4
X3.2
G3 X1.6 Y7.8 I0 J-1.6
G1 Y5.3
G3 X3.2 Y3.7 I1.6 J0
G1 X71.4
G3 X73 Y5.3 I0 J1.6
G1 Y7.8
G3 X71.4 Y9.4 I-1.6 J0
G1 X66.5
Y15.2
X71.4
G3 X73 Y16.8 I0 J1.6
G1 Y50.8
G3 X71.4 Y52.4 I-1.6 J0
G1 X70.4
G3 X68.8 Y50.8 I0 J-1.6
G1 Y49.4
X66.5
Y51.8
G3 X65.9 Y52.4 I-0.6 J0
G1 X37.3
X37.262 Y52.408
X37.229 Y52.429
X37.208 Y52.462
X37.2 Y52.5
Y52.6
Y52.638 Z-1.242
Y52.671 Z-1.221
Y52.692 Z-1.188
Y52.7 Z-1.15
Z3
X58.777 Y52.3
Z2
Z0 F200
Z-0.5
X37.3 Z-1.25 F333.3
X8.7 F600
G3 X8.2 Y51.8 I0 J-0.5
G1 Y49.3
X5.7
Y50.8
G3 X4.2 Y52.3 I-1.5 J0
G1 X3.2
G3 X1.7 Y50.8 I0 J-1.5
G1 Y16.8
G3 X3.2 Y15.3 I1.5 J0
G1 X8.2
Y9.3
X3.2
G3 X1.7 Y7.8 I0 J-1.5
G1 Y5.3
G3 X3.2 Y3.8 I1.5 J0
G1 X71.4
G3 X72.9 Y5.3 I0 J1.5
G1 Y7.8
G3 X71.4 Y9.3 I-1.5 J0
G1 X66.4
Y15.3
X71.4
G3 X72.9 Y16.8 I0 J1.5
G1 Y50.8
G3 X71.4 Y52.3 I-1.5 J0
G1 X70.4
G3 X68.9 Y50.8 I0 J-1.5
G1 Y49.3
X66.4
Y51.8
G3 X65.9 Y52.3 I-0.5 J0
G1 X37.3
X36.3
X36.262 Y52.308
X36.229 Y52.329
X36.208 Y52.362
X36.2 Y52.4
Y52.5
Y52.538 Z-1.242
Y52.571 Z-1.221
Y52.592 Z-1.188
Y52.6 Z-1.15
Z3
X58.777 Y52.4
Z2
Z-0.25 F200
Z-0.75
X37.3 Z-1.5 F333.3
X8.7 F600
G3 X8.1 Y51.8 I0 J-0.6
G1 Y49.4
X5.8
Y50.8
G3 X4.2 Y52.4 I-1.6 J0
G1 X3.2
G3 X1.6 Y50.8 I0 J-1.6
G1 Y16.8
G3 X3.2 Y15.2 I1.6 J0
G1 X8.1
Y9.4
X3.2
G3 X1.6 Y7.8 I0 J-1.6
G1 Y5.3
G3 X3.2 Y3.7 I1.6 J0
G1 X71.4
G3 X73 Y5.3 I0 J1.6
G1 Y7.8
G3 X71.4 Y9.4 I-1.6 J0
G1 X66.5
Y15.2
X71.4
G3 X73 Y16.8 I0 J1.6
G1 Y50.8
G3 X71.4 Y52.4 I-1.6 J0
G1 X70.4
G3 X68.8 Y50.8 I0 J-1.6
G1 Y49.4
X66.5
Y51.8
G3 X65.9 Y52.4 I-0.6 J0
G1 X37.3
X37.262 Y52.408
X37.229 Y52.429
X37.208 Y52.462
X37.2 Y52.5
Y52.6
Y52.638 Z-1.492
Y52.671 Z-1.471
Y52.692 Z-1.438
Y52.7 Z-1.4
Z3
X58.777 Y52.3
Z2
Z-0.25 F200
Z-0.75
X37.3 Z-1.5 F333.3
X8.7 F600
G3 X8.2 Y51.8 I0 J-0.5
G1 Y49.3
X5.7
Y50.8
G3 X4.2 Y52.3 I-1.5 J0
G1 X3.2
G3 X1.7 Y50.8 I0 J-1.5
G1 Y16.8
G3 X3.2 Y15.3 I1.5 J0
G1 X8.2
Y9.3
X3.2
G3 X1.7 Y7.8 I0 J-1.5
G1 Y5.3
G3 X3.2 Y3.8 I1.5 J0
G1 X71.4
G3 X72.9 Y5.3 I0 J1.5
G1 Y7.8
G3 X71.4 Y9.3 I-1.5 J0
G1 X66.4
Y15.3
X71.4
G3 X72.9 Y16.8 I0 J1.5
G1 Y50.8
G3 X71.4 Y52.3 I-1.5 J0
G1 X70.4
G3 X68.9 Y50.8 I0 J-1.5
G1 Y49.3
X66.4
Y51.8
G3 X65.9 Y52.3 I-0.5 J0
G1 X37.3
X36.3
X36.262 Y52.308
X36.229 Y52.329
X36.208 Y52.362
X36.2 Y52.4
Y52.5
Y52.538 Z-1.492
Y52.571 Z-1.471
Y52.592 Z-1.438
Y52.6 Z-1.4
Z3
X58.777 Y52.4
Z2
Z-0.5 F200
Z-1
X37.3 Z-1.75 F333.3
X8.7 F600
G3 X8.1 Y51.8 I0 J-0.6
G1 Y49.4
X5.8
Y50.8
G3 X4.2 Y52.4 I-1.6 J0
G1 X3.2
G3 X1.6 Y50.8 I0 J-1.6
G1 Y16.8
G3 X3.2 Y15.2 I1.6 J0
G1 X8.1
Y9.4
X3.2
G3 X1.6 Y7.8 I0 J-1.6
G1 Y5.3
G3 X3.2 Y3.7 I1.6 J0
G1 X71.4
G3 X73 Y5.3 I0 J1.6
G1 Y7.8
G3 X71.4 Y9.4 I-1.6 J0
G1 X66.5
Y15.2
X71.4
G3 X73 Y16.8 I0 J1.6
G1 Y50.8
G3 X71.4 Y52.4 I-1.6 J0
G1 X70.4
G3 X68.8 Y50.8 I0 J-1.6
G1 Y49.4
X66.5
Y51.8
G3 X65.9 Y52.4 I-0.6 J0
G1 X37.3
X37.262 Y52.408
X37.229 Y52.429
X37.208 Y52.462
X37.2 Y52.5
Y52.6
Y52.638 Z-1.742
Y52.671 Z-1.721
Y52.692 Z-1.688
Y52.7 Z-1.65
Z3
X58.777 Y52.3
Z2
Z-0.5 F200
Z-1
X37.3 Z-1.75 F333.3
X8.7 F600
G3 X8.2 Y51.8 I0 J-0.5
G1 Y49.3
X5.7
Y50.8
G3 X4.2 Y52.3 I-1.5 J0
G1 X3.2
G3 X1.7 Y50.8 I0 J-1.5
G1 Y16.8
G3 X3.2 Y15.3 I1.5 J0
G1 X8.2
Y9.3
X3.2
G3 X1.7 Y7.8 I0 J-1.5
G1 Y5.3
G3 X3.2 Y3.8 I1.5 J0
G1 X71.4
G3 X72.9 Y5.3 I0 J1.5
G1 Y7.8
G3 X71.4 Y9.3 I-1.5 J0
G1 X66.4
Y15.3
X71.4
G3 X72.9 Y16.8 I0 J1.5
G1 Y50.8
G3 X71.4 Y52.3 I-1.5 J0
G1 X70.4
G3 X68.9 Y50.8 I0 J-1.5
G1 Y49.3
X66.4
Y51.8
G3 X65.9 Y52.3 I-0.5 J0
G1 X37.3
X36.3
X36.262 Y52.308
X36.229 Y52.329
X36.208 Y52.362
X36.2 Y52.4
Y52.5
Y52.538 Z-1.742
Y52.571 Z-1.721
Y52.592 Z-1.688
Y52.6 Z-1.65
Z3
X58.777 Y52.4
Z2
Z-0.75 F200
Z-1.25
X37.3 Z-2 F333.3
X8.7 F600
G3 X8.1 Y51.8 I0 J-0.6
G1 Y49.4
X5.8
Y50.8
G3 X4.2 Y52.4 I-1.6 J0
G1 X3.2
G3 X1.6 Y50.8 I0 J-1.6
G1 Y16.8
G3 X3.2 Y15.2 I1.6 J0
G1 X8.1
Y9.4
X3.2
G3 X1.6 Y7.8 I0 J-1.6
G1 Y5.3
G3 X3.2 Y3.7 I1.6 J0
G1 X71.4
G3 X73 Y5.3 I0 J1.6
G1 Y7.8
G3 X71.4 Y9.4 I-1.6 J0
G1 X66.5
Y15.2
X71.4
G3 X73 Y16.8 I0 J1.6
G1 Y50.8
G3 X71.4 Y52.4 I-1.6 J0
G1 X70.4
G3 X68.8 Y50.8 I0 J-1.6
G1 Y49.4
X66.5
Y51.8
G3 X65.9 Y52.4 I-0.6 J0
G1 X37.3
X37.262 Y52.408
X37.229 Y52.429
X37.208 Y52.462
X37.2 Y52.5
Y52.6
Y52.638 Z-1.992
Y52.671 Z-1.971
Y52.692 Z-1.938
Y52.7 Z-1.9
Z3
X58.777 Y52.3
Z2
Z-0.75 F200
Z-1.25
X37.3 Z-2 F333.3
X8.7 F600
G3 X8.2 Y51.8 I0 J-0.5
G1 Y49.3
X5.7
Y50.8
G3 X4.2 Y52.3 I-1.5 J0
G1 X3.2
G3 X1.7 Y50.8 I0 J-1.5
G1 Y16.8
G3 X3.2 Y15.3 I1.5 J0
G1 X8.2
Y9.3
X3.2
G3 X1.7 Y7.8 I0 J-1.5
G1 Y5.3
G3 X3.2 Y3.8 I1.5 J0
G1 X71.4
G3 X72.9 Y5.3 I0 J1.5
G1 Y7.8
G3 X71.4 Y9.3 I-1.5 J0
G1 X66.4
Y15.3
X71.4
G3 X72.9 Y16.8 I0 J1.5
G1 Y50.8
G3 X71.4 Y52.3 I-1.5 J0
G1 X70.4
G3 X68.9 Y50.8 I0 J-1.5
G1 Y49.3
X66.4
Y51.8
G3 X65.9 Y52.3 I-0.5 J0
G1 X37.3
X36.3
X36.262 Y52.308
X36.229 Y52.329
X36.208 Y52.362
X36.2 Y52.4
Y52.5
Y52.538 Z-1.992
Y52.571 Z-1.971
Y52.592 Z-1.938
Y52.6 Z-1.9
Z3
X58.777 Y52.4
Z2
Z-1 F200
Z-1.5
X37.3 Z-2.25 F333.3
X8.7 F600
G3 X8.1 Y51.8 I0 J-0.6
G1 Y49.4
X5.8
Y50.8
G3 X4.2 Y52.4 I-1.6 J0
G1 X3.2
G3 X1.6 Y50.8 I0 J-1.6
G1 Y16.8
G3 X3.2 Y15.2 I1.6 J0
G1 X8.1
Y9.4
X3.2
G3 X1.6 Y7.8 I0 J-1.6
G1 Y5.3
G3 X3.2 Y3.7 I1.6 J0
G1 X71.4
G3 X73 Y5.3 I0 J1.6
G1 Y7.8
G3 X71.4 Y9.4 I-1.6 J0
G1 X66.5
Y15.2
X71.4
G3 X73 Y16.8 I0 J1.6
G1 Y50.8
G3 X71.4 Y52.4 I-1.6 J0
G1 X70.4
G3 X68.8 Y50.8 I0 J-1.6
G1 Y49.4
X66.5
Y51.8
G3 X65.9 Y52.4 I-0.6 J0
G1 X37.3
X37.262 Y52.408
X37.229 Y52.429
X37.208 Y52.462
X37.2 Y52.5
Y52.6
Y52.638 Z-2.242
Y52.671 Z-2.221
Y52.692 Z-2.188
Y52.7 Z-2.15
Z3
X58.777 Y52.3
Z2
Z-1 F200
Z-1.5
X37.3 Z-2.25 F333.3
X8.7 F600
G3 X8.2 Y51.8 I0 J-0.5
G1 Y49.3
X5.7
Y50.8
G3 X4.2 Y52.3 I-1.5 J0
G1 X3.2
G3 X1.7 Y50.8 I0 J-1.5
G1 Y16.8
G3 X3.2 Y15.3 I1.5 J0
G1 X8.2
Y9.3
X3.2
G3 X1.7 Y7.8 I0 J-1.5
G1 Y5.3
G3 X3.2 Y3.8 I1.5 J0
G1 X71.4
G3 X72.9 Y5.3 I0 J1.5
G1 Y7.8
G3 X71.4 Y9.3 I-1.5 J0
G1 X66.4
Y15.3
X71.4
G3 X72.9 Y16.8 I0 J1.5
G1 Y50.8
G3 X71.4 Y52.3 I-1.5 J0
G1 X70.4
G3 X68.9 Y50.8 I0 J-1.5
G1 Y49.3
X66.4
Y51.8
G3 X65.9 Y52.3 I-0.5 J0
G1 X37.3
X36.3
X36.262 Y52.308
X36.229 Y52.329
X36.208 Y52.362
X36.2 Y52.4
Y52.5
Y52.538 Z-2.242
Y52.571 Z-2.221
Y52.592 Z-2.188
Y52.6 Z-2.15
Z3
X58.777 Y52.4
Z2
Z-1.25 F200
Z-1.75
X37.3 Z-2.5 F333.3
X8.7 F600
G3 X8.1 Y51.8 I0 J-0.6
G1 Y49.4
X5.8
Y50.8
G3 X4.2 Y52.4 I-1.6 J0
G1 X3.2
G3 X1.6 Y50.8 I0 J-1.6
G1 Y16.8
G3 X3.2 Y15.2 I1.6 J0
G1 X8.1
Y9.4
X3.2
G3 X1.6 Y7.8 I0 J-1.6
G1 Y5.3
G3 X3.2 Y3.7 I1.6 J0
G1 X71.4
G3 X73 Y5.3 I0 J1.6
G1 Y7.8
G3 X71.4 Y9.4 I-1.6 J0
G1 X66.5
Y15.2
X71.4
G3 X73 Y16.8 I0 J1.6
G1 Y50.8
G3 X71.4 Y52.4 I-1.6 J0
G1 X70.4
G3 X68.8 Y50.8 I0 J-1.6
G1 Y49.4
X66.5
Y51.8
G3 X65.9 Y52.4 I-0.6 J0
G1 X37.3
X37.262 Y52.408
X37.229 Y52.429
X37.208 Y52.462
X37.2 Y52.5
Y52.6
Y52.638 Z-2.492
Y52.671 Z-2.471
Y52.692 Z-2.438
Y52.7 Z-2.4
Z3
X58.777 Y52.3
Z2
Z-1.25 F200
Z-1.75
X37.3 Z-2.5 F333.3
X8.7 F600
G3 X8.2 Y51.8 I0 J-0.5
G1 Y49.3
X5.7
Y50.8
G3 X4.2 Y52.3 I-1.5 J0
G1 X3.2
G3 X1.7 Y50.8 I0 J-1.5
G1 Y16.8
G3 X3.2 Y15.3 I1.5 J0
G1 X8.2
Y9.3
X3.2
G3 X1.7 Y7.8 I0 J-1.5
G1 Y5.3
G3 X3.2 Y3.8 I1.5 J0
G1 X71.4
G3 X72.9 Y5.3 I0 J1.5
G1 Y7.8
G3 X71.4 Y9.3 I-1.5 J0
G1 X66.4
Y15.3
X71.4
G3 X72.9 Y16.8 I0 J1.5
G1 Y50.8
G3 X71.4 Y52.3 I-1.5 J0
G1 X70.4
G3 X68.9 Y50.8 I0 J-1.5
G1 Y49.3
X66.4
Y51.8
G3 X65.9 Y52.3 I-0.5 J0
G1 X37.3
X36.3
X36.262 Y52.308
X36.229 Y52.329
X36.208 Y52.362
X36.2 Y52.4
Y52.5
Y52.538 Z-2.492
Y52.571 Z-2.471
Y52.592 Z-2.438
Y52.6 Z-2.4
Z3
X58.777 Y52.4
Z2
Z-1.5 F200
Z-2
X37.3 Z-2.75 F333.3
X8.7 F600
G3 X8.1 Y51.8 I0 J-0.6
G1 Y49.4
X5.8
Y50.8
G3 X4.2 Y52.4 I-1.6 J0
G1 X3.2
G3 X1.6 Y50.8 I0 J-1.6
G1 Y16.8
G3 X3.2 Y15.2 I1.6 J0
G1 X8.1
Y9.4
X3.2
G3 X1.6 Y7.8 I0 J-1.6
G1 Y5.3
G3 X3.2 Y3.7 I1.6 J0
G1 X71.4
G3 X73 Y5.3 I0 J1.6
G1 Y7.8
G3 X71.4 Y9.4 I-1.6 J0
G1 X66.5
Y15.2
X71.4
G3 X73 Y16.8 I0 J1.6
G1 Y50.8
G3 X71.4 Y52.4 I-1.6 J0
G1 X70.4
G3 X68.8 Y50.8 I0 J-1.6
G1 Y49.4
X66.5
Y51.8
G3 X65.9 Y52.4 I-0.6 J0
G1 X37.3
X37.262 Y52.408
X37.229 Y52.429
X37.208 Y52.462
X37.2 Y52.5
Y52.6
Y52.638 Z-2.742
Y52.671 Z-2.721
Y52.692 Z-2.688
Y52.7 Z-2.65
Z3
X58.777 Y52.3
Z2
Z-1.5 F200
Z-2
X37.3 Z-2.75 F333.3
X8.7 F600
G3 X8.2 Y51.8 I0 J-0.5
G1 Y49.3
X5.7
Y50.8
G3 X4.2 Y52.3 I-1.5 J0
G1 X3.2
G3 X1.7 Y50.8 I0 J-1.5
G1 Y16.8
G3 X3.2 Y15.3 I1.5 J0
G1 X8.2
Y9.3
X3.2
G3 X1.7 Y7.8 I0 J-1.5
G1 Y5.3
G3 X3.2 Y3.8 I1.5 J0
G1 X71.4
G3 X72.9 Y5.3 I0 J1.5
G1 Y7.8
G3 X71.4 Y9.3 I-1.5 J0
G1 X66.4
Y15.3
X71.4
G3 X72.9 Y16.8 I0 J1.5
G1 Y50.8
G3 X71.4 Y52.3 I-1.5 J0
G1 X70.4
G3 X68.9 Y50.8 I0 J-1.5
G1 Y49.3
X66.4
Y51.8
G3 X65.9 Y52.3 I-0.5 J0
G1 X37.3
X36.3
X36.262 Y52.308
X36.229 Y52.329
X36.208 Y52.362
X36.2 Y52.4
Y52.5
Y52.538 Z-2.742
Y52.571 Z-2.721
Y52.592 Z-2.688
Y52.6 Z-2.65
Z3
X58.777 Y52.4
Z2
Z-1.75 F200
Z-2.25
X37.3 Z-3 F333.3
X8.7 F600
G3 X8.1 Y51.8 I0 J-0.6
G1 Y49.4
X5.8
Y50.8
G3 X4.2 Y52.4 I-1.6 J0
G1 X3.2
G3 X1.6 Y50.8 I0 J-1.6
G1 Y16.8
G3 X3.2 Y15.2 I1.6 J0
G1 X8.1
Y9.4
X3.2
G3 X1.6 Y7.8 I0 J-1.6
G1 Y5.3
G3 X3.2 Y3.7 I1.6 J0
G1 X71.4
G3 X73 Y5.3 I0 J1.6
G1 Y7.8
G3 X71.4 Y9.4 I-1.6 J0
G1 X66.5
Y15.2
X71.4
G3 X73 Y16.8 I0 J1.6
G1 Y50.8
G3 X71.4 Y52.4 I-1.6 J0
G1 X70.4
G3 X68.8 Y50.8 I0 J-1.6
G1 Y49.4
X66.5
Y51.8
G3 X65.9 Y52.4 I-0.6 J0
G1 X37.3
X37.262 Y52.408
X37.229 Y52.429
X37.208 Y52.462
X37.2 Y52.5
Y52.6
Y52.638 Z-2.992
Y52.671 Z-2.971
Y52.692 Z-2.938
Y52.7 Z-2.9
Z3
X58.777 Y52.3
Z2
Z-1.75 F200
Z-2.25
X37.3 Z-3 F333.3
X8.7 F600
G3 X8.2 Y51.8 I0 J-0.5
G1 Y49.3
X5.7
Y50.8
G3 X4.2 Y52.3 I-1.5 J0
G1 X3.2
G3 X1.7 Y50.8 I0 J-1.5
G1 Y16.8
G3 X3.2 Y15.3 I1.5 J0
G1 X8.2
Y9.3
X3.2
G3 X1.7 Y7.8 I0 J-1.5
G1 Y5.3
G3 X3.2 Y3.8 I1.5 J0
G1 X71.4
G3 X72.9 Y5.3 I0 J1.5
G1 Y7.8
G3 X71.4 Y9.3 I-1.5 J0
G1 X66.4
Y15.3
X71.4
G3 X72.9 Y16.8 I0 J1.5
G1 Y50.8
G3 X71.4 Y52.3 I-1.5 J0
G1 X70.4
G3 X68.9 Y50.8 I0 J-1.5
G1 Y49.3
X66.4
Y51.8
G3 X65.9 Y52.3 I-0.5 J0
G1 X37.3
X36.3
X36.262 Y52.308
X36.229 Y52.329
X36.208 Y52.362
X36.2 Y52.4
Y52.5
Y52.538 Z-2.992
Y52.571 Z-2.971
Y52.592 Z-2.938
Y52.6 Z-2.9
Z3
X54.482 Y52.4
Z2
Z-2 F200
Z-2.5
X37.3 Z-3.1 F333.3
X8.7 F600
G3 X8.1 Y51.8 I0 J-0.6
G1 Y49.4
X5.8
Y50.8
G3 X4.2 Y52.4 I-1.6 J0
G1 X3.2
G3 X1.6 Y50.8 I0 J-1.6
G1 Y16.8
G3 X3.2 Y15.2 I1.6 J0
G1 X8.1
Y9.4
X3.2
G3 X1.6 Y7.8 I0 J-1.6
G1 Y5.3
G3 X3.2 Y3.7 I1.6 J0
G1 X71.4
G3 X73 Y5.3 I0 J1.6
G1 Y7.8
G3 X71.4 Y9.4 I-1.6 J0
G1 X66.5
Y15.2
X71.4
G3 X73 Y16.8 I0 J1.6
G1 Y50.8
G3 X71.4 Y52.4 I-1.6 J0
G1 X70.4
G3 X68.8 Y50.8 I0 J-1.6
G1 Y49.4
X66.5
Y51.8
G3 X65.9 Y52.4 I-0.6 J0
G1 X37.3
X37.262 Y52.408
X37.229 Y52.429
X37.208 Y52.462
X37.2 Y52.5
Y52.6
Y52.638 Z-3.092
Y52.671 Z-3.071
Y52.692 Z-3.038
Y52.7 Z-3
Z3
X54.482 Y52.3
Z2
Z-2 F200
Z-2.5
X37.3 Z-3.1 F333.3
X8.7 F600
G3 X8.2 Y51.8 I0 J-0.5
G1 Y49.3
X5.7
Y50.8
G3 X4.2 Y52.3 I-1.5 J0
G1 X3.2
G3 X1.7 Y50.8 I0 J-1.5
G1 Y16.8
G3 X3.2 Y15.3 I1.5 J0
G1 X8.2
Y9.3
X3.2
G3 X1.7 Y7.8 I0 J-1.5
G1 Y5.3
G3 X3.2 Y3.8 I1.5 J0
G1 X71.4
G3 X72.9 Y5.3 I0 J1.5
G1 Y7.8
G3 X71.4 Y9.3 I-1.5 J0
G1 X66.4
Y15.3
X71.4
G3 X72.9 Y16.8 I0 J1.5
G1 Y50.8
G3 X71.4 Y52.3 I-1.5 J0
G1 X70.4
G3 X68.9 Y50.8 I0 J-1.5
G1 Y49.3
X66.4
Y51.8
G3 X65.9 Y52.3 I-0.5 J0
G1 X37.3
X36.3
X36.262 Y52.308
X36.229 Y52.329
X36.208 Y52.362
X36.2 Y52.4
Y52.5
Y52.538 Z-3.092
Y52.571 Z-3.071
Y52.592 Z-3.038
Y52.6 Z-3
Z5
G0 X0 Y120 F1500
M5
M30
